; generated by Slic3r 0.9.9 on 2013-06-02 at 13:15:35

; layer_height = 0.36
; perimeters = 2
; top_solid_layers = 3
; bottom_solid_layers = 3
; fill_density = 1
; perimeter_speed = 60
; infill_speed = 70
; travel_speed = 100
; nozzle_diameter = 0.5
; filament_diameter = 3
; extrusion_multiplier = 0.8
; perimeters extrusion width = 0.56mm
; infill extrusion width = 0.43mm
; solid infill extrusion width = 0.56mm
; top infill extrusion width = 0.56mm
; support material extrusion width = 0.56mm

G21 ; set units to millimeters
M107
M104 S220 ; set temperature
G28 ; home all axes
M92 X64.8592 ; calibrate X
M92 Y64.8592  ; calibrate Y
M92 Z2560   ; calibrate Z
M92 E569  ; calibrate E
M551 ; prime extruder 1
M109 S220 ; wait for temperature to be reached
G90 ; use absolute coordinates
G92 E0
M82 ; use absolute distances for extrusion
G1 F1800.000 E-1.00000
G92 E0
G1 Z0.360 F6000.000
G1 X91.440 Y91.804
G1 F1800.000 E1.00000
G1 X93.390 Y90.164 F1800.000 E1.05662
G1 X93.920 Y89.804 E1.07086
G1 X94.490 Y89.494 E1.08528
G1 X95.080 Y89.244 E1.09952
G1 X96.880 Y88.594 E1.14205
G1 X97.480 Y88.414 E1.15597
G1 X98.100 Y88.294 E1.17000
G1 X98.730 Y88.224 E1.18409
G1 X101.270 Y88.224 E1.24053
G1 X102.210 Y88.344 E1.26159
G1 X102.520 Y88.414 E1.26865
G1 X103.120 Y88.604 E1.28264
G1 X104.910 Y89.254 E1.32496
G1 X105.210 Y89.364 E1.33206
G1 X105.780 Y89.644 E1.34617
G1 X106.580 Y90.154 E1.36725
G1 X108.530 Y91.794 E1.42387
G1 X108.760 Y92.014 E1.43095
G1 X109.190 Y92.494 E1.44527
G1 X109.560 Y93.014 E1.45945
G1 X110.830 Y95.214 E1.51590
G1 X111.090 Y95.794 E1.53002
G1 X111.290 Y96.394 E1.54408
G1 X111.430 Y97.014 E1.55820
G1 X111.760 Y98.894 E1.60062
G1 X111.840 Y99.524 E1.61473
G1 X111.850 Y99.834 E1.62162
G1 X111.840 Y100.464 E1.63563
G1 X111.760 Y101.094 E1.64974
G1 X111.370 Y103.284 E1.69917
G1 X111.200 Y103.884 E1.71303
G1 X111.090 Y104.184 E1.72013
G1 X110.970 Y104.474 E1.72710
G1 X110.680 Y105.034 E1.74112
G1 X109.590 Y106.934 E1.78980
G1 X109.260 Y107.404 E1.80256
G1 X108.890 Y107.844 E1.81533
G1 X108.490 Y108.244 E1.82790
G1 X108.270 Y108.434 E1.83436
G1 X106.560 Y109.844 E1.88362
G1 X106.050 Y110.184 E1.89724
G1 X105.510 Y110.484 E1.91096
G1 X104.940 Y110.724 E1.92471
G1 X102.850 Y111.484 E1.97413
G1 X102.540 Y111.574 E1.98130
G1 X101.910 Y111.704 E1.99560
G1 X101.270 Y111.774 E2.00990
G1 X98.720 Y111.774 E2.06657
G1 X97.770 Y111.654 E2.08785
G1 X97.150 Y111.494 E2.10208
G1 X94.760 Y110.614 E2.15867
G1 X94.190 Y110.344 E2.17269
G1 X93.400 Y109.834 E2.19359
G1 X91.460 Y108.204 E2.24989
G1 X91.010 Y107.744 E2.26419
G1 X90.800 Y107.494 E2.27145
G1 X90.420 Y106.974 E2.28576
G1 X89.310 Y105.034 E2.33543
G1 X89.020 Y104.474 E2.34945
G1 X88.900 Y104.184 E2.35642
G1 X88.700 Y103.584 E2.37047
G1 X88.560 Y102.974 E2.38438
G1 X88.230 Y101.094 E2.42680
G1 X88.150 Y100.464 E2.44091
G1 X88.140 Y100.154 E2.44780
G1 X88.150 Y99.524 E2.46181
G1 X88.230 Y98.894 E2.47592
G1 X88.560 Y97.014 E2.51833
G1 X88.700 Y96.394 E2.53246
G1 X88.900 Y95.794 E2.54651
G1 X89.160 Y95.214 E2.56064
G1 X90.430 Y93.014 E2.61709
G1 X90.800 Y92.504 E2.63109
G1 X91.000 Y92.264 E2.63803
G1 X91.382 Y91.861 E2.65036
G1 X91.810 Y92.204 F6000.000
G1 X93.720 Y90.604 F1800.000 E2.70573
G1 X94.460 Y90.124 E2.72533
G1 X94.990 Y89.864 E2.73845
G1 X97.060 Y89.114 E2.78738
G1 X97.610 Y88.944 E2.80017
G1 X98.460 Y88.794 E2.81935
G1 X99.040 Y88.764 E2.83226
G1 X100.950 Y88.764 E2.87470
G1 X101.530 Y88.794 E2.88761
G1 X101.820 Y88.834 E2.89411
G1 X102.380 Y88.944 E2.90679
G1 X102.660 Y89.024 E2.91326
G1 X104.730 Y89.764 E2.96212
G1 X105.520 Y90.124 E2.98141
G1 X105.770 Y90.264 E2.98778
G1 X106.250 Y90.594 E3.00072
G1 X108.160 Y92.194 E3.05609
G1 X108.760 Y92.834 E3.07558
G1 X109.100 Y93.314 E3.08866
G1 X110.200 Y95.214 E3.13744
G1 X110.470 Y95.724 E3.15027
G1 X110.680 Y96.264 E3.16314
G1 X110.890 Y97.104 E3.18238
G1 X111.220 Y98.984 E3.22480
G1 X111.310 Y99.854 E3.24424
G1 X111.290 Y100.424 E3.25691
G1 X111.220 Y101.004 E3.26989
G1 X110.890 Y102.884 E3.31231
G1 X110.680 Y103.714 E3.33134
G1 X110.350 Y104.514 E3.35057
G1 X109.260 Y106.424 E3.39944
G1 X108.940 Y106.924 E3.41263
G1 X108.570 Y107.394 E3.42592
G1 X107.930 Y108.014 E3.44572
G1 X106.460 Y109.234 E3.48817
G1 X105.770 Y109.724 E3.50698
G1 X105.270 Y109.994 E3.51961
G1 X104.750 Y110.214 E3.53215
G1 X102.680 Y110.964 E3.58108
G1 X102.120 Y111.114 E3.59396
G1 X101.830 Y111.164 E3.60050
G1 X101.540 Y111.204 E3.60701
G1 X100.950 Y111.234 E3.62014
G1 X98.750 Y111.224 E3.66903
G1 X98.460 Y111.204 E3.67549
G1 X97.880 Y111.114 E3.68853
G1 X97.310 Y110.974 E3.70157
G1 X94.970 Y110.114 E3.75697
G1 X94.460 Y109.864 E3.76959
G1 X93.970 Y109.564 E3.78236
G1 X93.730 Y109.394 E3.78890
G1 X91.830 Y107.804 E3.84395
G1 X91.420 Y107.384 E3.85700
G1 X91.050 Y106.924 E3.87012
G1 X90.880 Y106.674 E3.87683
G1 X89.780 Y104.764 E3.92581
G1 X89.520 Y104.254 E3.93854
G1 X89.310 Y103.714 E3.95141
G1 X89.100 Y102.884 E3.97044
G1 X88.770 Y101.004 E4.01285
G1 X88.680 Y100.134 E4.03229
G1 X88.700 Y99.564 E4.04496
G1 X88.770 Y98.984 E4.05795
G1 X89.100 Y97.104 E4.10036
G1 X89.230 Y96.544 E4.11314
G1 X89.410 Y95.994 E4.12600
G1 X89.650 Y95.464 E4.13893
G1 X90.890 Y93.314 E4.19408
G1 X91.050 Y93.074 E4.20049
G1 X91.410 Y92.624 E4.21330
G1 X91.754 Y92.263 E4.22437
G1 X92.150 Y92.634 F6000.000
G1 X94.050 Y91.034 F1800.000 E4.27957
G1 X94.490 Y90.734 E4.29140
G1 X94.960 Y90.484 E4.30323
G1 X95.450 Y90.274 E4.31508
G1 X97.540 Y89.534 E4.36435
G1 X97.830 Y89.454 E4.37103
G1 X98.430 Y89.344 E4.38459
G1 X99.040 Y89.314 E4.39816
G1 X100.950 Y89.314 E4.44061
G1 X101.560 Y89.344 E4.45418
G1 X101.860 Y89.394 E4.46094
G1 X102.160 Y89.454 E4.46773
G1 X102.750 Y89.624 E4.48138
G1 X104.540 Y90.274 E4.52370
G1 X105.260 Y90.604 E4.54130
G1 X105.920 Y91.024 E4.55868
G1 X107.790 Y92.594 E4.61294
G1 X108.330 Y93.174 E4.63055
G1 X108.640 Y93.604 E4.64233
G1 X109.730 Y95.484 E4.69063
G1 X109.970 Y95.954 E4.70235
G1 X110.070 Y96.194 E4.70813
G1 X110.240 Y96.694 E4.71987
G1 X110.350 Y97.204 E4.73146
G1 X110.730 Y99.384 E4.78064
G1 X110.760 Y99.994 E4.79421
G1 X110.730 Y100.604 E4.80778
G1 X110.680 Y100.904 E4.81454
G1 X110.290 Y103.084 E4.86375
G1 X110.120 Y103.664 E4.87718
G1 X110.010 Y103.944 E4.88387
G1 X109.740 Y104.494 E4.89748
G1 X108.790 Y106.154 E4.93999
G1 X108.650 Y106.384 E4.94597
G1 X108.330 Y106.824 E4.95806
G1 X108.160 Y107.024 E4.96389
G1 X107.580 Y107.594 E4.98196
G1 X106.110 Y108.814 E5.02441
G1 X105.630 Y109.164 E5.03762
G1 X105.110 Y109.464 E5.05096
G1 X104.560 Y109.704 E5.06429
G1 X102.770 Y110.364 E5.10669
G1 X102.270 Y110.524 E5.11835
G1 X101.750 Y110.624 E5.13012
G1 X101.220 Y110.684 E5.14197
G1 X98.780 Y110.684 E5.19620
G1 X98.510 Y110.664 E5.20221
G1 X97.990 Y110.584 E5.21390
G1 X97.730 Y110.524 E5.21983
G1 X97.220 Y110.364 E5.23171
G1 X95.140 Y109.594 E5.28100
G1 X94.600 Y109.324 E5.29442
G1 X94.350 Y109.164 E5.30101
G1 X93.860 Y108.804 E5.31452
G1 X92.400 Y107.584 E5.35680
G1 X91.830 Y107.024 E5.37456
G1 X91.650 Y106.814 E5.38071
G1 X91.340 Y106.384 E5.39249
G1 X90.250 Y104.494 E5.44097
G1 X89.980 Y103.944 E5.45459
G1 X89.780 Y103.374 E5.46801
G1 X89.640 Y102.784 E5.48149
G1 X89.260 Y100.604 E5.53066
G1 X89.230 Y99.994 E5.54423
G1 X89.260 Y99.384 E5.55780
G1 X89.640 Y97.204 E5.60698
G1 X89.750 Y96.694 E5.61857
G1 X89.920 Y96.194 E5.63031
G1 X90.020 Y95.954 E5.63609
G1 X90.260 Y95.484 E5.64781
G1 X91.370 Y93.574 E5.69691
G1 X91.740 Y93.084 E5.71055
G1 X92.094 Y92.693 E5.72226
G1 X92.530 Y93.034 F6000.000
G1 X92.730 Y92.844 F1800.000 E5.72839
G1 X94.190 Y91.614 E5.77082
G1 X94.640 Y91.284 E5.78322
G1 X95.120 Y91.004 E5.79556
G1 X95.630 Y90.784 E5.80791
G1 X97.690 Y90.054 E5.85647
G1 X98.230 Y89.924 E5.86882
G1 X98.500 Y89.884 E5.87488
G1 X99.040 Y89.854 E5.88690
G1 X100.950 Y89.854 E5.92935
G1 X101.500 Y89.884 E5.94159
G1 X101.770 Y89.924 E5.94765
G1 X102.300 Y90.054 E5.95978
G1 X104.350 Y90.794 E6.00821
G1 X104.860 Y91.004 E6.02047
G1 X105.100 Y91.134 E6.02653
G1 X105.560 Y91.434 E6.03874
G1 X107.240 Y92.834 E6.08733
G1 X107.650 Y93.214 E6.09976
G1 X107.830 Y93.424 E6.10590
G1 X108.160 Y93.874 E6.11830
G1 X108.310 Y94.104 E6.12441
G1 X109.260 Y95.754 E6.16672
G1 X109.500 Y96.244 E6.17884
G1 X109.690 Y96.764 E6.19114
G1 X109.820 Y97.294 E6.20327
G1 X110.150 Y99.174 E6.24569
G1 X110.210 Y99.724 E6.25798
G1 X110.210 Y100.264 E6.26998
G1 X110.150 Y100.814 E6.28228
G1 X109.820 Y102.694 E6.32469
G1 X109.610 Y103.484 E6.34286
G1 X109.390 Y103.984 E6.35500
G1 X108.310 Y105.884 E6.40356
G1 X108.170 Y106.124 E6.40974
G1 X107.830 Y106.574 E6.42227
G1 X107.640 Y106.784 E6.42857
G1 X107.230 Y107.174 E6.44114
G1 X105.760 Y108.394 E6.48359
G1 X105.330 Y108.714 E6.49550
G1 X105.100 Y108.854 E6.50149
G1 X104.380 Y109.194 E6.51918
G1 X102.590 Y109.854 E6.56158
G1 X102.050 Y110.014 E6.57409
G1 X101.230 Y110.134 E6.59251
G1 X98.760 Y110.134 E6.64740
G1 X97.940 Y110.014 E6.66581
G1 X97.410 Y109.854 E6.67812
G1 X95.610 Y109.194 E6.72072
G1 X95.360 Y109.094 E6.72670
G1 X94.880 Y108.844 E6.73873
G1 X94.420 Y108.554 E6.75081
G1 X92.750 Y107.164 E6.79910
G1 X92.540 Y106.974 E6.80539
G1 X92.160 Y106.574 E6.81765
G1 X91.820 Y106.124 E6.83019
G1 X90.730 Y104.224 E6.87886
G1 X90.480 Y103.734 E6.89109
G1 X90.300 Y103.224 E6.90311
G1 X90.170 Y102.694 E6.91523
G1 X89.840 Y100.814 E6.95765
G1 X89.800 Y100.544 E6.96371
G1 X89.770 Y99.994 E6.97595
G1 X89.800 Y99.444 E6.98819
G1 X90.170 Y97.294 E7.03667
G1 X90.300 Y96.764 E7.04880
G1 X90.490 Y96.244 E7.06110
G1 X90.730 Y95.754 E7.07323
G1 X91.680 Y94.104 E7.11554
G1 X91.980 Y93.644 E7.12774
G1 X92.150 Y93.434 E7.13375
G1 X92.472 Y93.091 E7.14419
G1 X92.900 Y93.424 F6000.000
G1 X94.740 Y91.884 F1800.000 E7.19751
G1 X94.940 Y91.744 E7.20294
G1 X95.370 Y91.494 E7.21399
G1 X95.820 Y91.304 E7.22484
G1 X97.850 Y90.574 E7.27278
G1 X98.320 Y90.464 E7.28351
G1 X99.040 Y90.404 E7.29957
G1 X101.190 Y90.414 E7.34734
G1 X101.670 Y90.464 E7.35807
G1 X102.150 Y90.574 E7.36901
G1 X102.380 Y90.654 E7.37442
G1 X104.170 Y91.304 E7.41674
G1 X104.610 Y91.494 E7.42739
G1 X104.830 Y91.614 E7.43296
G1 X105.030 Y91.734 E7.43814
G1 X105.420 Y92.024 E7.44894
G1 X106.890 Y93.254 E7.49154
G1 X107.250 Y93.594 E7.50254
G1 X107.570 Y93.964 E7.51341
G1 X107.710 Y94.164 E7.51884
G1 X108.780 Y96.024 E7.56652
G1 X109.000 Y96.464 E7.57745
G1 X109.170 Y96.914 E7.58814
G1 X109.280 Y97.394 E7.59909
G1 X109.610 Y99.274 E7.64150
G1 X109.670 Y99.994 E7.65756
G1 X109.610 Y100.714 E7.67362
G1 X109.280 Y102.594 E7.71603
G1 X109.170 Y103.064 E7.72676
G1 X109.090 Y103.294 E7.73217
G1 X109.000 Y103.524 E7.73766
G1 X108.790 Y103.954 E7.74829
G1 X107.840 Y105.614 E7.79079
G1 X107.570 Y106.024 E7.80170
G1 X107.410 Y106.224 E7.80740
G1 X107.240 Y106.414 E7.81306
G1 X106.880 Y106.754 E7.82407
G1 X105.410 Y107.974 E7.86652
G1 X104.950 Y108.304 E7.87910
G1 X104.700 Y108.444 E7.88546
G1 X104.450 Y108.574 E7.89173
G1 X104.190 Y108.674 E7.89792
G1 X102.160 Y109.414 E7.94593
G1 X101.680 Y109.534 E7.95693
G1 X100.950 Y109.594 E7.97320
G1 X98.800 Y109.584 E8.02098
G1 X98.310 Y109.534 E8.03193
G1 X98.070 Y109.484 E8.03738
G1 X97.600 Y109.344 E8.04827
G1 X95.580 Y108.594 E8.09616
G1 X95.360 Y108.494 E8.10153
G1 X94.940 Y108.254 E8.11228
G1 X94.560 Y107.964 E8.12290
G1 X93.100 Y106.744 E8.16518
G1 X92.570 Y106.224 E8.18168
G1 X92.280 Y105.824 E8.19266
G1 X91.200 Y103.954 E8.24065
G1 X90.990 Y103.524 E8.25128
G1 X90.820 Y103.064 E8.26218
G1 X90.710 Y102.594 E8.27291
G1 X90.380 Y100.714 E8.31532
G1 X90.320 Y99.994 E8.33138
G1 X90.380 Y99.274 E8.34743
G1 X90.710 Y97.394 E8.38985
G1 X90.820 Y96.914 E8.40079
G1 X90.900 Y96.684 E8.40620
G1 X91.090 Y96.244 E8.41685
G1 X91.210 Y96.024 E8.42242
G1 X92.280 Y94.174 E8.46992
G1 X92.570 Y93.784 E8.48072
G1 X92.844 Y93.483 E8.48975
G1 X93.250 Y93.854 F6000.000
G1 X95.100 Y92.294 F1800.000 E8.54353
G1 X95.540 Y92.024 E8.55500
G1 X96.000 Y91.814 E8.56624
G1 X98.040 Y91.084 E8.61438
G1 X98.540 Y90.984 E8.62572
G1 X99.040 Y90.944 E8.63686
G1 X100.950 Y90.944 E8.67931
G1 X101.200 Y90.954 E8.68487
G1 X101.700 Y91.024 E8.69609
G1 X102.190 Y91.164 E8.70741
G1 X103.980 Y91.814 E8.74973
G1 X104.440 Y92.024 E8.76097
G1 X104.660 Y92.144 E8.76654
G1 X104.870 Y92.294 E8.77227
G1 X106.540 Y93.674 E8.82041
G1 X106.910 Y94.034 E8.83188
G1 X107.080 Y94.224 E8.83755
G1 X107.230 Y94.434 E8.84329
G1 X108.310 Y96.304 E8.89127
G1 X108.530 Y96.754 E8.90240
G1 X108.690 Y97.234 E8.91365
G1 X108.740 Y97.484 E8.91931
G1 X109.110 Y99.614 E8.96736
G1 X109.120 Y99.864 E8.97292
G1 X109.110 Y100.374 E8.98425
G1 X108.740 Y102.504 E9.03229
G1 X108.620 Y102.994 E9.04350
G1 X108.320 Y103.684 E9.06022
G1 X107.370 Y105.344 E9.10273
G1 X107.080 Y105.774 E9.11425
G1 X106.910 Y105.974 E9.12009
G1 X106.530 Y106.334 E9.13172
G1 X105.060 Y107.554 E9.17417
G1 X104.870 Y107.704 E9.17955
G1 X104.450 Y107.964 E9.19053
G1 X104.000 Y108.164 E9.20147
G1 X101.960 Y108.904 E9.24969
G1 X101.460 Y109.014 E9.26107
G1 X100.950 Y109.054 E9.27244
G1 X98.780 Y109.044 E9.32066
G1 X98.280 Y108.974 E9.33188
G1 X97.790 Y108.824 E9.34327
G1 X95.990 Y108.164 E9.38587
G1 X95.530 Y107.964 E9.39702
G1 X95.310 Y107.834 E9.40270
G1 X94.910 Y107.544 E9.41368
G1 X93.450 Y106.324 E9.45596
G1 X93.080 Y105.964 E9.46743
G1 X92.760 Y105.564 E9.47881
G1 X91.670 Y103.684 E9.52710
G1 X91.460 Y103.224 E9.53834
G1 X91.370 Y102.994 E9.54383
G1 X91.250 Y102.504 E9.55504
G1 X90.880 Y100.374 E9.60308
G1 X90.870 Y100.124 E9.60864
G1 X90.880 Y99.614 E9.61998
G1 X91.250 Y97.484 E9.66802
G1 X91.370 Y96.994 E9.67923
G1 X91.560 Y96.524 E9.69050
G1 X92.760 Y94.434 E9.74405
G1 X93.070 Y94.034 E9.75530
G1 X93.192 Y93.911 E9.75914
G1 X93.630 Y94.244 F6000.000
G1 X95.420 Y92.734 F1800.000 E9.81118
G1 X95.790 Y92.504 E9.82086
G1 X96.190 Y92.324 E9.83061
G1 X97.990 Y91.674 E9.87313
G1 X98.610 Y91.524 E9.88731
G1 X99.040 Y91.494 E9.89689
G1 X100.950 Y91.494 E9.93933
G1 X101.380 Y91.524 E9.94891
G1 X102.000 Y91.674 E9.96309
G1 X103.790 Y92.324 E10.00541
G1 X104.190 Y92.504 E10.01515
G1 X104.550 Y92.734 E10.02465
G1 X106.360 Y94.234 E10.07689
G1 X106.650 Y94.564 E10.08665
G1 X106.890 Y94.924 E10.09626
G1 X107.840 Y96.574 E10.13857
G1 X108.030 Y96.964 E10.14821
G1 X108.160 Y97.364 E10.15756
G1 X108.530 Y99.464 E10.20495
G1 X108.580 Y99.884 E10.21434
G1 X108.580 Y100.104 E10.21923
G1 X108.530 Y100.524 E10.22863
G1 X108.200 Y102.404 E10.27105
G1 X108.100 Y102.824 E10.28064
G1 X108.030 Y103.024 E10.28535
G1 X107.840 Y103.414 E10.29499
G1 X106.890 Y105.074 E10.33750
G1 X106.650 Y105.434 E10.34711
G1 X106.350 Y105.764 E10.35702
G1 X106.180 Y105.914 E10.36206
G1 X104.550 Y107.264 E10.40909
G1 X104.190 Y107.484 E10.41847
G1 X103.810 Y107.654 E10.42772
G1 X101.810 Y108.384 E10.47503
G1 X101.390 Y108.474 E10.48458
G1 X100.950 Y108.504 E10.49438
G1 X99.040 Y108.504 E10.53682
G1 X98.610 Y108.474 E10.54640
G1 X98.180 Y108.384 E10.55616
G1 X96.180 Y107.654 E10.60347
G1 X95.790 Y107.484 E10.61293
G1 X95.430 Y107.254 E10.62242
G1 X93.630 Y105.764 E10.67435
G1 X93.340 Y105.434 E10.68411
G1 X93.100 Y105.074 E10.69373
G1 X92.150 Y103.414 E10.73623
G1 X91.960 Y103.024 E10.74587
G1 X91.830 Y102.614 E10.75543
G1 X91.790 Y102.404 E10.76018
G1 X91.460 Y100.524 E10.80259
G1 X91.410 Y100.104 E10.81199
G1 X91.410 Y99.884 E10.81688
G1 X91.460 Y99.464 E10.82628
G1 X91.830 Y97.364 E10.87367
G1 X91.960 Y96.964 E10.88301
G1 X92.150 Y96.574 E10.89265
G1 X93.100 Y94.924 E10.93496
G1 X93.340 Y94.564 E10.94458
G1 X93.574 Y94.303 E10.95236
G1 X94.010 Y94.634 F6000.000
G1 X95.600 Y93.284 F1800.000 E10.99871
G1 X95.740 Y93.174 E11.00267
G1 X96.050 Y92.984 E11.01075
G1 X96.210 Y92.904 E11.01472
G1 X98.340 Y92.134 E11.06505
G1 X98.690 Y92.064 E11.07298
G1 X99.040 Y92.034 E11.08079
G1 X100.950 Y92.034 E11.12323
G1 X101.480 Y92.094 E11.13509
G1 X101.650 Y92.134 E11.13897
G1 X103.610 Y92.844 E11.18529
G1 X103.930 Y92.984 E11.19306
G1 X104.230 Y93.174 E11.20095
G1 X105.980 Y94.634 E11.25159
G1 X106.220 Y94.894 E11.25946
G1 X106.420 Y95.194 E11.26747
G1 X107.370 Y96.844 E11.30978
G1 X107.520 Y97.164 E11.31763
G1 X107.670 Y97.674 E11.32944
G1 X108.000 Y99.554 E11.37186
G1 X108.030 Y99.904 E11.37967
G1 X108.000 Y100.434 E11.39146
G1 X107.670 Y102.314 E11.43388
G1 X107.520 Y102.824 E11.44569
