; generated by Slic3r 0.9.9 on 2013-03-30 at 21:39:19

; layer_height = 0.36
; perimeters = 2
; top_solid_layers = 3
; bottom_solid_layers = 3
; fill_density = 0.6
; perimeter_speed = 60
; infill_speed = 70
; travel_speed = 100
; nozzle_diameter = 0.5
; filament_diameter = 3
; extrusion_multiplier = 0.8
; perimeters extrusion width = 0.56mm
; infill extrusion width = 0.43mm
; solid infill extrusion width = 0.56mm
; top infill extrusion width = 0.56mm

G21 ; set units to millimeters
M107
M104 S220 ; set temperature
G28 ; home all axes
M92 X64.8592 ; calibrate X
M92 Y64.8592  ; calibrate Y
M92 Z2560   ; calibrate Z
M92 E569  ; calibrate E
M551 ; prime extruder 1
M109 S220 ; wait for temperature to be reached
G90 ; use absolute coordinates
G92 E0
M82 ; use absolute distances for extrusion
G1 F1800.000 E-1.00000
G92 E0
G1 Z0.360 F6000.000
G1 X71.918 Y92.031
G1 F1800.000 E1.00000
G1 X72.308 Y91.761 F1800.000 E1.01054
G1 X72.948 Y91.421 E1.02665
G1 X73.388 Y91.261 E1.03705
G1 X73.848 Y91.131 E1.04767
G1 X107.898 Y83.951 E1.82098
G1 X108.438 Y83.871 E1.83311
G1 X108.978 Y83.851 E1.84512
G1 X109.528 Y83.901 E1.85739
G1 X132.668 Y87.091 E2.37648
G1 X132.888 Y87.141 E2.38149
G1 X133.538 Y87.341 E2.39660
G1 X133.948 Y87.531 E2.40664
G1 X134.338 Y87.751 E2.41659
G1 X134.708 Y88.011 E2.42664
G1 X135.048 Y88.311 E2.43672
G1 X135.358 Y88.631 E2.44662
G1 X135.508 Y88.811 E2.45183
G1 X135.768 Y89.181 E2.46188
G1 X136.098 Y89.771 E2.47690
G1 X136.188 Y89.981 E2.48198
G1 X136.328 Y90.401 E2.49181
G1 X136.478 Y91.061 E2.50686
G1 X136.508 Y91.291 E2.51201
G1 X136.528 Y91.741 E2.52202
G1 X136.528 Y107.201 E2.86558
G1 X136.508 Y107.651 E2.87559
G1 X136.388 Y108.321 E2.89071
G1 X136.178 Y108.971 E2.90589
G1 X135.878 Y109.581 E2.92100
G1 X135.638 Y109.961 E2.93098
G1 X135.198 Y110.481 E2.94612
G1 X134.868 Y110.801 E2.95634
G1 X134.508 Y111.071 E2.96634
G1 X134.128 Y111.321 E2.97644
G1 X133.508 Y111.611 E2.99166
G1 X133.078 Y111.751 E3.00170
G1 X132.638 Y111.851 E3.01173
G1 X109.288 Y116.061 E3.53899
G1 X108.778 Y116.131 E3.55043
G1 X108.528 Y116.141 E3.55599
G1 X108.018 Y116.121 E3.56733
G1 X107.758 Y116.091 E3.57314
G1 X67.508 Y110.181 E4.47718
G1 X67.068 Y110.091 E4.48716
G1 X66.628 Y109.961 E4.49736
G1 X66.208 Y109.791 E4.50742
G1 X65.608 Y109.461 E4.52264
G1 X65.248 Y109.191 E4.53264
G1 X64.898 Y108.891 E4.54289
G1 X64.588 Y108.561 E4.55295
G1 X64.188 Y108.011 E4.56806
G1 X63.868 Y107.401 E4.58337
G1 X63.638 Y106.761 E4.59848
G1 X63.538 Y106.321 E4.60851
G1 X63.468 Y105.641 E4.62370
G1 X63.478 Y105.181 E4.63392
G1 X63.498 Y104.961 E4.63883
G1 X63.628 Y104.291 E4.65400
G1 X63.688 Y104.071 E4.65907
G1 X63.848 Y103.641 E4.66926
G1 X64.048 Y103.231 E4.67940
G1 X69.278 Y94.671 E4.90232
G1 X69.568 Y94.281 E4.91312
G1 X69.738 Y94.101 E4.91862
G1 X71.558 Y92.351 E4.97473
G1 X71.857 Y92.085 E4.98361
G1 X72.108 Y92.581 F6000.000
G1 X72.478 Y92.301 F1800.000 E4.99392
G1 X72.878 Y92.061 E5.00429
G1 X73.298 Y91.871 E5.01453
G1 X73.738 Y91.721 E5.02486
G1 X108.018 Y84.491 E5.80340
G1 X108.728 Y84.401 E5.81930
G1 X109.208 Y84.411 E5.82997
G1 X109.448 Y84.441 E5.83535
G1 X132.368 Y87.601 E6.34950
G1 X132.578 Y87.631 E6.35421
G1 X132.998 Y87.731 E6.36381
G1 X133.598 Y87.961 E6.37809
G1 X134.148 Y88.281 E6.39223
G1 X134.648 Y88.681 E6.40646
G1 X134.948 Y88.991 E6.41604
G1 X135.338 Y89.511 E6.43049
G1 X135.638 Y90.071 E6.44460
G1 X135.848 Y90.681 E6.45894
G1 X135.958 Y91.311 E6.47315
G1 X135.978 Y91.531 E6.47806
G1 X135.978 Y107.421 E6.83117
G1 X135.928 Y107.841 E6.84057
G1 X135.838 Y108.271 E6.85034
G1 X135.628 Y108.881 E6.86467
G1 X135.438 Y109.261 E6.87411
G1 X135.208 Y109.631 E6.88379
G1 X134.788 Y110.121 E6.89814
G1 X134.308 Y110.551 E6.91246
G1 X133.948 Y110.791 E6.92207
G1 X133.368 Y111.081 E6.93648
G1 X132.958 Y111.221 E6.94611
G1 X132.538 Y111.321 E6.95570
G1 X109.188 Y115.531 E7.48296
G1 X108.648 Y115.591 E7.49503
G1 X108.108 Y115.581 E7.50703
G1 X107.838 Y115.551 E7.51307
G1 X67.588 Y109.641 E8.41711
G1 X66.968 Y109.501 E8.43123
G1 X66.378 Y109.271 E8.44530
G1 X66.008 Y109.061 E8.45476
G1 X65.658 Y108.821 E8.46419
G1 X65.338 Y108.551 E8.47349
G1 X65.048 Y108.251 E8.48276
G1 X64.908 Y108.081 E8.48766
G1 X64.558 Y107.561 E8.50159
G1 X64.368 Y107.181 E8.51103
G1 X64.218 Y106.781 E8.52052
G1 X64.108 Y106.381 E8.52974
G1 X64.038 Y105.961 E8.53920
G1 X64.018 Y105.321 E8.55343
G1 X64.058 Y104.901 E8.56281
G1 X64.198 Y104.281 E8.57693
G1 X64.338 Y103.891 E8.58614
G1 X64.518 Y103.501 E8.59569
G1 X69.728 Y94.981 E8.81761
G1 X70.138 Y94.471 E8.83215
G1 X72.048 Y92.637 E8.89100
G1 X72.478 Y92.981 F6000.000
G1 X72.838 Y92.721 F1800.000 E8.90087
G1 X73.228 Y92.491 E8.91093
G1 X73.648 Y92.321 E8.92100
G1 X74.078 Y92.201 E8.93092
G1 X108.128 Y85.021 E9.70423
G1 X108.628 Y84.951 E9.71545
G1 X108.878 Y84.941 E9.72101
G1 X109.378 Y84.981 E9.73216
G1 X132.298 Y88.141 E10.24631
G1 X132.688 Y88.211 E10.25511
G1 X133.068 Y88.331 E10.26397
G1 X133.438 Y88.491 E10.27293
G1 X133.618 Y88.591 E10.27750
G1 X133.788 Y88.691 E10.28188
G1 X134.108 Y88.931 E10.29077
G1 X134.408 Y89.201 E10.29974
G1 X134.788 Y89.671 E10.31317
G1 X134.998 Y90.011 E10.32205
G1 X135.238 Y90.561 E10.33539
G1 X135.388 Y91.141 E10.34870
G1 X135.438 Y91.741 E10.36208
G1 X135.438 Y107.201 E10.70564
G1 X135.388 Y107.801 E10.71902
G1 X135.348 Y108.001 E10.72355
G1 X135.238 Y108.391 E10.73255
G1 X134.988 Y108.951 E10.74618
G1 X134.768 Y109.291 E10.75518
G1 X134.388 Y109.761 E10.76861
G1 X134.088 Y110.031 E10.77758
G1 X133.578 Y110.371 E10.79120
G1 X133.218 Y110.551 E10.80015
G1 X132.638 Y110.741 E10.81371
G1 X109.098 Y114.991 E11.34528
G1 X108.388 Y115.051 E11.36111
G1 X107.918 Y115.011 E11.37159
G1 X67.668 Y109.101 E12.27563
G1 X67.278 Y109.021 E12.28448
G1 X66.898 Y108.901 E12.29333
G1 X66.358 Y108.641 E12.30665
G1 X65.868 Y108.301 E12.31990
G1 X65.578 Y108.021 E12.32886
G1 X65.318 Y107.721 E12.33768
G1 X65.198 Y107.561 E12.34213
G1 X64.908 Y107.041 E12.35536
G1 X64.758 Y106.671 E12.36423
G1 X64.648 Y106.291 E12.37302
G1 X64.608 Y106.101 E12.37734
G1 X64.568 Y105.701 E12.38627
G1 X64.568 Y105.301 E12.39516
G1 X64.608 Y104.911 E12.40387
G1 X64.758 Y104.331 E12.41718
G1 X64.908 Y103.961 E12.42606
G1 X65.098 Y103.611 E12.43491
G1 X70.178 Y95.291 E12.65154
G1 X70.288 Y95.131 E12.65585
G1 X70.528 Y94.851 E12.66405
G1 X72.418 Y93.037 E12.72227
G1 X72.848 Y93.381 F6000.000
G1 X73.198 Y93.131 F1800.000 E12.73182
G1 X73.578 Y92.931 E12.74137
G1 X73.778 Y92.851 E12.74615
G1 X74.188 Y92.741 E12.75559
G1 X108.238 Y85.561 E13.52889
G1 X108.658 Y85.501 E13.53832
G1 X108.878 Y85.491 E13.54322
G1 X109.298 Y85.521 E13.55257
G1 X132.218 Y88.681 E14.06672
G1 X132.578 Y88.751 E14.07487
G1 X132.758 Y88.801 E14.07902
G1 X133.098 Y88.941 E14.08720
G1 X133.428 Y89.111 E14.09545
G1 X133.728 Y89.331 E14.10371
G1 X134.128 Y89.711 E14.11597
G1 X134.358 Y90.001 E14.12420
G1 X134.618 Y90.481 E14.13633
G1 X134.748 Y90.831 E14.14463
G1 X134.868 Y91.371 E14.15692
G1 X134.888 Y91.561 E14.16116
G1 X134.888 Y107.391 E14.51294
G1 X134.798 Y107.941 E14.52533
G1 X134.688 Y108.301 E14.53369
G1 X134.538 Y108.641 E14.54195
G1 X134.228 Y109.111 E14.55446
G1 X133.848 Y109.521 E14.56688
G1 X133.548 Y109.751 E14.57528
G1 X133.228 Y109.941 E14.58355
G1 X132.888 Y110.091 E14.59181
G1 X132.528 Y110.201 E14.60018
G1 X108.998 Y114.451 E15.13153
G1 X108.598 Y114.501 E15.14049
G1 X107.998 Y114.471 E15.15384
G1 X67.748 Y108.561 E16.05787
G1 X67.568 Y108.531 E16.06193
G1 X67.208 Y108.431 E16.07023
G1 X66.708 Y108.211 E16.08237
G1 X66.388 Y108.011 E16.09075
G1 X66.248 Y107.901 E16.09471
G1 X65.978 Y107.651 E16.10289
G1 X65.738 Y107.371 E16.11108
G1 X65.528 Y107.061 E16.11940
G1 X65.358 Y106.731 E16.12765
G1 X65.188 Y106.201 E16.14002
G1 X65.148 Y106.021 E16.14412
G1 X65.108 Y105.651 E16.15239
G1 X65.118 Y105.281 E16.16061
G1 X65.158 Y104.921 E16.16866
G1 X65.198 Y104.741 E16.17276
G1 X65.318 Y104.391 E16.18098
G1 X65.558 Y103.891 E16.19331
G1 X70.538 Y95.731 E16.40574
G1 X70.718 Y95.471 E16.41277
G1 X70.928 Y95.221 E16.42003
G1 X72.788 Y93.437 E16.47730
G1 X73.218 Y93.791 F6000.000
G1 X73.378 Y93.671 F1800.000 E16.48175
G1 X73.728 Y93.461 E16.49082
G1 X73.918 Y93.381 E16.49540
G1 X74.298 Y93.271 E16.50419
G1 X108.348 Y86.091 E17.27750
G1 X108.698 Y86.041 E17.28535
G1 X108.878 Y86.031 E17.28936
G1 X109.228 Y86.061 E17.29717
G1 X132.318 Y89.251 E17.81515
G1 X132.648 Y89.341 E17.82275
G1 X132.968 Y89.481 E17.83052
G1 X133.268 Y89.661 E17.83829
G1 X133.658 Y90.001 E17.84979
G1 X133.978 Y90.421 E17.86152
G1 X134.198 Y90.891 E17.87305
G1 X134.288 Y91.221 E17.88065
G1 X134.338 Y91.571 E17.88851
G1 X134.348 Y107.201 E18.23584
G1 X134.298 Y107.701 E18.24701
G1 X134.208 Y108.031 E18.25461
G1 X134.078 Y108.341 E18.26208
G1 X133.908 Y108.631 E18.26955
G1 X133.698 Y108.901 E18.27715
G1 X133.328 Y109.241 E18.28832
G1 X133.188 Y109.331 E18.29202
G1 X132.738 Y109.571 E18.30335
G1 X132.418 Y109.671 E18.31080
G1 X108.898 Y113.921 E18.84193
G1 X108.408 Y113.961 E18.85286
G1 X108.078 Y113.931 E18.86022
G1 X67.828 Y108.021 E19.76426
G1 X67.498 Y107.951 E19.77175
G1 X67.188 Y107.841 E19.77906
G1 X66.748 Y107.591 E19.79031
G1 X66.368 Y107.271 E19.80135
G1 X66.148 Y107.011 E19.80892
G1 X65.968 Y106.731 E19.81631
G1 X65.828 Y106.431 E19.82367
G1 X65.768 Y106.271 E19.82747
G1 X65.688 Y105.941 E19.83501
G1 X65.658 Y105.611 E19.84238
G1 X65.658 Y105.281 E19.84971
G1 X65.678 Y105.111 E19.85352
G1 X65.758 Y104.781 E19.86106
G1 X65.868 Y104.471 E19.86837
G1 X66.028 Y104.171 E19.87593
G1 X71.078 Y95.901 E20.09126
G1 X71.238 Y95.691 E20.09713
G1 X71.418 Y95.501 E20.10294
G1 X73.156 Y93.845 E20.15630
G1 F1800.000 E19.15630
G92 E0
G1 X90.484 Y102.585 F6000.000
G1 F1800.000 E1.00000
G1 X90.684 Y102.287 F900.000 E1.00798
G1 X90.955 Y102.051 E1.01596
G1 X91.278 Y101.896 E1.02393
G1 X91.630 Y101.828 E1.03189
G1 X91.984 Y101.853 E1.03978
G1 X92.325 Y101.969 E1.04778
G1 X92.621 Y102.172 E1.05575
G1 X92.856 Y102.441 E1.06370
G1 X93.011 Y102.762 E1.07160
G1 X93.081 Y103.115 E1.07960
G1 X93.053 Y103.470 E1.08752
G1 X92.938 Y103.809 E1.09548
G1 X92.738 Y104.105 E1.10343
G1 X92.468 Y104.340 E1.11138
G1 X92.145 Y104.498 E1.11937
G1 X91.791 Y104.566 E1.12737
G1 X91.437 Y104.538 E1.13528
G1 X91.100 Y104.423 E1.14318
G1 X90.801 Y104.223 E1.15118
G1 X90.568 Y103.952 E1.15911
G1 X90.411 Y103.631 E1.16705
G1 X90.341 Y103.280 E1.17502
G1 X90.369 Y102.922 E1.18300
G1 X90.457 Y102.662 E1.18909
G1 X90.298 Y102.278 F6000.000
G1 F1800.000 E0.18909
G92 E0
G1 X130.159 Y104.390 F6000.000
G1 F1800.000 E1.00000
G1 X129.949 Y104.555 F1800.000 E1.00594
G1 X125.635 Y100.881 E1.13185
G1 X111.453 Y103.786 E1.45353
G1 X108.221 Y110.081 E1.61077
G1 X102.461 Y104.689 E1.78610
G1 X93.001 Y104.689 E1.99632
G1 X93.431 Y104.054 E2.01336
G1 X93.592 Y103.580 E2.02448
G1 X93.630 Y103.082 E2.03559
G1 X93.532 Y102.587 E2.04681
G1 X93.315 Y102.138 E2.05788
G1 X92.987 Y101.761 E2.06898
G1 X92.572 Y101.476 E2.08018
G1 X92.092 Y101.314 E2.09142
G1 X91.597 Y101.279 E2.10245
G1 X91.106 Y101.373 E2.11357
G1 X90.652 Y101.591 E2.12475
G1 X90.271 Y101.923 E2.13597
G1 X89.991 Y102.341 E2.14715
G1 X89.830 Y102.811 E2.15820
G1 X89.792 Y103.313 E2.16938
G1 X89.890 Y103.807 E2.18058
G1 X90.109 Y104.255 E2.19166
G1 X90.483 Y104.689 E2.20439
G1 X70.127 Y104.689 E2.65674
G1 X73.753 Y100.939 E2.77264
G1 X75.001 Y102.245 E2.81278
G1 X76.295 Y100.968 E2.85318
G1 X77.477 Y102.281 E2.89243
G1 X78.745 Y100.959 E2.93312
G1 X79.968 Y102.249 E2.97264
G1 X81.269 Y100.958 E3.01337
G1 X82.470 Y102.272 E3.05293
G1 X83.743 Y100.961 E3.09354
G1 X84.961 Y102.254 E3.13301
G1 X86.242 Y100.971 E3.17332
G1 X87.461 Y102.241 E3.21244
G1 X90.879 Y98.903 E3.31861
G1 X88.581 Y96.581 E3.39119
G1 X98.040 Y96.581 E3.60139
G1 X106.792 Y90.908 E3.83316
G1 X106.923 Y91.020 E3.83698
G1 X104.517 Y96.531 E3.97062
G1 X125.682 Y97.953 E4.44201
G1 X130.105 Y94.239 E4.57037
G1 X130.319 Y94.411 E4.57648
G1 X127.685 Y99.429 E4.70243
G1 X130.123 Y104.317 E4.82379
G1 F1800.000 E3.82379
G92 E0
G1 X86.125 Y96.581 F6000.000
G1 F1800.000 E1.00000
G1 X87.791 Y96.581 F900.000 E1.03702
G1 X86.913 Y97.542 E1.06594
G1 X86.177 Y96.644 E1.09173
G1 X85.279 Y96.581 F6000.000
G1 X84.413 Y97.535 F900.000 E1.12036
G1 X83.640 Y96.581 E1.14765
G1 X85.197 Y96.581 E1.18225
G1 X81.123 Y96.581 F6000.000
G1 X82.790 Y96.581 F900.000 E1.21930
G1 X81.938 Y97.524 E1.24754
G1 X81.176 Y96.643 E1.27341
G1 X80.292 Y96.581 F6000.000
G1 X79.404 Y97.529 F900.000 E1.30227
G1 X78.601 Y96.581 E1.32988
G1 X80.210 Y96.581 E1.36565
G1 X76.949 Y97.485 F6000.000
G1 X76.119 Y96.581 F900.000 E1.39291
G1 X77.758 Y96.581 E1.42932
G1 X77.003 Y97.424 E1.45447
G1 X76.954 Y98.297 F6000.000
G1 X75.717 Y96.949 F900.000 E1.49512
G1 X74.390 Y98.274 E1.53679
G1 X73.564 Y97.363 E1.56411
G1 X74.938 Y96.036 E1.60658
G1 X97.879 Y96.036 E2.11637
G1 X108.142 Y89.384 E2.38816
G1 X108.208 Y89.439 E2.39007
G1 X105.327 Y96.039 E2.55009
G1 X125.499 Y97.394 E2.99938
G1 X131.529 Y92.330 E3.17436
G1 X131.529 Y93.280 E3.19547
G1 X128.298 Y99.436 E3.34997
G1 X131.529 Y105.915 E3.51087
G1 X131.529 Y106.617 E3.52646
G1 X125.484 Y101.469 E3.70291
G1 X111.819 Y104.268 E4.01287
G1 X108.376 Y110.973 E4.18036
G1 X102.246 Y105.234 E4.36697
G1 X68.841 Y105.234 E5.10930
G1 X73.755 Y100.152 E5.26639
G1 X75.012 Y101.468 E5.30682
G1 X76.318 Y100.179 E5.34759
G1 X77.490 Y101.480 E5.38647
G1 X78.747 Y100.168 E5.42684
G1 X79.980 Y101.469 E5.46667
G1 X81.288 Y100.171 E5.50764
G1 X82.482 Y101.477 E5.54695
G1 X83.749 Y100.172 E5.58737
G1 X84.972 Y101.471 E5.62703
G1 X86.250 Y100.191 E5.66722
G1 X87.474 Y101.466 E5.70649
G1 X90.105 Y98.896 E5.78823
G1 X88.186 Y96.957 E5.84885
G1 X86.891 Y98.375 E5.89151
G1 X85.702 Y96.926 E5.93316
G1 X84.390 Y98.372 E5.97657
G1 X83.215 Y96.924 E6.01801
G1 X81.929 Y98.347 E6.06065
G1 X80.708 Y96.935 E6.10213
G1 X79.384 Y98.349 E6.14517
G1 X78.180 Y96.928 E6.18656
G1 X77.008 Y98.236 E6.22559
G1 X76.818 Y97.769 F6000.000
G1 F1800.000 E5.22559
G92 E0
G1 X76.174 Y101.643 F6000.000
G1 F1800.000 E1.00000
G1 X78.825 Y104.294 F2100.000 E1.08387
G1 X78.049 Y104.294 E1.10125
G1 X75.783 Y102.028 E1.17292
G1 X75.392 Y102.414 E1.18520
G1 X77.272 Y104.294 E1.24467
G1 X76.496 Y104.294 E1.26205
G1 X75.002 Y102.800 E1.30932
G1 X74.608 Y102.406 F6000.000
G1 X73.732 Y101.530 F2100.000 E1.33703
G1 X73.350 Y101.925 E1.34931
G1 X75.719 Y104.294 E1.42427
G1 X74.942 Y104.294 E1.44164
G1 X72.968 Y102.319 E1.50411
G1 X72.586 Y102.714 E1.51639
G1 X74.166 Y104.294 E1.56637
G1 X73.389 Y104.294 E1.58374
G1 X72.205 Y103.109 E1.62122
G1 X71.823 Y103.504 E1.63351
G1 X72.613 Y104.294 E1.65850
G1 X71.836 Y104.294 E1.67587
G1 X71.441 Y103.899 E1.68837
G1 X71.060 Y104.294 E1.70065
G1 X77.812 Y102.503 F6000.000
G1 X79.602 Y104.294 F2100.000 E1.75730
G1 X80.378 Y104.294 E1.77467
G1 X78.192 Y102.107 E1.84386
G1 X78.572 Y101.710 E1.85615
G1 X81.155 Y104.294 E1.93788
G1 X81.931 Y104.294 E1.95525
G1 X80.207 Y102.569 E2.00981
G1 X80.597 Y102.182 E2.02210
G1 X82.708 Y104.294 E2.08890
G1 X83.485 Y104.294 E2.10627
G1 X80.987 Y101.796 E2.18531
G1 X82.636 Y102.669 E2.22706
G1 X84.261 Y104.294 E2.27848
G1 X85.038 Y104.294 E2.29585
G1 X83.019 Y102.274 E2.35974
G1 X83.401 Y101.880 E2.37202
G1 X85.814 Y104.294 E2.44837
G1 X86.591 Y104.294 E2.46575
G1 X85.036 Y102.739 E2.51495
G1 X85.424 Y102.350 E2.52723
G1 X87.367 Y104.294 E2.58873
G1 X88.144 Y104.294 E2.60610
G1 X85.812 Y101.961 E2.67990
G1 X86.200 Y101.573 E2.69218
G1 X88.920 Y104.294 E2.77827
G1 X89.557 Y104.153 E2.79284
G1 X87.833 Y102.430 E2.84736
G1 X88.226 Y102.046 E2.85964
G1 X89.402 Y103.222 E2.89685
G1 X89.503 Y102.546 E2.91214
G1 X88.619 Y101.663 E2.94010
G1 X89.012 Y101.279 E2.95238
G1 X89.739 Y102.006 E2.97539
G1 X90.077 Y101.568 E2.98778
G1 X89.405 Y100.895 E3.00905
G1 X89.798 Y100.511 E3.02134
G1 X90.508 Y101.222 E3.04382
G1 X91.045 Y100.983 E3.05698
G1 X90.191 Y100.128 E3.08403
G1 X90.583 Y99.744 E3.09631
G1 X91.732 Y100.893 E3.13266
G1 X92.728 Y101.112 E3.15547
G1 X90.976 Y99.360 E3.21089
G1 X91.369 Y98.977 E3.22318
G1 X96.686 Y104.294 E3.39141
G1 X95.910 Y104.294 E3.40879
G1 X93.754 Y102.138 E3.47699
G1 X94.019 Y103.180 E3.50105
G1 X95.133 Y104.294 E3.53629
G1 X94.356 Y104.294 E3.55366
