; generated by Slic3r 0.9.9 on 2013-06-04 at 13:06:28

; layer_height = 0.36
; perimeters = 2
; top_solid_layers = 3
; bottom_solid_layers = 3
; fill_density = 0.6
; perimeter_speed = 60
; infill_speed = 70
; travel_speed = 100
; nozzle_diameter = 0.5
; filament_diameter = 3
; extrusion_multiplier = 0.8
; perimeters extrusion width = 0.56mm
; infill extrusion width = 0.43mm
; solid infill extrusion width = 0.43mm
; top infill extrusion width = 0.43mm

G21 ; set units to millimeters
M107
M104 S220 ; set temperature
G28 ; home all axes
M92 X64.8592 ; calibrate X
M92 Y64.8592  ; calibrate Y
M92 Z2560   ; calibrate Z
M92 E569  ; calibrate E
M551 ; prime extruder 1
M109 S220 ; wait for temperature to be reached
G90 ; use absolute coordinates
G92 E0
M82 ; use absolute distances for extrusion
G1 F1800.000 E-1.00000
G92 E0
G1 Z0.360 F6000.000
G1 X72.190 Y58.940
G1 F1800.000 E1.00000
G1 X72.470 Y58.620 F1800.000 E1.00945
G1 X72.940 Y58.190 E1.02361
G1 X73.470 Y57.840 E1.03772
G1 X74.050 Y57.580 E1.05184
G1 X74.450 Y57.450 E1.06119
G1 X74.660 Y57.400 E1.06599
G1 X75.290 Y57.320 E1.08010
G1 X124.710 Y57.320 E2.17832
G1 X125.340 Y57.400 E2.19243
G1 X125.550 Y57.450 E2.19723
G1 X125.950 Y57.580 E2.20658
G1 X126.530 Y57.840 E2.22070
G1 X127.060 Y58.190 E2.23482
G1 X127.380 Y58.470 E2.24427
G1 X127.810 Y58.940 E2.25842
G1 X128.050 Y59.290 E2.26785
G1 X128.160 Y59.470 E2.27254
G1 X128.340 Y59.850 E2.28188
G1 X128.490 Y60.250 E2.29138
G1 X128.600 Y60.660 E2.30081
G1 X128.680 Y61.290 E2.31492
G1 X128.680 Y138.710 E4.03537
G1 X128.600 Y139.340 E4.04948
G1 X128.550 Y139.550 E4.05428
G1 X128.420 Y139.950 E4.06362
G1 X128.160 Y140.530 E4.07775
G1 X127.810 Y141.060 E4.09186
G1 X127.530 Y141.380 E4.10131
G1 X127.060 Y141.810 E4.11547
G1 X126.710 Y142.050 E4.12490
G1 X126.530 Y142.160 E4.12959
G1 X126.150 Y142.340 E4.13893
G1 X125.750 Y142.490 E4.14842
G1 X125.340 Y142.600 E4.15786
G1 X124.710 Y142.680 E4.17197
G1 X75.290 Y142.680 E5.27019
G1 X74.660 Y142.600 E5.28430
G1 X74.450 Y142.550 E5.28910
G1 X74.050 Y142.420 E5.29845
G1 X73.470 Y142.160 E5.31257
G1 X72.940 Y141.810 E5.32669
G1 X72.620 Y141.530 E5.33614
G1 X72.190 Y141.060 E5.35029
G1 X71.950 Y140.710 E5.35972
G1 X71.840 Y140.530 E5.36441
G1 X71.660 Y140.150 E5.37375
G1 X71.510 Y139.750 E5.38325
G1 X71.400 Y139.340 E5.39268
G1 X71.320 Y138.710 E5.40679
G1 X71.320 Y61.290 E7.12724
G1 X71.400 Y60.660 E7.14135
G1 X71.580 Y60.050 E7.15548
G1 X71.840 Y59.470 E7.16961
G1 X72.143 Y59.007 E7.18191
G1 X72.530 Y59.400 F6000.000
G1 X72.930 Y58.930 F1800.000 E7.19562
G1 X73.230 Y58.660 E7.20459
G1 X73.570 Y58.420 E7.21384
G1 X73.920 Y58.220 E7.22280
G1 X74.300 Y58.070 E7.23187
G1 X74.690 Y57.950 E7.24094
G1 X75.090 Y57.890 E7.24993
G1 X75.500 Y57.860 E7.25907
G1 X124.500 Y57.860 E8.34795
G1 X124.910 Y57.890 E8.35709
G1 X125.310 Y57.950 E8.36608
G1 X125.700 Y58.070 E8.37515
G1 X126.080 Y58.220 E8.38422
G1 X126.430 Y58.420 E8.39318
G1 X126.770 Y58.660 E8.40243
G1 X127.070 Y58.930 E8.41140
G1 X127.470 Y59.400 E8.42512
G1 X127.780 Y59.920 E8.43857
G1 X127.930 Y60.300 E8.44765
G1 X128.050 Y60.690 E8.45671
G1 X128.110 Y61.090 E8.46570
G1 X128.140 Y61.500 E8.47484
G1 X128.140 Y138.500 E10.18595
G1 X128.110 Y138.910 E10.19509
G1 X128.050 Y139.310 E10.20407
G1 X127.930 Y139.700 E10.21314
G1 X127.780 Y140.080 E10.22222
G1 X127.580 Y140.430 E10.23118
G1 X127.340 Y140.770 E10.24043
G1 X127.070 Y141.070 E10.24939
G1 X126.600 Y141.470 E10.26311
G1 X126.080 Y141.780 E10.27656
G1 X125.700 Y141.930 E10.28564
G1 X125.310 Y142.050 E10.29471
G1 X124.910 Y142.110 E10.30370
G1 X124.500 Y142.140 E10.31283
G1 X75.500 Y142.140 E11.40172
G1 X75.090 Y142.110 E11.41086
G1 X74.690 Y142.050 E11.41985
G1 X74.300 Y141.930 E11.42891
G1 X73.920 Y141.780 E11.43799
G1 X73.570 Y141.580 E11.44695
G1 X73.230 Y141.340 E11.45620
G1 X72.930 Y141.070 E11.46517
G1 X72.530 Y140.600 E11.47888
G1 X72.220 Y140.080 E11.49234
G1 X72.070 Y139.700 E11.50141
G1 X71.950 Y139.310 E11.51048
G1 X71.890 Y138.910 E11.51947
G1 X71.860 Y138.500 E11.52861
G1 X71.860 Y61.500 E13.23972
G1 X71.890 Y61.090 E13.24885
G1 X71.950 Y60.690 E13.25784
G1 X72.010 Y60.490 E13.26248
G1 X72.220 Y59.920 E13.27598
G1 X72.486 Y59.469 E13.28762
G1 X72.960 Y59.740 F6000.000
G1 X73.310 Y59.310 F1800.000 E13.29994
G1 X73.590 Y59.070 E13.30813
G1 X73.900 Y58.850 E13.31658
G1 X74.230 Y58.680 E13.32483
G1 X74.580 Y58.550 E13.33313
G1 X74.940 Y58.460 E13.34137
G1 X75.310 Y58.410 E13.34967
G1 X124.690 Y58.410 E14.44700
G1 X125.060 Y58.460 E14.45530
G1 X125.420 Y58.550 E14.46355
G1 X125.770 Y58.680 E14.47184
G1 X126.100 Y58.850 E14.48009
G1 X126.410 Y59.070 E14.48854
G1 X126.690 Y59.310 E14.49673
G1 X126.930 Y59.590 E14.50493
G1 X127.150 Y59.900 E14.51338
G1 X127.320 Y60.230 E14.52163
G1 X127.450 Y60.580 E14.52992
G1 X127.540 Y60.940 E14.53817
G1 X127.590 Y61.310 E14.54647
G1 X127.590 Y138.690 E16.26602
G1 X127.540 Y139.060 E16.27432
G1 X127.450 Y139.420 E16.28256
G1 X127.320 Y139.770 E16.29086
G1 X127.150 Y140.100 E16.29911
G1 X126.930 Y140.410 E16.30756
G1 X126.690 Y140.690 E16.31575
G1 X126.410 Y140.930 E16.32395
G1 X126.100 Y141.150 E16.33240
G1 X125.770 Y141.320 E16.34064
G1 X125.420 Y141.450 E16.34894
G1 X125.060 Y141.540 E16.35719
G1 X124.690 Y141.590 E16.36548
G1 X75.310 Y141.590 E17.46282
G1 X74.940 Y141.540 E17.47112
G1 X74.580 Y141.450 E17.47936
G1 X74.230 Y141.320 E17.48766
G1 X73.900 Y141.150 E17.49591
G1 X73.590 Y140.930 E17.50436
G1 X73.310 Y140.690 E17.51255
G1 X73.070 Y140.410 E17.52075
G1 X72.850 Y140.100 E17.52919
G1 X72.680 Y139.770 E17.53744
G1 X72.550 Y139.420 E17.54574
G1 X72.460 Y139.060 E17.55399
G1 X72.410 Y138.690 E17.56228
G1 X72.410 Y61.310 E19.28184
G1 X72.460 Y60.940 E19.29013
G1 X72.610 Y60.400 E19.30259
G1 X72.760 Y60.060 E19.31085
G1 X72.914 Y59.807 E19.31742
G1 X73.380 Y60.090 F6000.000
G1 X73.590 Y59.820 F1800.000 E19.32502
G1 X73.820 Y59.590 E19.33225
G1 X74.090 Y59.380 E19.33985
G1 X74.370 Y59.220 E19.34701
G1 X74.680 Y59.090 E19.35448
G1 X75.000 Y59.000 E19.36187
G1 X75.500 Y58.950 E19.37304
G1 X124.500 Y58.950 E20.46193
G1 X125.000 Y59.000 E20.47309
G1 X125.320 Y59.090 E20.48048
G1 X125.630 Y59.220 E20.48795
G1 X125.910 Y59.380 E20.49512
G1 X126.180 Y59.590 E20.50272
G1 X126.410 Y59.820 E20.50995
G1 X126.620 Y60.090 E20.51755
G1 X126.780 Y60.370 E20.52471
G1 X126.960 Y60.840 E20.53590
G1 X127.000 Y61.000 E20.53956
G1 X127.050 Y61.500 E20.55073
G1 X127.050 Y138.500 E22.26184
G1 X127.000 Y139.000 E22.27301
G1 X126.910 Y139.320 E22.28039
G1 X126.780 Y139.630 E22.28786
G1 X126.620 Y139.910 E22.29503
G1 X126.410 Y140.180 E22.30263
G1 X126.180 Y140.410 E22.30986
G1 X125.910 Y140.620 E22.31746
G1 X125.630 Y140.780 E22.32463
G1 X125.160 Y140.960 E22.33581
G1 X125.000 Y141.000 E22.33948
G1 X124.500 Y141.050 E22.35064
G1 X75.500 Y141.050 E23.43953
G1 X75.000 Y141.000 E23.45070
G1 X74.680 Y140.910 E23.45809
G1 X74.370 Y140.780 E23.46556
G1 X74.090 Y140.620 E23.47272
G1 X73.820 Y140.410 E23.48032
G1 X73.590 Y140.180 E23.48755
G1 X73.380 Y139.910 E23.49515
G1 X73.220 Y139.630 E23.50232
G1 X73.040 Y139.160 E23.51350
G1 X73.000 Y139.000 E23.51717
G1 X72.950 Y138.500 E23.52834
G1 X72.950 Y61.500 E25.23945
G1 X73.000 Y61.000 E25.25061
G1 X73.040 Y60.840 E25.25428
G1 X73.220 Y60.370 E25.26546
G1 X73.339 Y60.161 E25.27081
G1 F1800.000 E24.27081
G92 E0
G1 X79.162 Y82.182 F6000.000
G1 F1800.000 E1.00000
G1 X81.838 Y82.182 F900.000 E1.05948
G1 X83.177 Y84.500 E1.11896
G1 X81.838 Y86.818 E1.17845
G1 X79.162 Y86.818 E1.23793
G1 X77.823 Y84.500 E1.29741
G1 X79.121 Y82.253 E1.35508
G1 X79.477 Y82.727 F6000.000
G1 X81.523 Y82.727 F900.000 E1.40056
G1 X82.547 Y84.500 E1.44605
G1 X81.523 Y86.273 E1.49154
G1 X79.477 Y86.273 E1.53703
G1 X78.453 Y84.500 E1.58251
G1 X79.436 Y82.798 E1.62618
G1 X79.571 Y82.190 F6000.000
G1 F1800.000 E0.62618
G92 E0
G1 X89.677 Y88.273 F6000.000
G1 F1800.000 E1.00000
G1 X89.677 Y63.227 F900.000 E1.55656
G1 X100.823 Y63.227 E1.80424
G1 X100.823 Y88.273 E2.36081
G1 X89.759 Y88.273 E2.60667
G1 X89.132 Y88.273 F6000.000
G1 F1800.000 E1.60667
G92 E0
G1 X116.823 Y84.500 F6000.000
G1 F1800.000 E1.00000
G1 X118.162 Y82.182 F900.000 E1.05948
G1 X120.838 Y82.182 E1.11896
G1 X122.177 Y84.500 E1.17845
G1 X120.838 Y86.818 E1.23793
G1 X118.162 Y86.818 E1.29741
G1 X116.864 Y84.571 E1.35508
G1 X117.453 Y84.500 F6000.000
G1 X118.477 Y82.727 F900.000 E1.40056
G1 X120.523 Y82.727 E1.44605
G1 X121.547 Y84.500 E1.49154
G1 X120.523 Y86.273 E1.53703
G1 X118.477 Y86.273 E1.58251
G1 X117.494 Y84.571 E1.62618
G1 X117.035 Y84.149 F6000.000
G1 X118.162 Y113.182
G1 X120.838 Y113.182 F900.000 E1.68566
G1 X122.177 Y115.500 E1.74515
G1 X120.838 Y117.818 E1.80463
G1 X118.162 Y117.818 E1.86411
G1 X116.823 Y115.500 E1.92359
G1 X118.121 Y113.253 E1.98126
G1 X118.477 Y113.727 F6000.000
G1 X120.523 Y113.727 F900.000 E2.02675
G1 X121.547 Y115.500 E2.07223
G1 X120.523 Y117.273 E2.11772
G1 X118.477 Y117.273 E2.16321
G1 X117.453 Y115.500 E2.20869
G1 X118.436 Y113.798 E2.25236
G1 X118.571 Y113.190 F6000.000
G1 X110.118 Y102.818
G1 X108.496 Y102.818 F900.000 E2.28842
G1 X106.496 Y104.817 E2.35125
G1 X102.504 Y104.818 E2.43996
G1 X99.683 Y101.996 E2.52864
G1 X99.682 Y98.004 E2.61734
G1 X102.504 Y95.183 E2.70602
G1 X106.496 Y95.182 E2.79473
G1 X108.495 Y97.182 E2.85757
G1 X110.118 Y97.182 E2.89364
G1 X110.118 Y102.736 E3.01707
G1 X109.573 Y102.273 F6000.000
G1 X108.270 Y102.273 F900.000 E3.04602
G1 X106.270 Y104.272 E3.10886
G1 X102.730 Y104.273 E3.18752
G1 X100.228 Y101.770 E3.26616
G1 X100.227 Y98.230 E3.34482
G1 X102.730 Y95.728 E3.42346
G1 X106.270 Y95.727 E3.50213
G1 X108.269 Y97.727 E3.56497
G1 X109.573 Y97.727 E3.59394
G1 X109.573 Y102.191 E3.69313
G1 X109.573 Y102.818 F6000.000
G1 F1800.000 E2.69313
G92 E0
G1 X83.177 Y115.500 F6000.000
G1 F1800.000 E1.00000
G1 X81.838 Y117.818 F900.000 E1.05948
G1 X79.162 Y117.818 E1.11896
G1 X77.823 Y115.500 E1.17845
G1 X79.162 Y113.182 E1.23793
G1 X81.838 Y113.182 E1.29741
G1 X83.136 Y115.429 E1.35508
G1 X82.547 Y115.500 F6000.000
G1 X81.523 Y117.273 F900.000 E1.40056
G1 X79.477 Y117.273 E1.44605
G1 X78.453 Y115.500 E1.49154
G1 X79.477 Y113.727 E1.53703
G1 X81.523 Y113.727 E1.58251
G1 X82.506 Y115.429 E1.62618
G1 X82.965 Y115.851 F6000.000
G1 X89.677 Y111.727
G1 X100.823 Y111.727 F900.000 E1.87386
G1 X100.823 Y136.773 E2.43043
G1 X89.677 Y136.773 E2.67811
G1 X89.677 Y111.809 E3.23285
G1 X89.677 Y111.182 F6000.000
G1 X76.318 Y62.318
G1 X89.132 Y62.318 F1800.000 E3.51760
G1 X89.132 Y88.818 E4.10649
G1 X101.368 Y88.818 E4.37841
G1 X101.368 Y62.318 E4.96730
G1 X123.682 Y62.318 E5.46316
G1 X123.682 Y88.510 E6.04520
G1 X121.790 Y90.402 E6.10466
G1 X119.471 Y94.954 E6.21818
G1 X118.672 Y100.000 E6.33172
G1 X119.471 Y105.046 E6.44525
G1 X121.790 Y109.598 E6.55877
G1 X123.682 Y111.490 E6.61823
G1 X123.682 Y137.682 E7.20027
G1 X101.368 Y137.682 E7.69613
G1 X101.368 Y111.182 E8.28502
G1 X89.132 Y111.182 E8.55694
G1 X89.132 Y137.682 E9.14583
G1 X76.318 Y137.682 E9.43058
G1 X76.318 Y111.490 E10.01262
G1 X78.210 Y109.598 E10.07208
G1 X80.529 Y105.046 E10.18560
G1 X81.328 Y100.000 E10.29913
G1 X80.529 Y94.954 E10.41266
G1 X78.210 Y90.402 E10.52618
G1 X76.318 Y88.510 E10.58565
G1 X76.318 Y62.400 E11.16587
G1 X75.773 Y61.773 F6000.000
G1 X124.227 Y61.773 F900.000 E12.24264
G1 X124.227 Y88.736 E12.84183
G1 X122.237 Y90.727 E12.90439
G1 X119.996 Y95.125 E13.01407
G1 X119.224 Y100.000 E13.12376
G1 X119.996 Y104.875 E13.23345
G1 X122.237 Y109.273 E13.34313
G1 X124.227 Y111.264 E13.40569
G1 X124.227 Y138.227 E14.00488
G1 X75.773 Y138.227 E15.08165
G1 X75.773 Y111.264 E15.68083
G1 X77.763 Y109.273 E15.74339
G1 X80.004 Y104.875 E15.85308
G1 X80.776 Y100.000 E15.96277
G1 X80.004 Y95.125 E16.07246
G1 X77.763 Y90.727 E16.18214
G1 X75.773 Y88.736 E16.24470
G1 X75.773 Y61.855 E16.84207
G1 X76.245 Y62.045 F6000.000
G1 X88.398 Y62.691
G1 X88.759 Y63.052 F2100.000 E16.85139
G1 X88.759 Y63.686 E16.86300
G1 X87.763 Y62.691 E16.88874
G1 X87.129 Y62.691 E16.90034
G1 X88.759 Y64.321 E16.94250
G1 X88.759 Y64.956 E16.95410
G1 X86.494 Y62.691 E17.01267
G1 X85.859 Y62.691 E17.02428
G1 X88.759 Y65.591 E17.09926
G1 X88.759 Y66.225 E17.11087
G1 X85.225 Y62.691 E17.20227
G1 X84.590 Y62.691 E17.21388
G1 X88.759 Y66.860 E17.32169
G1 X88.759 Y67.495 E17.33330
G1 X83.955 Y62.691 E17.45753
G1 X83.320 Y62.691 E17.46914
G1 X88.759 Y68.130 E17.60978
G1 X88.759 Y68.764 E17.62139
G1 X82.686 Y62.691 E17.77845
G1 X82.051 Y62.691 E17.79006
G1 X88.759 Y69.399 E17.96353
G1 X88.759 Y70.034 E17.97514
G1 X81.416 Y62.691 E18.16503
G1 X80.781 Y62.691 E18.17664
G1 X88.759 Y70.669 E18.38295
G1 X88.759 Y71.303 E18.39455
G1 X80.147 Y62.691 E18.61727
G1 X79.512 Y62.691 E18.62888
G1 X88.759 Y71.938 E18.86802
G1 X88.759 Y72.573 E18.87963
G1 X78.877 Y62.691 E19.13518
G1 X78.242 Y62.691 E19.14679
G1 X88.759 Y73.207 E19.41875
G1 X88.759 Y73.842 E19.43036
G1 X77.608 Y62.691 E19.71875
G1 X76.973 Y62.691 E19.73035
G1 X88.759 Y74.477 E20.03515
G1 X88.759 Y75.112 E20.04676
G1 X76.691 Y63.044 E20.35884
G1 X76.691 Y63.679 E20.37045
G1 X88.759 Y75.746 E20.68254
G1 X88.759 Y76.381 E20.69414
G1 X76.691 Y64.314 E21.00623
G1 X76.691 Y64.948 E21.01784
G1 X88.759 Y77.016 E21.32992
G1 X88.759 Y77.651 E21.34153
G1 X76.691 Y65.583 E21.65361
G1 X76.691 Y66.218 E21.66522
G1 X88.759 Y78.285 E21.97731
G1 X88.759 Y78.920 E21.98891
G1 X76.691 Y66.853 E22.30100
G1 X76.691 Y67.487 E22.31261
G1 X88.759 Y79.555 E22.62469
G1 X88.759 Y80.190 E22.63630
G1 X76.691 Y68.122 E22.94838
G1 X76.691 Y68.757 E22.95999
G1 X88.759 Y80.824 E23.27207
G1 X88.759 Y81.459 E23.28368
G1 X76.691 Y69.392 E23.59577
G1 X76.691 Y70.026 E23.60737
G1 X88.759 Y82.094 E23.91946
G1 X88.759 Y82.729 E23.93107
G1 X76.691 Y70.661 E24.24315
G1 X76.691 Y71.296 E24.25476
G1 X88.759 Y83.363 E24.56684
G1 X88.759 Y83.998 E24.57845
G1 X76.691 Y71.931 E24.89054
G1 X76.691 Y72.565 E24.90214
G1 X88.759 Y84.633 E25.21423
G1 X88.759 Y85.268 E25.22584
G1 X76.691 Y73.200 E25.53792
G1 X76.691 Y73.835 E25.54953
G1 X88.759 Y85.902 E25.86161
G1 X88.759 Y86.537 E25.87322
G1 X76.691 Y74.469 E26.18531
G1 X76.691 Y75.104 E26.19691
G1 X88.759 Y87.172 E26.50900
G1 X88.759 Y87.806 E26.52061
G1 X76.691 Y75.739 E26.83269
G1 X76.691 Y83.991 F6000.000
G1 X77.655 Y84.954 F2100.000 E26.85761
G1 X77.555 Y84.219 E26.87117
G1 X76.691 Y83.356 E26.89350
G1 X76.691 Y82.721 E26.90511
G1 X77.787 Y83.817 E26.93344
G1 X78.019 Y83.414 E26.94194
G1 X76.691 Y82.086 E26.97629
G1 X76.691 Y81.452 E26.98789
G1 X78.252 Y83.012 E27.02825
G1 X78.484 Y82.610 E27.03675
G1 X76.691 Y80.817 E27.08311
G1 X76.691 Y80.182 E27.09472
G1 X78.716 Y82.207 E27.14709
G1 X78.953 Y81.809 E27.15556
G1 X76.691 Y79.547 E27.21404
G1 X76.691 Y78.913 E27.22565
G1 X79.587 Y81.809 E27.30055
G1 X80.222 Y81.809 E27.31216
G1 X76.691 Y78.278 E27.40347
G1 X76.691 Y77.643 E27.41508
G1 X80.857 Y81.809 E27.52281
G1 X81.492 Y81.809 E27.53441
G1 X76.691 Y77.008 E27.65856
G1 X76.691 Y76.374 E27.67017
G1 X88.759 Y88.441 E27.98225
G1 X88.759 Y89.076 E27.99386
G1 X82.822 Y83.139 E28.14740
G1 X83.121 Y85.343 F6000.000
G1 X99.310 Y101.531 F2100.000 E28.56607
G1 X99.310 Y100.896 E28.57768
G1 X83.353 Y84.940 E28.99033
G1 X83.586 Y84.538 E28.99883
G1 X99.309 Y100.261 E29.40547
G1 X99.309 Y99.626 E29.41708
G1 X88.874 Y89.191 E29.68695
G1 X89.509 Y89.191 E29.69856
G1 X99.309 Y98.992 E29.95201
G1 X99.309 Y98.357 E29.96362
G1 X90.143 Y89.191 E30.20065
G1 X90.778 Y89.191 E30.21226
G1 X99.373 Y97.786 E30.43452
G1 X99.690 Y97.468 E30.44273
G1 X91.413 Y89.191 E30.65679
G1 X92.048 Y89.191 E30.66840
G1 X100.007 Y97.151 E30.87425
G1 X100.325 Y96.834 E30.88246
G1 X92.682 Y89.191 E31.08011
G1 X93.317 Y89.191 E31.09172
G1 X100.642 Y96.516 E31.28116
G1 X100.960 Y96.199 E31.28937
G1 X93.952 Y89.191 E31.47060
G1 X94.587 Y89.191 E31.48221
G1 X101.277 Y95.882 E31.65524
G1 X101.595 Y95.565 E31.66345
G1 X95.221 Y89.191 E31.82827
G1 X95.856 Y89.191 E31.83988
G1 X101.912 Y95.247 E31.99650
G1 X102.230 Y94.930 E32.00471
G1 X96.491 Y89.191 E32.15312
G1 X97.126 Y89.191 E32.16473
G1 X102.744 Y94.810 E32.31004
G1 X103.379 Y94.810 E32.32164
G1 X97.760 Y89.191 E32.46694
G1 X98.395 Y89.191 E32.47855
G1 X104.013 Y94.809 E32.62385
G1 X104.648 Y94.809 E32.63545
