; generated by Slic3r 0.9.9 on 2013-04-24 at 16:18:14

; layer_height = 0.36
; perimeters = 2
; top_solid_layers = 3
; bottom_solid_layers = 3
; fill_density = 0.6
; perimeter_speed = 60
; infill_speed = 70
; travel_speed = 100
; nozzle_diameter = 0.5
; filament_diameter = 3
; extrusion_multiplier = 0.8
; perimeters extrusion width = 0.56mm
; infill extrusion width = 0.43mm
; solid infill extrusion width = 0.56mm
; top infill extrusion width = 0.56mm

G21 ; set units to millimeters
M107
M104 S220 ; set temperature
G28 ; home all axes
M92 X64.8592 ; calibrate X
M92 Y64.8592  ; calibrate Y
M92 Z2560   ; calibrate Z
M92 E569  ; calibrate E
M551 ; prime extruder 1
M109 S220 ; wait for temperature to be reached
G90 ; use absolute coordinates
G92 E0
M82 ; use absolute distances for extrusion
G1 F1800.000 E-1.00000
G92 E0
G1 Z0.360 F6000.000
G1 X69.645 Y74.500
G1 F1800.000 E1.00000
G1 X70.165 Y74.100 F1800.000 E1.01458
G1 X70.545 Y73.880 E1.02434
G1 X70.745 Y73.790 E1.02921
G1 X71.155 Y73.630 E1.03899
G1 X71.365 Y73.570 E1.04384
G1 X71.795 Y73.480 E1.05361
G1 X72.225 Y73.430 E1.06323
G1 X104.365 Y73.430 E1.77745
G1 X140.145 Y74.770 E2.57312
G1 X140.565 Y74.830 E2.58255
G1 X141.185 Y75.000 E2.59683
G1 X141.585 Y75.170 E2.60649
G1 X141.955 Y75.370 E2.61584
G1 X142.135 Y75.490 E2.62064
G1 X142.635 Y75.890 E2.63487
G1 X142.935 Y76.200 E2.64446
G1 X143.195 Y76.530 E2.65380
G1 X143.425 Y76.900 E2.66348
G1 X143.615 Y77.280 E2.67292
G1 X143.825 Y77.880 E2.68704
G1 X143.905 Y78.300 E2.69655
G1 X143.955 Y78.730 E2.70617
G1 X143.955 Y122.590 E3.68083
G1 X143.875 Y123.220 E3.69494
G1 X143.765 Y123.630 E3.70438
G1 X143.615 Y124.030 E3.71387
G1 X143.435 Y124.410 E3.72322
G1 X143.205 Y124.770 E3.73271
G1 X143.085 Y124.940 E3.73733
G1 X142.805 Y125.260 E3.74678
G1 X142.335 Y125.690 E3.76094
G1 X142.165 Y125.810 E3.76556
G1 X141.805 Y126.040 E3.77506
G1 X141.425 Y126.220 E3.78440
G1 X140.825 Y126.430 E3.79853
G1 X140.615 Y126.480 E3.80332
G1 X139.985 Y126.560 E3.81744
G1 X135.725 Y126.560 E3.91210
G1 X81.495 Y125.890 E5.11730
G1 X71.915 Y125.200 E5.33075
G1 X71.455 Y125.110 E5.34116
G1 X71.015 Y124.980 E5.35136
G1 X70.595 Y124.800 E5.36151
G1 X70.195 Y124.570 E5.37176
G1 X69.815 Y124.300 E5.38212
G1 X69.475 Y124.000 E5.39220
G1 X59.485 Y113.930 E5.70742
G1 X59.305 Y113.740 E5.71323
G1 X58.995 Y113.330 E5.72465
G1 X58.735 Y112.880 E5.73620
G1 X57.065 Y109.610 E5.81780
G1 X56.945 Y109.370 E5.82376
G1 X56.765 Y108.870 E5.83557
G1 X56.655 Y108.360 E5.84716
G1 X56.085 Y104.730 E5.92882
G1 X56.035 Y104.210 E5.94043
G1 X56.035 Y103.950 E5.94621
G1 X56.085 Y103.430 E5.95781
G1 X56.655 Y99.800 E6.03947
G1 X56.765 Y99.290 E6.05106
G1 X56.945 Y98.790 E6.06287
G1 X58.725 Y95.270 E6.15053
G1 X68.725 Y75.710 E6.63870
G1 X68.935 Y75.330 E6.64835
G1 X69.065 Y75.150 E6.65329
G1 X69.335 Y74.810 E6.66294
G1 X69.587 Y74.558 E6.67086
G1 X69.965 Y74.950 F6000.000
G1 X70.115 Y74.810 F1800.000 E6.67542
G1 X70.455 Y74.560 E6.68480
G1 X70.825 Y74.360 E6.69414
G1 X71.205 Y74.190 E6.70340
G1 X71.405 Y74.120 E6.70810
G1 X71.815 Y74.030 E6.71743
G1 X72.445 Y73.970 E6.73150
G1 X104.215 Y73.970 E7.43750
G1 X140.115 Y75.320 E8.23584
G1 X140.505 Y75.380 E8.24461
G1 X140.885 Y75.480 E8.25334
G1 X141.265 Y75.620 E8.26234
G1 X141.615 Y75.800 E8.27108
G1 X141.785 Y75.910 E8.27558
G1 X142.105 Y76.150 E8.28447
G1 X142.395 Y76.420 E8.29328
G1 X142.775 Y76.880 E8.30654
G1 X142.975 Y77.220 E8.31530
G1 X143.145 Y77.580 E8.32415
G1 X143.325 Y78.150 E8.33743
G1 X143.365 Y78.350 E8.34196
G1 X143.415 Y78.940 E8.35512
G1 X143.415 Y122.380 E9.32046
G1 X143.385 Y122.790 E9.32959
G1 X143.325 Y123.190 E9.33858
G1 X143.205 Y123.580 E9.34765
G1 X143.055 Y123.960 E9.35673
G1 X142.745 Y124.480 E9.37018
G1 X142.345 Y124.950 E9.38389
G1 X141.875 Y125.350 E9.39761
G1 X141.355 Y125.660 E9.41106
G1 X140.975 Y125.810 E9.42014
G1 X140.585 Y125.930 E9.42921
G1 X140.185 Y125.990 E9.43820
G1 X139.775 Y126.020 E9.44733
G1 X135.735 Y126.020 E9.53711
G1 X81.505 Y125.350 E10.74231
G1 X72.185 Y124.680 E10.94996
G1 X71.755 Y124.620 E10.95961
G1 X71.125 Y124.440 E10.97417
G1 X70.735 Y124.260 E10.98371
G1 X70.365 Y124.030 E10.99339
G1 X70.185 Y123.900 E10.99833
G1 X69.865 Y123.610 E11.00792
G1 X59.875 Y113.540 E11.32314
G1 X59.575 Y113.200 E11.33322
G1 X59.445 Y113.020 E11.33815
G1 X59.215 Y112.630 E11.34821
G1 X57.545 Y109.360 E11.42981
G1 X57.445 Y109.160 E11.43477
G1 X57.365 Y108.940 E11.43998
G1 X57.235 Y108.500 E11.45017
G1 X57.195 Y108.270 E11.45536
G1 X56.625 Y104.640 E11.53702
G1 X56.585 Y104.190 E11.54705
G1 X56.595 Y103.740 E11.55706
G1 X56.625 Y103.520 E11.56199
G1 X57.195 Y99.890 E11.64365
G1 X57.295 Y99.440 E11.65389
G1 X57.445 Y99.010 E11.66401
G1 X69.205 Y75.960 E12.23905
G1 X69.415 Y75.590 E12.24850
G1 X69.675 Y75.260 E12.25784
G1 X69.907 Y75.008 E12.26545
G1 X70.245 Y75.440 F6000.000
G1 X70.525 Y75.190 F1800.000 E12.27380
G1 X70.835 Y74.970 E12.28224
G1 X71.335 Y74.720 E12.29467
G1 X71.695 Y74.610 E12.30303
G1 X72.255 Y74.520 E12.31563
G1 X104.325 Y74.520 E13.02830
G1 X139.895 Y75.850 E13.81930
G1 X140.085 Y75.860 E13.82353
G1 X140.455 Y75.920 E13.83186
G1 X140.635 Y75.970 E13.83601
G1 X140.995 Y76.100 E13.84451
G1 X141.495 Y76.370 E13.85714
G1 X141.795 Y76.600 E13.86554
G1 X142.065 Y76.870 E13.87403
G1 X142.305 Y77.160 E13.88239
G1 X142.505 Y77.480 E13.89078
G1 X142.725 Y78.010 E13.90353
G1 X142.815 Y78.370 E13.91178
G1 X142.865 Y78.750 E13.92029
G1 X142.865 Y122.570 E14.89407
G1 X142.815 Y122.940 E14.90237
G1 X142.725 Y123.300 E14.91061
G1 X142.595 Y123.650 E14.91891
G1 X142.425 Y123.980 E14.92716
G1 X142.205 Y124.290 E14.93561
G1 X141.965 Y124.570 E14.94380
G1 X141.535 Y124.920 E14.95612
G1 X141.375 Y125.030 E14.96044
G1 X141.045 Y125.200 E14.96869
G1 X140.515 Y125.380 E14.98113
G1 X139.965 Y125.470 E14.99351
G1 X135.735 Y125.470 E15.08751
G1 X81.505 Y124.800 E16.29271
G1 X72.025 Y124.110 E16.50394
G1 X71.625 Y124.030 E16.51300
G1 X71.245 Y123.900 E16.52193
G1 X70.885 Y123.720 E16.53087
G1 X70.715 Y123.610 E16.53537
G1 X70.395 Y123.370 E16.54426
G1 X70.255 Y123.230 E16.54866
G1 X60.265 Y113.160 E16.86387
G1 X60.005 Y112.870 E16.87253
G1 X59.705 Y112.390 E16.88511
G1 X58.035 Y109.120 E16.96670
G1 X57.875 Y108.760 E16.97546
G1 X57.765 Y108.380 E16.98425
G1 X57.135 Y104.370 E17.07445
G1 X57.125 Y104.180 E17.07868
G1 X57.135 Y103.790 E17.08735
G1 X57.765 Y99.780 E17.17755
G1 X57.945 Y99.220 E17.19063
G1 X69.695 Y76.200 E17.76497
G1 X69.885 Y75.880 E17.77324
G1 X70.189 Y75.500 E17.78406
G1 X70.575 Y75.880 F6000.000
G1 X70.835 Y75.640 F1800.000 E17.79192
G1 X71.265 Y75.350 E17.80345
G1 X71.585 Y75.210 E17.81121
G1 X71.755 Y75.160 E17.81515
G1 X72.095 Y75.090 E17.82286
G1 X72.445 Y75.060 E17.83067
G1 X104.215 Y75.060 E18.53667
G1 X139.875 Y76.400 E19.32967
G1 X140.205 Y76.430 E19.33703
G1 X140.535 Y76.510 E19.34458
G1 X140.855 Y76.630 E19.35217
G1 X141.295 Y76.890 E19.36353
G1 X141.545 Y77.110 E19.37093
G1 X141.775 Y77.370 E19.37865
G1 X141.875 Y77.500 E19.38229
G1 X142.045 Y77.800 E19.38995
G1 X142.185 Y78.110 E19.39751
G1 X142.235 Y78.270 E19.40124
G1 X142.295 Y78.600 E19.40869
G1 X142.325 Y78.940 E19.41628
G1 X142.325 Y122.380 E20.38161
G1 X142.275 Y122.880 E20.39278
G1 X142.235 Y123.040 E20.39644
G1 X142.055 Y123.510 E20.40762
G1 X141.895 Y123.790 E20.41479
G1 X141.575 Y124.180 E20.42600
G1 X141.185 Y124.500 E20.43721
G1 X140.745 Y124.730 E20.44825
G1 X140.275 Y124.880 E20.45921
G1 X139.775 Y124.930 E20.47038
G1 X135.745 Y124.930 E20.55993
G1 X81.515 Y124.260 E21.76513
G1 X72.265 Y123.590 E21.97123
G1 X71.895 Y123.540 E21.97952
G1 X71.725 Y123.490 E21.98346
G1 X71.385 Y123.360 E21.99155
G1 X71.065 Y123.190 E21.99960
G1 X70.635 Y122.840 E22.01192
G1 X60.645 Y112.770 E22.32714
G1 X60.345 Y112.410 E22.33755
G1 X60.185 Y112.140 E22.34453
G1 X58.515 Y108.870 E22.42612
G1 X58.345 Y108.420 E22.43681
G1 X58.275 Y108.100 E22.44409
G1 X57.705 Y104.470 E22.52575
G1 X57.675 Y104.160 E22.53267
G1 X57.705 Y103.690 E22.54313
G1 X58.275 Y100.060 E22.62479
G1 X58.385 Y99.590 E22.63552
G1 X58.445 Y99.440 E22.63911
G1 X70.175 Y76.450 E23.21265
G1 X70.355 Y76.150 E23.22043
G1 X70.522 Y75.942 E23.22635
G1 F1800.000 E22.22635
G92 E0
G1 X138.964 Y79.768 F6000.000
G1 F1800.000 E1.00000
G1 X138.964 Y96.849 F1800.000 E1.37958
G1 X135.237 Y96.849 E1.46238
G1 X132.651 Y97.258 E1.52058
G1 X130.260 Y98.477 E1.58021
G1 X128.362 Y100.375 E1.63987
G1 X127.143 Y102.766 E1.69950
G1 X126.723 Y105.417 E1.75915
G1 X127.143 Y108.068 E1.81879
G1 X128.362 Y110.459 E1.87843
G1 X130.260 Y112.357 E1.93808
G1 X132.651 Y113.575 E1.99771
G1 X135.237 Y113.985 E2.05591
G1 X138.964 Y113.985 E2.13872
G1 X138.964 Y121.566 E2.30718
G1 X136.600 Y121.566 E2.35971
G1 X136.600 Y116.349 E2.47564
G1 X135.366 Y116.349 E2.50306
G1 X131.927 Y115.804 E2.58044
G1 X128.883 Y114.253 E2.65637
G1 X126.466 Y111.836 E2.73232
G1 X124.914 Y108.792 E2.80824
G1 X124.380 Y105.417 E2.88418
G1 X124.914 Y102.042 E2.96011
G1 X126.466 Y98.998 E3.03604
G1 X128.883 Y96.581 E3.11199
G1 X131.927 Y95.029 E3.18792
G1 X135.366 Y94.485 E3.26530
G1 X136.600 Y94.485 E3.29272
G1 X136.600 Y79.768 E3.61976
G1 X138.882 Y79.768 E3.67047
G1 X139.509 Y79.222 F6000.000
G1 X139.509 Y97.394 F900.000 E4.07429
G1 X135.280 Y97.394 E4.16826
G1 X132.821 Y97.783 E4.22358
G1 X130.584 Y98.923 E4.27938
G1 X128.808 Y100.699 E4.33519
G1 X127.668 Y102.936 E4.39099
G1 X127.276 Y105.417 E4.44679
G1 X127.668 Y107.897 E4.50260
G1 X128.808 Y110.134 E4.55839
G1 X130.584 Y111.910 E4.61421
G1 X132.821 Y113.050 E4.67001
G1 X135.280 Y113.439 E4.72533
G1 X139.509 Y113.439 E4.81930
G1 X139.509 Y122.111 E5.01200
G1 X136.054 Y122.111 E5.08877
G1 X136.054 Y116.894 E5.20471
G1 X135.323 Y116.894 E5.22096
G1 X131.756 Y116.329 E5.30122
G1 X128.558 Y114.699 E5.38098
G1 X126.019 Y112.160 E5.46077
G1 X124.389 Y108.962 E5.54054
G1 X123.828 Y105.417 E5.62031
G1 X124.389 Y101.871 E5.70008
G1 X126.019 Y98.673 E5.77985
G1 X128.558 Y96.134 E5.85964
G1 X131.756 Y94.504 E5.93940
G1 X135.323 Y93.939 E6.01966
G1 X136.054 Y93.939 E6.03591
G1 X136.054 Y79.222 E6.36296
G1 X139.427 Y79.222 E6.43791
G1 X139.236 Y79.695 F6000.000
G1 X138.568 Y80.163
G1 X137.796 Y80.163 F2100.000 E6.45507
G1 X138.568 Y80.935 E6.47934
G1 X138.568 Y81.707 E6.49650
G1 X137.025 Y80.163 E6.54503
G1 X136.995 Y80.905 E6.56154
G1 X138.568 Y82.478 E6.61101
G1 X138.568 Y83.250 E6.62817
G1 X136.995 Y81.677 E6.67763
G1 X136.995 Y82.449 E6.69479
G1 X138.568 Y84.022 E6.74425
G1 X138.568 Y84.793 E6.76141
G1 X136.995 Y83.220 E6.81087
G1 X136.995 Y83.992 E6.82803
G1 X138.568 Y85.565 E6.87749
G1 X138.568 Y86.337 E6.89465
G1 X136.995 Y84.764 E6.94411
G1 X136.995 Y85.535 E6.96127
G1 X138.568 Y87.109 E7.01073
G1 X138.568 Y87.880 E7.02789
G1 X136.995 Y86.307 E7.07735
G1 X136.995 Y87.079 E7.09451
G1 X138.568 Y88.652 E7.14398
G1 X138.568 Y89.424 E7.16113
G1 X136.995 Y87.851 E7.21060
G1 X136.995 Y88.622 E7.22775
G1 X138.568 Y90.195 E7.27722
G1 X138.568 Y90.967 E7.29438
G1 X136.995 Y89.394 E7.34384
G1 X136.995 Y90.166 E7.36100
G1 X138.568 Y91.739 E7.41046
G1 X138.568 Y92.511 E7.42762
G1 X136.995 Y90.937 E7.47708
G1 X136.995 Y91.709 E7.49424
G1 X138.568 Y93.282 E7.54370
G1 X138.568 Y94.054 E7.56086
G1 X136.995 Y92.481 E7.61032
G1 X136.995 Y93.253 E7.62748
G1 X138.568 Y94.826 E7.67694
G1 X138.568 Y95.597 E7.69410
G1 X136.995 Y94.024 E7.74356
G1 X136.995 Y94.796 E7.76072
G1 X138.568 Y96.369 E7.81019
G1 X137.881 Y96.453 E7.82559
G1 X136.308 Y94.880 E7.87505
G1 X135.536 Y94.880 E7.89221
G1 X137.109 Y96.453 E7.94167
G1 X136.337 Y96.453 E7.95883
G1 X134.851 Y94.967 E8.00557
G1 X134.184 Y95.072 E8.02057
G1 X135.566 Y96.453 E8.06399
G1 X134.850 Y96.510 E8.07995
G1 X133.518 Y95.178 E8.12183
G1 X132.852 Y95.283 E8.13682
G1 X134.184 Y96.615 E8.17870
G1 X133.518 Y96.720 E8.19370
G1 X132.186 Y95.389 E8.23557
G1 X131.643 Y95.618 E8.24867
G1 X132.851 Y96.826 E8.28666
G1 X132.265 Y97.011 E8.30034
G1 X131.132 Y95.878 E8.33595
G1 X130.621 Y96.139 E8.34871
G1 X131.753 Y97.271 E8.38433
G1 X131.242 Y97.532 E8.39708
G1 X130.109 Y96.399 E8.43270
G1 X129.598 Y96.660 E8.44546
G1 X130.731 Y97.793 E8.48108
G1 X130.220 Y98.053 E8.49384
G1 X129.095 Y96.928 E8.52922
G1 X128.709 Y97.314 E8.54135
G1 X129.786 Y98.391 E8.57523
G1 X129.400 Y98.777 E8.58736
G1 X128.323 Y97.699 E8.62124
G1 X127.937 Y98.085 E8.63337
G1 X129.015 Y99.163 E8.66725
G1 X128.629 Y99.549 E8.67938
G1 X127.551 Y98.471 E8.71326
G1 X127.165 Y98.857 E8.72539
G1 X128.243 Y99.934 E8.75927
G1 X127.916 Y100.379 E8.77154
G1 X126.783 Y99.246 E8.80717
G1 X126.522 Y99.757 E8.81992
G1 X127.655 Y100.890 E8.85554
G1 X127.395 Y101.401 E8.86830
G1 X126.262 Y100.269 E8.90392
G1 X126.001 Y100.780 E8.91667
G1 X127.134 Y101.913 E8.95229
G1 X126.873 Y102.424 E8.96505
G1 X125.741 Y101.291 E9.00067
G1 X125.480 Y101.802 E9.01342
G1 X126.702 Y103.024 E9.05183
G1 X126.596 Y103.690 E9.06683
G1 X125.265 Y102.358 E9.10871
G1 X125.159 Y103.024 E9.12370
G1 X126.491 Y104.356 E9.16558
G1 X126.385 Y105.023 E9.18058
G1 X125.054 Y103.691 E9.22246
G1 X124.948 Y104.357 E9.23745
G1 X126.382 Y105.791 E9.28255
G1 X126.527 Y106.708 E9.30319
G1 X124.843 Y105.023 E9.35617
G1 X124.840 Y105.792 E9.37326
G1 X126.673 Y107.625 E9.43090
G1 X127.069 Y108.793 E9.45831
G1 X124.985 Y106.709 E9.52384
G1 X125.130 Y107.626 E9.54448
G1 X127.871 Y110.367 E9.63066
G1 X126.789 Y111.600 F6000.000
G1 X129.118 Y113.929 F2100.000 E9.70388
G1 X130.692 Y114.731 F6000.000
G1 X125.987 Y110.027 F2100.000 E9.85180
G1 X125.275 Y108.543 F6000.000
G1 X132.176 Y115.443 F2100.000 E10.06877
G1 X133.093 Y115.588 E10.08941
G1 X130.352 Y112.847 E10.17559
G1 X131.926 Y113.650 E10.21487
G1 X134.010 Y115.733 E10.28039
G1 X134.926 Y115.879 E10.30103
G1 X133.094 Y114.046 E10.35867
G1 X134.010 Y114.191 E10.37930
G1 X135.773 Y115.953 E10.43472
G1 X136.544 Y115.953 E10.45187
G1 X134.927 Y114.336 E10.50273
G1 X135.743 Y114.380 E10.52089
G1 X138.568 Y117.205 E10.60973
G1 X138.568 Y117.977 E10.62688
G1 X136.995 Y116.404 E10.67635
G1 X136.995 Y117.176 E10.69350
G1 X138.568 Y118.749 E10.74297
G1 X138.568 Y119.520 E10.76013
G1 X136.995 Y117.947 E10.80959
G1 X136.995 Y118.719 E10.82675
G1 X138.568 Y120.292 E10.87621
G1 X138.568 Y121.064 E10.89337
G1 X136.995 Y119.491 E10.94283
G1 X136.995 Y120.262 E10.95999
G1 X137.903 Y121.170 E10.98853
G1 X137.131 Y121.170 E11.00569
G1 X136.995 Y121.034 E11.00997
G1 X138.568 Y116.434 F6000.000
G1 X136.515 Y114.380 F2100.000 E11.07454
G1 X137.286 Y114.380 E11.09170
G1 X138.568 Y115.662 E11.13200
G1 X138.568 Y114.890 E11.14916
G1 X138.058 Y114.380 E11.16520
G1 F1800.000 E10.16520
G92 E0
G1 X94.868 Y101.669 F6000.000
G1 F1800.000 E1.00000
G1 X92.451 Y104.086 F1800.000 E1.07595
G1 X89.407 Y105.637 E1.15188
G1 X85.967 Y106.182 E1.22926
G1 X84.734 Y106.182 E1.25668
G1 X84.734 Y120.899 E1.58372
G1 X82.370 Y120.899 E1.63625
G1 X82.370 Y103.818 E2.01583
G1 X86.096 Y103.818 E2.09863
G1 X88.683 Y103.409 E2.15683
G1 X91.074 Y102.190 E2.21646
G1 X92.972 Y100.292 E2.27612
G1 X94.190 Y97.901 E2.33575
G1 X94.610 Y95.250 E2.39540
G1 X94.190 Y92.599 E2.45504
G1 X92.972 Y90.208 E2.51468
G1 X91.074 Y88.310 E2.57433
G1 X88.683 Y87.091 E2.63397
G1 X86.096 Y86.682 E2.69216
G1 X82.370 Y86.682 E2.77497
G1 X82.370 Y79.101 E2.94343
G1 X84.734 Y79.101 E2.99596
G1 X84.734 Y84.318 E3.11190
G1 X85.967 Y84.318 E3.13931
G1 X89.407 Y84.863 E3.21670
G1 X92.451 Y86.414 E3.29262
G1 X94.868 Y88.831 E3.36857
G1 X96.419 Y91.875 E3.44450
G1 X96.953 Y95.250 E3.52043
G1 X96.419 Y98.625 E3.59637
G1 X94.905 Y101.596 E3.67047
G1 X95.314 Y101.994 F6000.000
G1 X92.775 Y104.533 F900.000 E3.75026
G1 X89.577 Y106.162 E3.83003
G1 X86.010 Y106.727 E3.91028
G1 X85.279 Y106.727 E3.92653
G1 X85.279 Y121.444 E4.25358
G1 X81.824 Y121.444 E4.33035
G1 X81.824 Y103.273 E4.73417
G1 X86.053 Y103.273 E4.82814
G1 X88.512 Y102.884 E4.88346
G1 X90.749 Y101.743 E4.93926
G1 X92.525 Y99.967 E4.99507
G1 X93.665 Y97.730 E5.05087
G1 X94.058 Y95.250 E5.10667
G1 X93.665 Y92.770 E5.16248
G1 X92.525 Y90.533 E5.21827
G1 X90.749 Y88.757 E5.27409
G1 X88.512 Y87.616 E5.32988
G1 X86.053 Y87.227 E5.38521
G1 X81.824 Y87.227 E5.47918
G1 X81.824 Y78.556 E5.67188
G1 X85.279 Y78.556 E5.74865
G1 X85.279 Y83.773 E5.86459
G1 X86.010 Y83.773 E5.88084
