; generated by Slic3r 0.9.9 on 2013-04-22 at 13:24:51

; layer_height = 0.36
; perimeters = 2
; top_solid_layers = 3
; bottom_solid_layers = 3
; fill_density = 0.6
; perimeter_speed = 60
; infill_speed = 70
; travel_speed = 100
; nozzle_diameter = 0.5
; filament_diameter = 3
; extrusion_multiplier = 0.8
; perimeters extrusion width = 0.56mm
; infill extrusion width = 0.43mm
; solid infill extrusion width = 0.56mm
; top infill extrusion width = 0.56mm

G21 ; set units to millimeters
M107
M104 S220 ; set temperature
G28 ; home all axes
M92 X64.8592 ; calibrate X
M92 Y64.8592  ; calibrate Y
M92 Z2560   ; calibrate Z
M92 E569  ; calibrate E
M551 ; prime extruder 1
M109 S220 ; wait for temperature to be reached
G90 ; use absolute coordinates
G92 E0
M82 ; use absolute distances for extrusion
G1 F1800.000 E-1.00000
G92 E0
G1 Z0.360 F6000.000
G1 X46.775 Y100.250
G1 F1800.000 E1.00000
G1 X47.185 Y100.070 F1800.000 E1.00995
G1 X88.545 Y84.890 E1.98901
G1 X90.105 Y84.460 E2.02497
G1 X90.535 Y84.370 E2.03473
G1 X91.745 Y84.180 E2.06195
G1 X92.185 Y84.130 E2.07179
G1 X93.405 Y84.070 E2.09894
G1 X123.815 Y84.070 E2.77471
G1 X125.045 Y84.130 E2.80208
G1 X125.485 Y84.180 E2.81192
G1 X126.705 Y84.370 E2.83936
G1 X127.155 Y84.460 E2.84956
G1 X128.345 Y84.780 E2.87694
G1 X128.765 Y84.920 E2.88678
G1 X129.905 Y85.360 E2.91393
G1 X130.295 Y85.530 E2.92339
G1 X131.395 Y86.090 E2.95082
G1 X131.775 Y86.310 E2.96057
G1 X132.805 Y86.980 E2.98788
G1 X133.145 Y87.230 E2.99726
G1 X134.155 Y88.040 E3.02603
G1 X154.215 Y104.680 E3.60521
G1 X154.385 Y104.840 E3.61040
G1 X154.685 Y105.190 E3.62064
G1 X154.945 Y105.570 E3.63088
G1 X155.055 Y105.770 E3.63595
G1 X155.255 Y106.180 E3.64609
G1 X155.335 Y106.400 E3.65129
G1 X155.405 Y106.620 E3.65642
G1 X155.505 Y107.060 E3.66645
G1 X155.555 Y107.520 E3.67673
G1 X155.555 Y111.960 E3.77539
G1 X155.535 Y112.170 E3.78008
G1 X155.475 Y112.590 E3.78951
G1 X155.365 Y113.000 E3.79894
G1 X155.215 Y113.400 E3.80844
G1 X155.035 Y113.780 E3.81778
G1 X154.685 Y114.310 E3.83189
G1 X154.255 Y114.780 E3.84605
G1 X153.935 Y115.060 E3.85550
G1 X153.585 Y115.300 E3.86493
G1 X153.405 Y115.410 E3.86962
G1 X153.025 Y115.590 E3.87896
G1 X152.625 Y115.740 E3.88846
G1 X152.215 Y115.850 E3.89789
G1 X151.585 Y115.930 E3.91200
G1 X48.415 Y115.930 E6.20467
G1 X48.205 Y115.910 E6.20936
G1 X47.785 Y115.850 E6.21878
G1 X47.575 Y115.800 E6.22358
G1 X46.975 Y115.590 E6.23771
G1 X46.595 Y115.410 E6.24705
G1 X46.415 Y115.300 E6.25174
G1 X46.065 Y115.060 E6.26117
G1 X45.745 Y114.780 E6.27062
G1 X45.315 Y114.310 E6.28478
G1 X44.965 Y113.780 E6.29889
G1 X44.785 Y113.400 E6.30823
G1 X44.635 Y113.000 E6.31773
G1 X44.525 Y112.590 E6.32716
G1 X44.465 Y112.170 E6.33659
G1 X44.445 Y111.960 E6.34128
G1 X44.445 Y103.780 E6.52305
G1 X44.535 Y103.120 E6.53786
G1 X44.585 Y102.900 E6.54287
G1 X44.725 Y102.480 E6.55271
G1 X44.815 Y102.280 E6.55758
G1 X45.015 Y101.890 E6.56732
G1 X45.395 Y101.340 E6.58218
G1 X45.695 Y101.010 E6.59209
G1 X46.025 Y100.720 E6.60185
G1 X46.205 Y100.590 E6.60678
G1 X46.703 Y100.288 E6.61972
G1 X46.825 Y100.840 F6000.000
G1 X47.185 Y100.660 F1800.000 E6.62866
G1 X47.375 Y100.590 E6.63316
G1 X88.735 Y85.410 E7.61222
G1 X89.045 Y85.310 E7.61946
G1 X90.245 Y84.990 E7.64706
G1 X90.625 Y84.910 E7.65569
G1 X91.835 Y84.720 E7.68291
G1 X92.215 Y84.680 E7.69140
G1 X93.615 Y84.610 E7.72255
G1 X123.615 Y84.610 E8.38922
G1 X125.025 Y84.680 E8.42059
G1 X125.405 Y84.720 E8.42908
G1 X126.625 Y84.910 E8.45652
G1 X127.005 Y84.990 E8.46515
G1 X128.195 Y85.310 E8.49253
G1 X128.565 Y85.430 E8.50117
G1 X129.705 Y85.870 E8.52833
G1 X130.045 Y86.020 E8.53659
G1 X131.145 Y86.580 E8.56402
G1 X131.475 Y86.770 E8.57248
G1 X132.805 Y87.650 E8.60792
G1 X133.765 Y88.420 E8.63527
G1 X153.855 Y105.090 E9.21539
G1 X154.285 Y105.570 E9.22971
G1 X154.515 Y105.920 E9.23902
G1 X154.785 Y106.500 E9.25323
G1 X154.915 Y106.910 E9.26279
G1 X154.955 Y107.110 E9.26732
G1 X155.015 Y107.750 E9.28161
G1 X155.015 Y111.750 E9.37050
G1 X154.985 Y112.160 E9.37963
G1 X154.925 Y112.560 E9.38862
G1 X154.805 Y112.950 E9.39769
G1 X154.655 Y113.330 E9.40677
G1 X154.345 Y113.850 E9.42022
G1 X154.085 Y114.170 E9.42938
G1 X153.795 Y114.460 E9.43850
G1 X153.475 Y114.720 E9.44766
G1 X153.305 Y114.830 E9.45216
G1 X152.955 Y115.030 E9.46112
G1 X152.765 Y115.110 E9.46570
G1 X152.185 Y115.300 E9.47926
G1 X151.785 Y115.360 E9.48825
G1 X151.375 Y115.390 E9.49738
G1 X48.625 Y115.390 E11.78072
G1 X48.215 Y115.360 E11.78985
G1 X47.815 Y115.300 E11.79884
G1 X47.425 Y115.180 E11.80791
G1 X47.045 Y115.030 E11.81699
G1 X46.525 Y114.720 E11.83044
G1 X46.055 Y114.320 E11.84416
G1 X45.655 Y113.850 E11.85787
G1 X45.345 Y113.330 E11.87132
G1 X45.195 Y112.950 E11.88040
G1 X45.075 Y112.560 E11.88947
G1 X45.015 Y112.160 E11.89846
G1 X44.985 Y111.750 E11.90759
G1 X44.985 Y104.000 E12.07982
G1 X45.035 Y103.400 E12.09319
G1 X45.125 Y103.010 E12.10209
G1 X45.255 Y102.620 E12.11122
G1 X45.435 Y102.260 E12.12017
G1 X45.645 Y101.920 E12.12905
G1 X46.025 Y101.450 E12.14248
G1 X46.175 Y101.310 E12.14704
G1 X46.485 Y101.060 E12.15589
G1 X46.756 Y100.884 E12.16307
G1 X47.055 Y101.340 F6000.000
G1 X47.215 Y101.250 F1800.000 E12.16715
G1 X47.565 Y101.100 E12.17561
G1 X88.925 Y85.920 E13.15467
G1 X89.185 Y85.830 E13.16079
G1 X90.385 Y85.510 E13.18839
G1 X92.245 Y85.220 E13.23022
G1 X93.465 Y85.160 E13.25736
G1 X123.765 Y85.160 E13.93070
G1 X124.995 Y85.220 E13.95806
G1 X126.545 Y85.450 E13.99288
G1 X128.055 Y85.840 E14.02754
G1 X128.365 Y85.940 E14.03478
G1 X129.505 Y86.380 E14.06193
G1 X129.795 Y86.510 E14.06900
G1 X131.185 Y87.230 E14.10378
G1 X132.215 Y87.900 E14.13109
G1 X133.455 Y88.880 E14.16621
G1 X153.495 Y105.500 E14.74477
G1 X153.755 Y105.780 E14.75326
G1 X154.085 Y106.260 E14.76620
G1 X154.315 Y106.800 E14.77925
G1 X154.415 Y107.170 E14.78776
G1 X154.445 Y107.360 E14.79204
G1 X154.465 Y107.750 E14.80072
G1 X154.465 Y111.940 E14.89383
G1 X154.375 Y112.490 E14.90621
G1 X154.195 Y113.020 E14.91865
G1 X154.025 Y113.350 E14.92690
G1 X153.805 Y113.660 E14.93535
G1 X153.565 Y113.940 E14.94354
G1 X153.285 Y114.180 E14.95174
G1 X152.975 Y114.400 E14.96018
G1 X152.645 Y114.570 E14.96843
G1 X152.115 Y114.750 E14.98087
G1 X151.565 Y114.840 E14.99326
G1 X48.435 Y114.840 E17.28504
G1 X47.885 Y114.750 E17.29742
G1 X47.355 Y114.570 E17.30986
G1 X47.025 Y114.400 E17.31811
G1 X46.715 Y114.180 E17.32655
G1 X46.435 Y113.940 E17.33475
G1 X46.195 Y113.660 E17.34295
G1 X45.975 Y113.350 E17.35139
G1 X45.805 Y113.020 E17.35964
G1 X45.625 Y112.490 E17.37208
G1 X45.535 Y111.940 E17.38447
G1 X45.535 Y103.810 E17.56513
G1 X45.555 Y103.620 E17.56938
G1 X45.625 Y103.250 E17.57775
G1 X45.735 Y102.890 E17.58611
G1 X45.985 Y102.390 E17.59853
G1 X46.205 Y102.080 E17.60698
G1 X46.455 Y101.800 E17.61532
G1 X46.735 Y101.550 E17.62366
G1 X46.986 Y101.383 E17.63035
G1 X47.285 Y101.840 F6000.000
G1 X47.435 Y101.750 F1800.000 E17.63424
G1 X47.745 Y101.610 E17.64180
G1 X89.105 Y86.430 E18.62086
G1 X90.525 Y86.040 E18.65358
G1 X92.265 Y85.770 E18.69271
G1 X93.615 Y85.700 E18.72275
G1 X123.615 Y85.700 E19.38942
G1 X125.235 Y85.790 E19.42547
G1 X126.455 Y85.980 E19.45291
G1 X127.915 Y86.360 E19.48644
G1 X129.315 Y86.890 E19.51970
G1 X129.545 Y86.990 E19.52528
G1 X130.645 Y87.550 E19.55271
G1 X130.885 Y87.690 E19.55888
G1 X132.115 Y88.500 E19.59161
G1 X133.075 Y89.270 E19.61896
G1 X153.125 Y105.900 E20.19783
G1 X153.365 Y106.160 E20.20569
G1 X153.645 Y106.590 E20.21709
G1 X153.825 Y107.070 E20.22848
G1 X153.895 Y107.410 E20.23620
G1 X153.925 Y107.750 E20.24378
G1 X153.915 Y111.920 E20.33645
G1 X153.875 Y112.250 E20.34384
G1 X153.835 Y112.410 E20.34750
G1 X153.655 Y112.880 E20.35869
G1 X153.395 Y113.300 E20.36966
G1 X153.175 Y113.550 E20.37706
G1 X152.785 Y113.870 E20.38827
G1 X152.345 Y114.100 E20.39931
G1 X151.875 Y114.250 E20.41027
G1 X151.375 Y114.300 E20.42144
G1 X48.455 Y114.290 E22.70855
G1 X48.125 Y114.250 E22.71594
G1 X47.965 Y114.210 E22.71960
G1 X47.495 Y114.030 E22.73079
G1 X47.075 Y113.770 E22.74176
G1 X46.825 Y113.550 E22.74916
G1 X46.605 Y113.300 E22.75656
G1 X46.345 Y112.880 E22.76754
G1 X46.165 Y112.410 E22.77872
G1 X46.125 Y112.250 E22.78239
G1 X46.085 Y111.920 E22.78978
G1 X46.085 Y103.830 E22.96955
G1 X46.135 Y103.490 E22.97719
G1 X46.225 Y103.150 E22.98501
G1 X46.285 Y102.990 E22.98880
G1 X46.445 Y102.690 E22.99636
G1 X46.535 Y102.540 E23.00025
G1 X46.755 Y102.270 E23.00799
G1 X47.005 Y102.040 E23.01554
G1 X47.216 Y101.884 E23.02137
G1 F1800.000 E22.02137
G92 E0
G1 X85.099 Y100.896 F6000.000
G1 F1800.000 E1.00000
G1 X85.099 Y99.104 F1800.000 E1.03983
G1 X85.472 Y97.351 E1.07965
G1 X86.201 Y95.714 E1.11947
G1 X87.254 Y94.264 E1.15930
G1 X88.586 Y93.065 E1.19913
G1 X90.138 Y92.168 E1.23896
G1 X91.843 Y91.615 E1.27878
G1 X93.625 Y91.427 E1.31861
G1 X95.407 Y91.615 E1.35843
G1 X97.112 Y92.168 E1.39826
G1 X98.664 Y93.065 E1.43809
G1 X99.996 Y94.264 E1.47791
G1 X101.049 Y95.714 E1.51774
G1 X101.778 Y97.351 E1.55756
G1 X102.167 Y99.182 E1.59916
G1 X115.083 Y99.182 E1.88617
G1 X115.472 Y97.351 E1.92777
G1 X116.201 Y95.714 E1.96759
G1 X117.254 Y94.264 E2.00742
G1 X118.586 Y93.065 E2.04725
G1 X120.138 Y92.168 E2.08707
G1 X121.843 Y91.615 E2.12690
G1 X123.625 Y91.427 E2.16672
G1 X125.407 Y91.615 E2.20655
G1 X127.112 Y92.168 E2.24638
G1 X128.664 Y93.065 E2.28620
G1 X129.996 Y94.264 E2.32603
G1 X131.049 Y95.714 E2.36585
G1 X131.778 Y97.351 E2.40568
G1 X132.151 Y99.104 E2.44551
G1 X132.151 Y100.896 E2.48533
G1 X131.778 Y102.649 E2.52516
G1 X131.049 Y104.286 E2.56498
G1 X129.996 Y105.736 E2.60481
G1 X128.664 Y106.935 E2.64464
G1 X127.112 Y107.831 E2.68446
G1 X125.407 Y108.385 E2.72429
G1 X123.625 Y108.573 E2.76411
G1 X121.843 Y108.385 E2.80394
G1 X120.138 Y107.831 E2.84376
G1 X118.586 Y106.935 E2.88359
G1 X117.254 Y105.736 E2.92342
G1 X116.201 Y104.286 E2.96324
G1 X115.547 Y102.818 E2.99896
G1 X101.703 Y102.818 E3.30661
G1 X101.049 Y104.286 E3.34233
G1 X99.996 Y105.736 E3.38215
G1 X98.664 Y106.935 E3.42198
G1 X97.112 Y107.831 E3.46180
G1 X95.407 Y108.385 E3.50163
G1 X93.625 Y108.573 E3.54145
G1 X91.843 Y108.385 E3.58128
G1 X90.138 Y107.831 E3.62111
G1 X88.586 Y106.935 E3.66093
G1 X87.254 Y105.736 E3.70076
G1 X86.201 Y104.286 E3.74058
G1 X85.472 Y102.649 E3.78041
G1 X85.116 Y100.976 E3.81842
G1 X85.645 Y100.839 F6000.000
G1 X85.645 Y99.161 F900.000 E3.85570
G1 X85.994 Y97.520 E3.89297
G1 X86.676 Y95.988 E3.93025
G1 X87.662 Y94.631 E3.96753
G1 X88.909 Y93.508 E4.00481
G1 X90.361 Y92.669 E4.04209
G1 X91.957 Y92.151 E4.07937
G1 X93.625 Y91.976 E4.11664
G1 X95.293 Y92.151 E4.15392
G1 X96.889 Y92.669 E4.19120
G1 X98.342 Y93.508 E4.22848
G1 X99.588 Y94.631 E4.26575
G1 X100.574 Y95.988 E4.30303
G1 X101.256 Y97.520 E4.34031
G1 X101.605 Y99.161 E4.37759
G1 X101.605 Y99.727 E4.39017
G1 X115.645 Y99.727 E4.70216
G1 X115.645 Y99.161 E4.71474
G1 X115.994 Y97.520 E4.75202
G1 X116.676 Y95.988 E4.78929
G1 X117.662 Y94.631 E4.82657
G1 X118.909 Y93.508 E4.86385
G1 X120.361 Y92.669 E4.90113
G1 X121.957 Y92.151 E4.93841
G1 X123.625 Y91.976 E4.97568
G1 X125.293 Y92.151 E5.01296
G1 X126.889 Y92.669 E5.05024
G1 X128.341 Y93.508 E5.08752
G1 X129.588 Y94.631 E5.12480
G1 X130.574 Y95.988 E5.16207
G1 X131.256 Y97.520 E5.19935
G1 X131.605 Y99.161 E5.23663
G1 X131.605 Y100.839 E5.27391
G1 X131.256 Y102.480 E5.31119
G1 X130.574 Y104.012 E5.34846
G1 X129.588 Y105.369 E5.38574
G1 X128.341 Y106.492 E5.42302
G1 X126.889 Y107.330 E5.46030
G1 X125.293 Y107.849 E5.49758
G1 X123.625 Y108.024 E5.53486
G1 X121.957 Y107.849 E5.57213
G1 X120.361 Y107.330 E5.60941
G1 X118.909 Y106.492 E5.64669
G1 X117.662 Y105.369 E5.68397
G1 X116.676 Y104.012 E5.72125
G1 X115.994 Y102.480 E5.75852
G1 X115.950 Y102.273 E5.76323
G1 X101.300 Y102.273 E6.08876
G1 X101.256 Y102.480 E6.09346
G1 X100.574 Y104.012 E6.13074
G1 X99.588 Y105.369 E6.16802
G1 X98.341 Y106.492 E6.20530
G1 X96.889 Y107.330 E6.24257
G1 X95.293 Y107.849 E6.27985
G1 X93.625 Y108.024 E6.31713
G1 X91.957 Y107.849 E6.35441
G1 X90.361 Y107.330 E6.39169
G1 X88.909 Y106.492 E6.42896
G1 X87.662 Y105.369 E6.46624
G1 X86.676 Y104.012 E6.50352
G1 X85.994 Y102.480 E6.54080
G1 X85.662 Y100.919 E6.57626
G1 X85.155 Y100.600 F6000.000
G1 F1800.000 E5.57626
G92 E0
G1 X150.557 Y108.568 F6000.000
G1 F1800.000 E1.00000
G1 X150.557 Y110.932 F1800.000 E1.05253
G1 X49.443 Y110.932 E3.29950
G1 X49.443 Y104.663 E3.43882
G1 X89.134 Y90.032 E4.37885
G1 X90.247 Y89.604 E4.40535
G1 X91.352 Y89.308 E4.43078
G1 X92.482 Y89.129 E4.45621
G1 X93.646 Y89.068 E4.48211
G1 X123.604 Y89.068 E5.14782
G1 X124.768 Y89.129 E5.17372
G1 X125.898 Y89.308 E5.19915
G1 X127.003 Y89.604 E5.22457
G1 X128.071 Y90.014 E5.25000
G1 X129.090 Y90.534 E5.27543
G1 X130.050 Y91.157 E5.30085
G1 X130.939 Y91.877 E5.32628
G1 X131.748 Y92.686 E5.35170
G1 X132.468 Y93.575 E5.37713
G1 X133.091 Y94.535 E5.40255
G1 X133.611 Y95.554 E5.42798
G1 X134.021 Y96.622 E5.45340
G1 X134.317 Y97.727 E5.47883
G1 X134.496 Y98.857 E5.50425
G1 X134.557 Y100.021 E5.53016
G1 X134.557 Y108.568 E5.72008
G1 X150.475 Y108.568 E6.07382
G1 X151.102 Y108.023 F6000.000
G1 X151.102 Y111.477 F900.000 E6.15059
G1 X48.898 Y111.477 E8.42180
G1 X48.898 Y104.282 E8.58169
G1 X88.942 Y89.521 E9.53010
G1 X90.078 Y89.085 E9.55715
G1 X91.239 Y88.774 E9.58384
G1 X92.425 Y88.586 E9.61054
G1 X93.632 Y88.523 E9.63740
G1 X123.618 Y88.523 E10.30374
G1 X124.825 Y88.586 E10.33060
G1 X126.011 Y88.774 E10.35730
G1 X127.172 Y89.085 E10.38399
G1 X128.293 Y89.515 E10.41069
G1 X129.363 Y90.061 E10.43738
G1 X130.371 Y90.715 E10.46408
G1 X131.305 Y91.471 E10.49077
G1 X132.154 Y92.320 E10.51747
G1 X132.910 Y93.254 E10.54417
G1 X133.564 Y94.262 E10.57086
G1 X134.110 Y95.332 E10.59756
G1 X134.540 Y96.453 E10.62425
G1 X134.851 Y97.614 E10.65095
G1 X135.039 Y98.800 E10.67764
G1 X135.102 Y100.007 E10.70450
G1 X135.102 Y108.023 E10.88262
G1 X151.020 Y108.023 E11.23636
G1 X150.830 Y108.495 F6000.000
G1 X150.162 Y108.964
G1 X149.389 Y108.963 F2100.000 E11.25353
G1 X150.162 Y109.735 E11.27781
G1 X150.162 Y110.507 E11.29498
G1 X148.618 Y108.963 E11.34354
G1 X147.846 Y108.963 E11.36071
G1 X149.419 Y110.537 E11.41019
G1 X148.647 Y110.537 E11.42736
G1 X147.074 Y108.963 E11.47683
G1 X146.302 Y108.963 E11.49400
G1 X147.875 Y110.537 E11.54348
G1 X147.103 Y110.537 E11.56065
G1 X145.530 Y108.963 E11.61013
G1 X144.758 Y108.963 E11.62729
G1 X146.331 Y110.537 E11.67677
G1 X145.559 Y110.537 E11.69394
G1 X143.986 Y108.963 E11.74342
G1 X143.214 Y108.963 E11.76058
G1 X144.787 Y110.537 E11.81006
G1 X144.015 Y110.537 E11.82723
G1 X142.442 Y108.963 E11.87671
G1 X141.670 Y108.963 E11.89388
G1 X143.243 Y110.537 E11.94335
G1 X142.471 Y110.537 E11.96052
G1 X140.898 Y108.963 E12.01000
G1 X140.126 Y108.963 E12.02717
G1 X141.699 Y110.537 E12.07664
G1 X140.927 Y110.537 E12.09381
G1 X139.354 Y108.963 E12.14329
G1 X138.582 Y108.963 E12.16046
G1 X140.155 Y110.537 E12.20994
G1 X139.384 Y110.537 E12.22710
G1 X137.810 Y108.963 E12.27658
G1 X137.038 Y108.963 E12.29375
G1 X138.612 Y110.537 E12.34323
G1 X137.840 Y110.537 E12.36039
G1 X136.267 Y108.963 E12.40987
G1 X135.495 Y108.963 E12.42704
G1 X137.068 Y110.537 E12.47652
G1 X136.296 Y110.537 E12.49369
G1 X134.723 Y108.963 E12.54316
G1 X131.461 Y95.666 F6000.000
G1 X133.991 Y98.196 F2100.000 E12.62274
G1 X134.112 Y99.090 E12.64279
G1 X132.080 Y97.058 E12.70669
G1 X132.339 Y98.088 E12.73033
G1 X134.155 Y99.904 E12.78744
G1 X134.162 Y100.683 E12.80476
G1 X132.546 Y99.067 E12.85557
G1 X132.546 Y99.839 E12.87274
G1 X134.162 Y101.455 E12.92355
G1 X134.162 Y102.227 E12.94072
G1 X132.546 Y100.611 E12.99154
G1 X132.468 Y101.305 E13.00706
G1 X134.162 Y102.999 E13.06034
G1 X134.162 Y103.771 E13.07750
G1 X132.333 Y101.942 E13.13503
G1 X132.197 Y102.578 E13.14950
G1 X134.162 Y104.543 E13.21128
G1 X134.162 Y105.315 E13.22845
G1 X131.991 Y103.144 E13.29673
G1 X131.753 Y103.678 E13.30974
G1 X134.162 Y106.087 E13.38550
G1 X134.162 Y106.858 E13.40266
G1 X131.515 Y104.212 E13.48590
G1 X131.235 Y104.703 E13.49849
G1 X134.162 Y107.630 E13.59055
G1 X134.162 Y108.402 E13.60771
G1 X130.910 Y105.151 E13.70999
G1 X130.585 Y105.598 E13.72228
G1 X135.524 Y110.537 E13.87761
G1 X134.752 Y110.537 E13.89478
G1 X130.252 Y106.037 E14.03630
