; generated by Slic3r 0.9.9 on 2013-04-22 at 13:25:59

; layer_height = 0.36
; perimeters = 2
; top_solid_layers = 3
; bottom_solid_layers = 3
; fill_density = 0.6
; perimeter_speed = 60
; infill_speed = 70
; travel_speed = 100
; nozzle_diameter = 0.5
; filament_diameter = 3
; extrusion_multiplier = 0.8
; perimeters extrusion width = 0.56mm
; infill extrusion width = 0.43mm
; solid infill extrusion width = 0.56mm
; top infill extrusion width = 0.56mm

G21 ; set units to millimeters
M107
M104 S220 ; set temperature
G28 ; home all axes
M92 X64.8592 ; calibrate X
M92 Y64.8592  ; calibrate Y
M92 Z2560   ; calibrate Z
M92 E569  ; calibrate E
M551 ; prime extruder 1
M109 S220 ; wait for temperature to be reached
G90 ; use absolute coordinates
G92 E0
M82 ; use absolute distances for extrusion
G1 F1800.000 E-1.00000
G92 E0
G1 Z0.360 F6000.000
G1 X54.090 Y70.580
G1 F1800.000 E1.00000
G1 X54.450 Y70.360 F1800.000 E1.00938
G1 X54.830 Y70.160 E1.01892
G1 X55.230 Y70.010 E1.02841
G1 X55.440 Y69.950 E1.03326
G1 X55.860 Y69.870 E1.04277
G1 X56.290 Y69.820 E1.05239
G1 X149.710 Y69.820 E3.12839
G1 X150.340 Y69.900 E3.14250
G1 X150.750 Y70.010 E3.15193
G1 X151.150 Y70.160 E3.16143
G1 X151.530 Y70.340 E3.17077
G1 X151.890 Y70.570 E3.18026
G1 X152.060 Y70.690 E3.18489
G1 X152.380 Y70.970 E3.19434
G1 X152.810 Y71.440 E3.20849
G1 X153.160 Y71.970 E3.22261
G1 X153.340 Y72.350 E3.23195
G1 X153.490 Y72.750 E3.24144
G1 X153.600 Y73.160 E3.25088
G1 X153.680 Y73.790 E3.26499
G1 X153.680 Y78.220 E3.36343
G1 X153.660 Y78.450 E3.36856
G1 X153.580 Y78.910 E3.37894
G1 X153.450 Y79.350 E3.38913
G1 X153.280 Y79.780 E3.39941
G1 X153.060 Y80.190 E3.40975
G1 X152.930 Y80.380 E3.41487
G1 X152.650 Y80.750 E3.42518
G1 X152.490 Y80.920 E3.43037
G1 X105.490 Y128.930 E4.92339
G1 X105.160 Y129.230 E4.93330
G1 X104.620 Y129.610 E4.94797
G1 X104.020 Y129.900 E4.96278
G1 X103.600 Y130.040 E4.97262
G1 X103.160 Y130.130 E4.98260
G1 X102.720 Y130.180 E4.99244
G1 X56.290 Y130.180 E6.02422
G1 X55.860 Y130.130 E6.03384
G1 X55.440 Y130.050 E6.04334
G1 X55.030 Y129.920 E6.05290
G1 X54.830 Y129.840 E6.05768
G1 X54.450 Y129.640 E6.06723
G1 X54.090 Y129.420 E6.07660
G1 X53.920 Y129.290 E6.08136
G1 X53.590 Y129.010 E6.09098
G1 X53.440 Y128.850 E6.09585
G1 X53.040 Y128.350 E6.11008
G1 X52.720 Y127.790 E6.12441
G1 X52.490 Y127.190 E6.13869
G1 X46.670 Y103.220 E6.68683
G1 X46.570 Y102.660 E6.69947
G1 X46.340 Y100.420 E6.74951
G1 X46.320 Y100.070 E6.75730
G1 X46.340 Y99.560 E6.76865
G1 X46.570 Y97.330 E6.81847
G1 X46.670 Y96.770 E6.83111
G1 X52.490 Y72.810 E7.37903
G1 X52.720 Y72.210 E7.39331
G1 X53.040 Y71.650 E7.40765
G1 X53.300 Y71.310 E7.41716
G1 X53.590 Y70.990 E7.42675
G1 X54.025 Y70.630 E7.43931
G1 X54.410 Y71.020 F6000.000
G1 X54.760 Y70.810 F1800.000 E7.44838
G1 X55.120 Y70.630 E7.45732
G1 X55.310 Y70.560 E7.46182
G1 X55.900 Y70.410 E7.47535
G1 X56.500 Y70.360 E7.48873
G1 X149.700 Y70.370 E9.55984
G1 X150.310 Y70.450 E9.57351
G1 X150.700 Y70.570 E9.58258
G1 X151.080 Y70.720 E9.59166
G1 X151.600 Y71.030 E9.60511
G1 X152.070 Y71.430 E9.61883
G1 X152.340 Y71.730 E9.62779
G1 X152.580 Y72.070 E9.63704
G1 X152.780 Y72.420 E9.64600
G1 X152.930 Y72.800 E9.65508
G1 X153.050 Y73.190 E9.66415
G1 X153.130 Y73.800 E9.67782
G1 X153.130 Y78.210 E9.77582
G1 X153.080 Y78.640 E9.78544
G1 X152.980 Y79.060 E9.79503
G1 X152.910 Y79.260 E9.79974
G1 X152.630 Y79.850 E9.81425
G1 X152.380 Y80.210 E9.82399
G1 X152.100 Y80.530 E9.83344
G1 X105.100 Y128.540 E11.32647
G1 X104.950 Y128.690 E11.33118
G1 X104.630 Y128.950 E11.34034
G1 X104.100 Y129.270 E11.35410
G1 X103.720 Y129.430 E11.36326
G1 X103.320 Y129.540 E11.37248
G1 X102.910 Y129.610 E11.38172
G1 X102.500 Y129.640 E11.39086
G1 X56.300 Y129.630 E12.41753
G1 X55.900 Y129.590 E12.42646
G1 X55.310 Y129.440 E12.43999
G1 X55.120 Y129.370 E12.44449
G1 X54.760 Y129.190 E12.45343
G1 X54.410 Y128.980 E12.46250
G1 X53.950 Y128.590 E12.47590
G1 X53.680 Y128.290 E12.48487
G1 X53.440 Y127.970 E12.49376
G1 X53.240 Y127.620 E12.50272
G1 X53.080 Y127.240 E12.51188
G1 X52.970 Y126.860 E12.52067
G1 X47.200 Y103.090 E13.06424
G1 X47.110 Y102.600 E13.07531
G1 X46.860 Y100.060 E13.13202
G1 X46.880 Y99.620 E13.14181
G1 X47.110 Y97.390 E13.19163
G1 X47.200 Y96.900 E13.20270
G1 X52.970 Y73.140 E13.74605
G1 X53.080 Y72.760 E13.75484
G1 X53.240 Y72.380 E13.76400
G1 X53.440 Y72.030 E13.77296
G1 X53.810 Y71.550 E13.78643
G1 X54.100 Y71.270 E13.79538
G1 X54.345 Y71.069 E13.80242
G1 X54.740 Y71.460 F6000.000
G1 X55.060 Y71.260 F1800.000 E13.81080
G1 X55.400 Y71.110 E13.81906
G1 X55.940 Y70.960 E13.83152
G1 X56.310 Y70.910 E13.83981
G1 X149.690 Y70.910 E15.91492
G1 X150.060 Y70.960 E15.92322
G1 X150.600 Y71.110 E15.93568
G1 X151.100 Y71.350 E15.94800
G1 X151.410 Y71.570 E15.95645
G1 X151.690 Y71.810 E15.96464
G1 X151.930 Y72.090 E15.97284
G1 X152.150 Y72.400 E15.98129
G1 X152.390 Y72.900 E15.99361
G1 X152.540 Y73.440 E16.00607
G1 X152.590 Y73.810 E16.01436
G1 X152.590 Y77.990 E16.10725
G1 X152.570 Y78.390 E16.11615
G1 X152.490 Y78.780 E16.12500
G1 X152.280 Y79.340 E16.13829
G1 X152.190 Y79.520 E16.14276
G1 X151.970 Y79.850 E16.15157
G1 X151.710 Y80.150 E16.16040
G1 X104.710 Y128.160 E17.65342
G1 X104.400 Y128.440 E17.66270
G1 X104.060 Y128.670 E17.67182
G1 X103.700 Y128.850 E17.68077
G1 X103.310 Y128.980 E17.68990
G1 X102.910 Y129.060 E17.69897
G1 X102.500 Y129.090 E17.70810
G1 X56.310 Y129.090 E18.73455
G1 X55.940 Y129.040 E18.74285
G1 X55.400 Y128.890 E18.75530
G1 X55.230 Y128.820 E18.75939
G1 X54.900 Y128.640 E18.76774
G1 X54.590 Y128.430 E18.77606
G1 X54.310 Y128.180 E18.78440
G1 X53.950 Y127.750 E18.79686
G1 X53.760 Y127.430 E18.80513
G1 X53.550 Y126.910 E18.81760
G1 X47.730 Y102.960 E19.36531
G1 X47.660 Y102.550 E19.37455
G1 X47.410 Y100.180 E19.42751
G1 X47.430 Y99.670 E19.43885
G1 X47.660 Y97.440 E19.48867
G1 X47.730 Y97.030 E19.49791
G1 X53.500 Y73.270 E20.04126
G1 X53.680 Y72.740 E20.05370
G1 X53.950 Y72.250 E20.06613
G1 X54.310 Y71.820 E20.07859
G1 X54.674 Y71.508 E20.08924
G1 X55.060 Y71.900 F6000.000
G1 X55.360 Y71.730 F1800.000 E20.09690
G1 X55.670 Y71.590 E20.10446
G1 X55.830 Y71.540 E20.10819
G1 X56.160 Y71.480 E20.11564
G1 X56.500 Y71.450 E20.12322
G1 X149.670 Y71.460 E22.19367
G1 X150.000 Y71.500 E22.20106
G1 X150.320 Y71.590 E22.20844
G1 X150.630 Y71.720 E22.21591
G1 X151.050 Y71.980 E22.22689
G1 X151.300 Y72.200 E22.23429
G1 X151.520 Y72.450 E22.24169
G1 X151.780 Y72.870 E22.25267
G1 X151.910 Y73.180 E22.26014
G1 X152.000 Y73.500 E22.26753
G1 X152.050 Y74.000 E22.27869
G1 X152.040 Y78.170 E22.37136
G1 X151.950 Y78.700 E22.38331
G1 X151.820 Y79.030 E22.39119
G1 X151.550 Y79.500 E22.40323
G1 X151.320 Y79.770 E22.41111
G1 X104.320 Y127.780 E23.90414
G1 X104.190 Y127.910 E23.90822
G1 X103.730 Y128.230 E23.92067
G1 X103.400 Y128.380 E23.92873
G1 X103.050 Y128.490 E23.93688
G1 X102.500 Y128.550 E23.94918
G1 X56.330 Y128.540 E24.97518
G1 X55.830 Y128.460 E24.98643
G1 X55.670 Y128.410 E24.99016
G1 X55.210 Y128.190 E25.00149
G1 X54.930 Y128.000 E25.00901
G1 X54.670 Y127.770 E25.01672
G1 X54.360 Y127.380 E25.02779
G1 X54.190 Y127.080 E25.03545
G1 X54.070 Y126.760 E25.04305
G1 X48.260 Y102.830 E25.59027
G1 X48.200 Y102.490 E25.59795
G1 X47.960 Y100.150 E25.65022
G1 X47.970 Y99.730 E25.65956
G1 X48.200 Y97.500 E25.70937
G1 X48.260 Y97.160 E25.71705
G1 X54.030 Y73.400 E26.26039
G1 X54.070 Y73.240 E26.26406
G1 X54.190 Y72.920 E26.27165
G1 X54.360 Y72.620 E26.27932
G1 X54.670 Y72.230 E26.29039
G1 X54.995 Y71.950 E26.29992
G1 F1800.000 E25.29992
G92 E0
G1 X58.755 Y92.322 F6000.000
G1 F1800.000 E1.00000
G1 X60.406 Y91.972 F1800.000 E1.03750
G1 X62.094 Y91.972 E1.07501
G1 X63.745 Y92.322 E1.11251
G1 X65.286 Y93.009 E1.15001
G1 X66.652 Y94.001 E1.18752
G1 X67.781 Y95.255 E1.22502
G1 X68.625 Y96.717 E1.26252
G1 X68.938 Y97.682 E1.28508
G1 X85.715 Y97.682 E1.65789
G1 X88.063 Y93.615 E1.76226
G1 X95.437 Y93.615 E1.92611
G1 X99.123 Y100.000 E2.08996
G1 X95.437 Y106.385 E2.25381
G1 X88.063 Y106.385 E2.41766
G1 X85.715 Y102.318 E2.52203
G1 X68.938 Y102.318 E2.89485
G1 X68.625 Y103.283 E2.91740
G1 X67.781 Y104.745 E2.95491
G1 X66.652 Y105.999 E2.99241
G1 X65.286 Y106.991 E3.02991
G1 X63.745 Y107.678 E3.06741
G1 X62.094 Y108.028 E3.10492
G1 X60.406 Y108.028 E3.14242
G1 X58.755 Y107.678 E3.17992
G1 X57.214 Y106.991 E3.21743
G1 X55.848 Y105.999 E3.25493
G1 X54.719 Y104.745 E3.29243
G1 X53.875 Y103.283 E3.32994
G1 X53.354 Y101.678 E3.36744
G1 X53.177 Y100.000 E3.40494
G1 X53.354 Y98.322 E3.44245
G1 X53.875 Y96.717 E3.47995
G1 X54.719 Y95.255 E3.51745
G1 X55.848 Y94.001 E3.55496
G1 X57.214 Y93.009 E3.59246
G1 X58.681 Y92.356 E3.62814
G1 X58.925 Y92.844 F6000.000
G1 X60.464 Y92.517 F900.000 E3.66310
G1 X62.036 Y92.517 E3.69805
G1 X63.575 Y92.844 E3.73301
G1 X65.012 Y93.484 E3.76796
G1 X66.285 Y94.408 E3.80292
G1 X67.337 Y95.577 E3.83788
G1 X68.124 Y96.940 E3.87283
G1 X68.542 Y98.227 E3.90292
G1 X86.030 Y98.227 E4.29154
G1 X88.378 Y94.160 E4.39591
G1 X95.122 Y94.160 E4.54576
G1 X98.493 Y100.000 E4.69562
G1 X95.122 Y105.840 E4.84547
G1 X88.378 Y105.840 E4.99533
G1 X86.030 Y101.773 E5.09969
G1 X68.542 Y101.773 E5.48831
G1 X68.124 Y103.060 E5.51840
G1 X67.337 Y104.423 E5.55336
G1 X66.285 Y105.592 E5.58831
G1 X65.012 Y106.516 E5.62327
G1 X63.575 Y107.156 E5.65822
G1 X62.036 Y107.483 E5.69318
G1 X60.464 Y107.483 E5.72813
G1 X58.925 Y107.156 E5.76309
G1 X57.488 Y106.516 E5.79804
G1 X56.215 Y105.592 E5.83300
G1 X55.163 Y104.423 E5.86795
G1 X54.376 Y103.060 E5.90291
G1 X53.890 Y101.564 E5.93786
G1 X53.726 Y100.000 E5.97282
G1 X53.890 Y98.436 E6.00777
G1 X54.376 Y96.940 E6.04273
G1 X55.163 Y95.577 E6.07769
G1 X56.215 Y94.408 E6.11264
G1 X57.488 Y93.484 E6.14760
G1 X58.850 Y92.877 E6.18073
G1 X59.057 Y92.315 F6000.000
G1 X57.318 Y74.818
G1 X148.682 Y74.818 F1800.000 E8.21104
G1 X148.682 Y77.661 E8.27422
G1 X106.161 Y120.182 E9.61052
G1 X101.682 Y120.182 E9.71005
G1 X101.682 Y125.182 E9.82117
G1 X57.318 Y125.182 E10.80703
G1 X57.318 Y109.057 E11.16536
G1 X56.286 Y108.597 E11.19046
G1 X54.607 Y107.377 E11.23658
G1 X53.219 Y105.835 E11.28270
G1 X52.181 Y104.038 E11.32882
G1 X51.540 Y102.064 E11.37494
G1 X51.323 Y100.000 E11.42106
G1 X51.540 Y97.936 E11.46718
G1 X52.181 Y95.962 E11.51330
G1 X53.219 Y94.165 E11.55942
G1 X54.607 Y92.623 E11.60554
G1 X56.286 Y91.403 E11.65166
G1 X57.318 Y90.943 E11.67676
G1 X57.318 Y74.900 E12.03328
G1 X56.773 Y74.273 F6000.000
G1 X149.227 Y74.273 F900.000 E14.08782
G1 X149.227 Y77.887 E14.16814
G1 X106.387 Y120.727 E15.51448
G1 X102.227 Y120.727 E15.60692
G1 X102.227 Y125.727 E15.71803
G1 X56.773 Y125.727 E16.72813
G1 X56.773 Y109.411 E17.09072
G1 X56.012 Y109.072 E17.10922
G1 X54.240 Y107.785 E17.15789
G1 X52.775 Y106.158 E17.20655
G1 X51.680 Y104.261 E17.25522
G1 X51.003 Y102.178 E17.30389
G1 X50.774 Y100.000 E17.35256
G1 X51.003 Y97.822 E17.40122
G1 X51.680 Y95.739 E17.44989
G1 X52.775 Y93.842 E17.49856
G1 X54.240 Y92.215 E17.54723
G1 X56.012 Y90.928 E17.59589
G1 X56.773 Y90.589 E17.61440
G1 X56.773 Y74.355 E17.97516
G1 X57.245 Y74.545 F6000.000
G1 X67.118 Y93.928
G1 X70.477 Y97.287 F2100.000 E18.08112
G1 X69.702 Y97.287 F6000.000
G1 X68.996 Y96.580 F2100.000 E18.10340
G1 F1800.000 E17.10340
G92 E0
G1 X57.523 Y107.561 F6000.000
G1 F1800.000 E1.00000
G1 X74.748 Y124.787 F2100.000 E1.54341
G1 X75.522 Y124.787 E1.56068
G1 X58.834 Y108.098 E2.08715
G1 X59.817 Y108.307 E2.10957
G1 X76.297 Y124.787 E2.62944
G1 X77.071 Y124.787 E2.64672
G1 X60.708 Y108.424 E3.16292
G1 X61.482 Y108.424 E3.18019
G1 X77.845 Y124.787 E3.69640
G1 X78.619 Y124.787 E3.71367
G1 X62.235 Y108.402 E4.23054
G1 X62.874 Y108.267 E4.24511
G1 X79.394 Y124.787 E4.76626
G1 X80.168 Y124.787 E4.78353
G1 X63.512 Y108.131 E5.30897
G1 X64.105 Y107.950 E5.32280
G1 X80.942 Y124.787 E5.85396
G1 X81.717 Y124.787 E5.87123
G1 X64.641 Y107.711 E6.40992
G1 X65.177 Y107.473 E6.42300
G1 X82.491 Y124.787 E6.96921
G1 X83.265 Y124.787 E6.98648
G1 X65.675 Y107.197 E7.54139
G1 X66.124 Y106.871 E7.55375
G1 X84.039 Y124.787 E8.11894
G1 X84.814 Y124.787 E8.13621
G1 X66.572 Y106.545 E8.71167
G1 X67.002 Y106.201 E8.72396
G1 X85.588 Y124.787 E9.31029
G1 X86.362 Y124.787 E9.32757
G1 X67.369 Y105.793 E9.92675
G1 X67.736 Y105.386 E9.93898
G1 X87.137 Y124.787 E10.55102
G1 X87.911 Y124.787 E10.56830
G1 X68.103 Y104.978 E11.19319
G1 X68.386 Y104.487 E11.20584
G1 X88.685 Y124.787 E11.84622
G1 X89.459 Y124.787 E11.86349
G1 X68.669 Y103.997 E12.51936
G1 X68.953 Y103.506 E12.53200
G1 X90.234 Y124.787 E13.20336
G1 X91.008 Y124.787 E13.22063
G1 X69.154 Y102.933 E13.91005
G1 X69.709 Y102.713 E13.92336
G1 X91.782 Y124.787 E14.61971
G1 X92.557 Y124.787 E14.63698
G1 X70.483 Y102.713 E15.33333
G1 X71.258 Y102.713 E15.35060
G1 X93.331 Y124.787 E16.04695
G1 X94.105 Y124.787 E16.06422
G1 X72.032 Y102.713 E16.76057
G1 X72.806 Y102.713 E16.77784
G1 X94.879 Y124.787 E17.47419
G1 X95.654 Y124.787 E17.49146
G1 X73.581 Y102.713 E18.18781
G1 X74.355 Y102.713 E18.20508
G1 X96.428 Y124.787 E18.90143
G1 X97.202 Y124.787 E18.91870
G1 X75.129 Y102.713 E19.61505
G1 X75.903 Y102.713 E19.63233
G1 X97.977 Y124.787 E20.32867
G1 X98.751 Y124.787 E20.34595
G1 X76.678 Y102.713 E21.04229
G1 X77.452 Y102.713 E21.05957
G1 X99.525 Y124.787 E21.75591
G1 X100.299 Y124.787 E21.77319
G1 X78.226 Y102.713 E22.46953
G1 X79.001 Y102.713 E22.48681
G1 X101.074 Y124.787 E23.18315
G1 X101.287 Y124.225 E23.19655
G1 X79.775 Y102.713 E23.87518
G1 X80.549 Y102.713 E23.89246
G1 X101.287 Y123.451 E24.54667
G1 X101.287 Y122.677 E24.56394
G1 X81.323 Y102.713 E25.19372
G1 X82.098 Y102.713 E25.21099
G1 X101.287 Y121.902 E25.81635
G1 X101.287 Y121.128 E25.83362
G1 X82.872 Y102.713 E26.41455
G1 X83.646 Y102.713 E26.43182
G1 X101.287 Y120.354 E26.98833
G1 X101.494 Y119.787 E27.00180
G1 X88.488 Y106.781 E27.41210
G1 X89.262 Y106.781 E27.42937
G1 X102.268 Y119.787 E27.83967
G1 X103.042 Y119.787 E27.85694
G1 X90.036 Y106.781 E28.26724
G1 X90.811 Y106.781 E28.28451
G1 X103.817 Y119.787 E28.69481
G1 X104.591 Y119.787 E28.71208
G1 X91.585 Y106.781 E29.12238
G1 X92.359 Y106.781 E29.13965
G1 X105.365 Y119.787 E29.54995
G1 X106.068 Y119.716 E29.56572
G1 X93.134 Y106.781 E29.97378
G1 X93.908 Y106.781 E29.99105
G1 X106.456 Y119.328 E30.38689
G1 X106.843 Y118.941 E30.39911
G1 X94.682 Y106.781 E30.78274
G1 X95.456 Y106.781 E30.80001
G1 X107.230 Y118.554 E31.17143
G1 X107.617 Y118.167 E31.18364
G1 X95.872 Y106.422 E31.55416
G1 X96.155 Y105.931 E31.56681
G1 X108.004 Y117.780 E31.94060
G1 X108.391 Y117.393 E31.95282
G1 X96.439 Y105.440 E32.32988
G1 X96.722 Y104.949 E32.34253
G1 X108.778 Y117.006 E32.72287
G1 X109.166 Y116.618 E32.73508
G1 X97.006 Y104.458 E33.11869
G1 X97.289 Y103.968 E33.13134
G1 X109.553 Y116.231 E33.51822
G1 X109.940 Y115.844 E33.53044
G1 X97.572 Y103.477 E33.92060
G1 X97.856 Y102.986 E33.93324
G1 X110.327 Y115.457 E34.32667
G1 X110.714 Y115.070 E34.33888
G1 X98.139 Y102.495 E34.73559
G1 X98.423 Y102.004 E34.74823
G1 X111.101 Y114.683 E35.14821
G1 X111.488 Y114.296 E35.16042
G1 X98.706 Y101.513 E35.56367
G1 X98.990 Y101.022 E35.57631
G1 X111.876 Y113.908 E35.98283
G1 X112.263 Y113.521 E35.99504
G1 X99.273 Y100.531 E36.40484
G1 X99.556 Y100.041 E36.41748
G1 X112.650 Y113.134 E36.83055
G1 X113.037 Y112.747 E36.84276
G1 X98.609 Y98.319 E37.29791
G1 X97.552 Y96.487 E37.34510
G1 X113.424 Y112.360 E37.84583
G1 X96.494 Y94.655 F6000.000
G1 X113.811 Y111.973 F2100.000 E38.39214
G1 X114.198 Y111.586 E38.40436
G1 X77.826 Y75.213 E39.55180
G1 X78.601 Y75.213 E39.56907
G1 X114.586 Y111.198 E40.70430
G1 X114.973 Y110.811 E40.71651
G1 X79.375 Y75.213 E41.83953
G1 X80.149 Y75.213 E41.85680
G1 X115.360 Y110.424 E42.96760
G1 X115.747 Y110.037 E42.97981
G1 X80.923 Y75.213 E44.07840
G1 X81.698 Y75.213 E44.09567
G1 X116.134 Y109.650 E45.18205
G1 X116.521 Y109.263 E45.19426
G1 X82.472 Y75.213 E46.26842
G1 X83.246 Y75.213 E46.28569
G1 X116.908 Y108.876 E47.34764
G1 X117.296 Y108.488 E47.35986
G1 X84.021 Y75.213 E48.40959
G1 X84.795 Y75.213 E48.42686
G1 X117.683 Y108.101 E49.46438
G1 X118.070 Y107.714 E49.47660
G1 X85.569 Y75.213 E50.50190
G1 X86.343 Y75.213 E50.51918
G1 X118.457 Y107.327 E51.53227
G1 X118.844 Y106.940 E51.54448
G1 X87.118 Y75.213 E52.54537
G1 X87.892 Y75.213 E52.56264
