; generated by Slic3r 0.9.9 on 2013-04-22 at 13:26:21

; layer_height = 0.36
; perimeters = 2
; top_solid_layers = 3
; bottom_solid_layers = 3
; fill_density = 0.6
; perimeter_speed = 60
; infill_speed = 70
; travel_speed = 100
; nozzle_diameter = 0.5
; filament_diameter = 3
; extrusion_multiplier = 0.8
; perimeters extrusion width = 0.56mm
; infill extrusion width = 0.43mm
; solid infill extrusion width = 0.56mm
; top infill extrusion width = 0.56mm

G21 ; set units to millimeters
M107
M104 S220 ; set temperature
G28 ; home all axes
M92 X64.8592 ; calibrate X
M92 Y64.8592  ; calibrate Y
M92 Z2560   ; calibrate Z
M92 E569  ; calibrate E
M551 ; prime extruder 1
M109 S220 ; wait for temperature to be reached
G90 ; use absolute coordinates
G92 E0
M82 ; use absolute distances for extrusion
G1 F1800.000 E-1.00000
G92 E0
G1 Z0.360 F6000.000
G1 X76.480 Y70.590
G1 F1800.000 E1.00000
G1 X76.810 Y70.260 F1800.000 E1.01037
G1 X77.170 Y69.960 E1.02078
G1 X77.560 Y69.700 E1.03120
G1 X77.970 Y69.480 E1.04154
G1 X78.400 Y69.300 E1.05190
G1 X79.070 Y69.110 E1.06738
G1 X79.300 Y69.070 E1.07256
G1 X80.000 Y69.020 E1.08816
G1 X126.000 Y69.020 E2.11038
G1 X126.450 Y69.040 E2.12039
G1 X126.890 Y69.110 E2.13029
G1 X127.330 Y69.210 E2.14032
G1 X127.550 Y69.280 E2.14545
G1 X127.960 Y69.450 E2.15531
G1 X128.560 Y69.770 E2.17042
G1 X128.920 Y70.030 E2.18029
G1 X129.260 Y70.330 E2.19037
G1 X129.570 Y70.650 E2.20027
G1 X129.980 Y71.190 E2.21534
G1 X130.200 Y71.580 E2.22529
G1 X130.470 Y72.200 E2.24031
G1 X130.540 Y72.420 E2.24544
G1 X130.680 Y73.080 E2.26044
G1 X130.710 Y73.300 E2.26537
G1 X130.730 Y73.750 E2.27538
G1 X130.730 Y125.750 E3.43094
G1 X130.710 Y126.200 E3.44095
G1 X130.640 Y126.640 E3.45085
G1 X130.540 Y127.080 E3.46087
G1 X130.470 Y127.300 E3.46600
G1 X130.300 Y127.710 E3.47587
G1 X129.980 Y128.310 E3.49098
G1 X129.720 Y128.670 E3.50085
G1 X129.420 Y129.010 E3.51092
G1 X129.100 Y129.320 E3.52082
G1 X128.560 Y129.730 E3.53589
G1 X128.170 Y129.950 E3.54584
G1 X127.550 Y130.220 E3.56087
G1 X127.330 Y130.290 E3.56600
G1 X126.670 Y130.430 E3.58099
G1 X126.450 Y130.460 E3.58593
G1 X126.000 Y130.480 E3.59594
G1 X80.000 Y130.480 E4.61816
G1 X79.300 Y130.430 E4.63375
G1 X79.070 Y130.390 E4.63894
G1 X78.400 Y130.200 E4.65442
G1 X77.970 Y130.020 E4.66478
G1 X77.560 Y129.800 E4.67512
G1 X77.170 Y129.540 E4.68553
G1 X76.810 Y129.240 E4.69595
G1 X76.480 Y128.910 E4.70632
G1 X76.190 Y128.550 E4.71659
G1 X75.930 Y128.160 E4.72701
G1 X75.620 Y127.530 E4.74261
G1 X75.410 Y126.870 E4.75800
G1 X69.640 Y103.100 E5.30156
G1 X69.530 Y102.460 E5.31599
G1 X69.270 Y99.840 E5.37450
G1 X69.280 Y99.450 E5.38317
G1 X69.530 Y97.030 E5.43723
G1 X69.640 Y96.390 E5.45167
G1 X75.410 Y72.630 E5.99501
G1 X75.540 Y72.190 E6.00521
G1 X75.710 Y71.760 E6.01548
G1 X75.930 Y71.340 E6.02602
G1 X76.190 Y70.950 E6.03643
G1 X76.428 Y70.653 E6.04489
G1 X76.800 Y71.060 F6000.000
G1 X77.090 Y70.740 F1800.000 E6.05449
G1 X77.590 Y70.330 E6.06886
G1 X77.950 Y70.110 E6.07823
G1 X78.330 Y69.910 E6.08777
G1 X78.940 Y69.700 E6.10211
G1 X79.360 Y69.620 E6.11161
G1 X79.790 Y69.570 E6.12123
G1 X126.210 Y69.570 E7.15279
G1 X126.840 Y69.650 E7.16690
G1 X127.250 Y69.760 E7.17633
G1 X127.650 Y69.910 E7.18583
G1 X128.030 Y70.090 E7.19517
G1 X128.390 Y70.320 E7.20466
G1 X128.560 Y70.440 E7.20929
G1 X129.030 Y70.870 E7.22344
G1 X129.310 Y71.190 E7.23289
G1 X129.550 Y71.540 E7.24232
G1 X129.660 Y71.720 E7.24701
G1 X129.840 Y72.100 E7.25636
G1 X129.990 Y72.500 E7.26585
G1 X130.100 Y72.910 E7.27528
G1 X130.180 Y73.540 E7.28939
G1 X130.180 Y125.960 E8.45428
G1 X130.100 Y126.590 E8.46840
G1 X129.990 Y127.000 E8.47783
G1 X129.840 Y127.400 E8.48732
G1 X129.660 Y127.780 E8.49667
G1 X129.430 Y128.140 E8.50616
G1 X129.310 Y128.310 E8.51078
G1 X128.880 Y128.780 E8.52494
G1 X128.560 Y129.060 E8.53439
G1 X128.210 Y129.300 E8.54382
G1 X128.030 Y129.410 E8.54851
G1 X127.650 Y129.590 E8.55785
G1 X127.250 Y129.740 E8.56734
G1 X126.840 Y129.850 E8.57678
G1 X126.210 Y129.930 E8.59089
G1 X79.790 Y129.930 E9.62245
G1 X79.360 Y129.880 E9.63207
G1 X78.940 Y129.800 E9.64157
G1 X78.330 Y129.590 E9.65590
G1 X77.950 Y129.390 E9.66545
G1 X77.590 Y129.170 E9.67482
G1 X77.090 Y128.760 E9.68919
G1 X76.940 Y128.600 E9.69406
G1 X76.540 Y128.100 E9.70829
G1 X76.320 Y127.730 E9.71786
G1 X76.220 Y127.540 E9.72263
G1 X76.060 Y127.150 E9.73200
G1 X75.940 Y126.740 E9.74149
G1 X70.170 Y102.970 E10.28505
G1 X70.070 Y102.410 E10.29769
G1 X69.840 Y100.170 E10.34773
G1 X69.820 Y99.820 E10.35552
G1 X69.840 Y99.310 E10.36687
G1 X70.070 Y97.080 E10.41669
G1 X70.170 Y96.520 E10.42933
G1 X75.990 Y72.560 E10.97725
G1 X76.140 Y72.150 E10.98696
G1 X76.320 Y71.770 E10.99630
G1 X76.540 Y71.400 E11.00587
G1 X76.750 Y71.125 E11.01356
G1 X77.180 Y71.460 F6000.000
G1 X77.310 Y71.300 F1800.000 E11.01814
G1 X77.750 Y70.890 E11.03150
G1 X78.080 Y70.660 E11.04044
G1 X78.620 Y70.380 E11.05396
G1 X79.000 Y70.250 E11.06289
G1 X79.400 Y70.160 E11.07200
G1 X80.000 Y70.110 E11.08538
G1 X126.000 Y70.110 E12.10760
G1 X126.410 Y70.140 E12.11673
G1 X126.810 Y70.200 E12.12572
G1 X127.200 Y70.320 E12.13479
G1 X127.580 Y70.470 E12.14387
G1 X128.100 Y70.780 E12.15732
G1 X128.420 Y71.040 E12.16648
G1 X128.710 Y71.330 E12.17560
G1 X128.970 Y71.650 E12.18476
G1 X129.080 Y71.820 E12.18926
G1 X129.280 Y72.170 E12.19822
G1 X129.360 Y72.360 E12.20280
G1 X129.550 Y72.940 E12.21636
G1 X129.610 Y73.340 E12.22535
G1 X129.640 Y73.750 E12.23449
G1 X129.640 Y125.750 E13.39004
G1 X129.610 Y126.160 E13.39918
G1 X129.550 Y126.560 E13.40817
G1 X129.430 Y126.950 E13.41723
G1 X129.280 Y127.330 E13.42631
G1 X128.970 Y127.850 E13.43976
G1 X128.710 Y128.170 E13.44893
G1 X128.420 Y128.460 E13.45804
G1 X128.100 Y128.720 E13.46720
G1 X127.930 Y128.830 E13.47170
G1 X127.580 Y129.030 E13.48066
G1 X127.390 Y129.110 E13.48524
G1 X126.810 Y129.300 E13.49881
G1 X126.410 Y129.360 E13.50779
G1 X126.000 Y129.390 E13.51693
G1 X80.000 Y129.390 E14.53915
G1 X79.400 Y129.340 E14.55253
G1 X79.000 Y129.250 E14.56164
G1 X78.620 Y129.120 E14.57057
G1 X78.260 Y128.940 E14.57951
G1 X77.910 Y128.730 E14.58858
G1 X77.600 Y128.480 E14.59743
G1 X77.310 Y128.200 E14.60639
G1 X76.940 Y127.720 E14.61986
G1 X76.740 Y127.370 E14.62882
G1 X76.580 Y126.990 E14.63798
G1 X76.470 Y126.610 E14.64677
G1 X70.700 Y102.840 E15.19033
G1 X70.610 Y102.350 E15.20140
G1 X70.360 Y99.810 E15.25812
G1 X70.380 Y99.370 E15.26791
G1 X70.610 Y97.140 E15.31773
G1 X70.700 Y96.650 E15.32880
G1 X76.470 Y72.890 E15.87214
G1 X76.580 Y72.510 E15.88093
G1 X76.740 Y72.130 E15.89010
G1 X76.940 Y71.780 E15.89905
G1 X77.131 Y71.525 E15.90613
G1 X77.560 Y71.850 F6000.000
G1 X77.810 Y71.570 F1800.000 E15.91447
G1 X78.090 Y71.320 E15.92281
G1 X78.560 Y71.010 E15.93532
G1 X79.080 Y70.800 E15.94778
G1 X79.440 Y70.710 E15.95603
G1 X79.810 Y70.660 E15.96433
G1 X126.190 Y70.660 E16.99499
G1 X126.740 Y70.750 E17.00738
G1 X127.270 Y70.930 E17.01982
G1 X127.600 Y71.100 E17.02806
G1 X127.910 Y71.320 E17.03651
G1 X128.190 Y71.560 E17.04471
G1 X128.430 Y71.840 E17.05290
G1 X128.650 Y72.150 E17.06135
G1 X128.820 Y72.480 E17.06960
G1 X129.000 Y73.010 E17.08204
G1 X129.090 Y73.560 E17.09442
G1 X129.090 Y125.940 E18.25842
G1 X129.000 Y126.490 E18.27081
G1 X128.820 Y127.020 E18.28325
G1 X128.650 Y127.350 E18.29149
G1 X128.430 Y127.660 E18.29994
G1 X128.190 Y127.940 E18.30814
G1 X127.910 Y128.180 E18.31633
G1 X127.600 Y128.400 E18.32478
G1 X127.270 Y128.570 E18.33303
G1 X126.740 Y128.750 E18.34547
G1 X126.190 Y128.840 E18.35785
G1 X79.810 Y128.840 E19.38852
G1 X79.260 Y128.750 E19.40090
G1 X78.730 Y128.570 E19.41334
G1 X78.400 Y128.390 E19.42170
G1 X78.090 Y128.180 E19.43002
G1 X77.680 Y127.790 E19.44259
G1 X77.450 Y127.500 E19.45082
G1 X77.260 Y127.180 E19.45909
G1 X77.110 Y126.840 E19.46734
G1 X77.000 Y126.480 E19.47571
G1 X71.230 Y102.710 E20.01927
G1 X71.160 Y102.300 E20.02851
G1 X70.910 Y99.930 E20.08147
G1 X70.930 Y99.420 E20.09282
G1 X71.160 Y97.190 E20.14263
G1 X71.230 Y96.780 E20.15188
G1 X77.000 Y73.020 E20.69522
G1 X77.180 Y72.490 E20.70766
G1 X77.350 Y72.160 E20.71591
G1 X77.512 Y71.916 E20.72241
G1 X77.960 Y72.230 F6000.000
G1 X78.170 Y71.980 F1800.000 E20.72967
G1 X78.430 Y71.750 E20.73738
G1 X78.560 Y71.650 E20.74103
G1 X78.860 Y71.480 E20.74869
G1 X79.170 Y71.340 E20.75625
G1 X79.330 Y71.290 E20.75998
G1 X79.660 Y71.230 E20.76743
G1 X80.000 Y71.200 E20.77501
G1 X126.000 Y71.200 E21.79724
G1 X126.500 Y71.250 E21.80840
G1 X126.820 Y71.340 E21.81579
G1 X127.130 Y71.470 E21.82326
G1 X127.550 Y71.730 E21.83424
G1 X127.910 Y72.070 E21.84524
G1 X128.120 Y72.340 E21.85284
G1 X128.280 Y72.620 E21.86001
G1 X128.410 Y72.930 E21.86748
G1 X128.500 Y73.250 E21.87487
G1 X128.550 Y73.750 E21.88603
G1 X128.550 Y125.750 E23.04159
G1 X128.500 Y126.250 E23.05275
G1 X128.410 Y126.570 E23.06014
G1 X128.280 Y126.880 E23.06761
G1 X128.020 Y127.300 E23.07859
G1 X127.680 Y127.660 E23.08959
G1 X127.410 Y127.870 E23.09719
G1 X127.130 Y128.030 E23.10436
G1 X126.820 Y128.160 E23.11183
G1 X126.500 Y128.250 E23.11922
G1 X126.000 Y128.300 E23.13038
G1 X80.000 Y128.300 E24.15261
G1 X79.660 Y128.270 E24.16019
G1 X79.330 Y128.210 E24.16764
G1 X79.010 Y128.090 E24.17524
G1 X78.560 Y127.850 E24.18657
G1 X78.300 Y127.640 E24.19400
G1 X78.060 Y127.400 E24.20154
G1 X77.770 Y126.980 E24.21288
G1 X77.690 Y126.830 E24.21666
G1 X77.570 Y126.510 E24.22426
G1 X71.760 Y102.580 E24.77148
G1 X71.700 Y102.240 E24.77916
G1 X71.460 Y99.900 E24.83143
G1 X71.470 Y99.480 E24.84076
G1 X71.700 Y97.250 E24.89058
G1 X71.760 Y96.910 E24.89825
G1 X77.530 Y73.150 E25.44160
G1 X77.570 Y72.990 E25.44527
G1 X77.690 Y72.670 E25.45286
G1 X77.912 Y72.297 E25.46252
G1 F1800.000 E24.46252
G92 E0
G1 X82.255 Y92.072 F6000.000
G1 F1800.000 E1.00000
G1 X83.906 Y91.722 F1800.000 E1.03750
G1 X85.594 Y91.722 E1.07501
G1 X87.245 Y92.072 E1.11251
G1 X88.786 Y92.759 E1.15001
G1 X90.152 Y93.751 E1.18752
G1 X91.281 Y95.005 E1.22502
G1 X92.125 Y96.467 E1.26252
G1 X92.438 Y97.432 E1.28508
G1 X109.215 Y97.432 E1.65789
G1 X111.563 Y93.365 E1.76226
G1 X118.937 Y93.365 E1.92611
G1 X122.623 Y99.750 E2.08996
G1 X118.937 Y106.135 E2.25381
G1 X111.563 Y106.135 E2.41766
G1 X109.215 Y102.068 E2.52203
G1 X92.438 Y102.068 E2.89485
G1 X92.125 Y103.033 E2.91740
G1 X91.281 Y104.495 E2.95491
G1 X90.152 Y105.749 E2.99241
G1 X88.786 Y106.741 E3.02991
G1 X87.245 Y107.428 E3.06741
G1 X85.594 Y107.778 E3.10492
G1 X83.906 Y107.778 E3.14242
G1 X82.255 Y107.428 E3.17992
G1 X80.714 Y106.741 E3.21743
G1 X79.348 Y105.749 E3.25493
G1 X78.219 Y104.495 E3.29243
G1 X77.375 Y103.033 E3.32994
G1 X76.854 Y101.428 E3.36744
G1 X76.677 Y99.750 E3.40494
G1 X76.854 Y98.072 E3.44245
G1 X77.375 Y96.467 E3.47995
G1 X78.219 Y95.005 E3.51745
G1 X79.348 Y93.751 E3.55496
G1 X80.714 Y92.759 E3.59246
G1 X82.181 Y92.106 E3.62814
G1 X82.425 Y92.594 F6000.000
G1 X83.964 Y92.267 F900.000 E3.66310
G1 X85.536 Y92.267 E3.69805
G1 X87.075 Y92.594 E3.73301
G1 X88.512 Y93.234 E3.76796
G1 X89.785 Y94.158 E3.80292
G1 X90.837 Y95.327 E3.83788
G1 X91.624 Y96.690 E3.87283
G1 X92.042 Y97.977 E3.90292
G1 X109.530 Y97.977 E4.29154
G1 X111.878 Y93.910 E4.39591
G1 X118.622 Y93.910 E4.54576
G1 X121.993 Y99.750 E4.69562
G1 X118.622 Y105.590 E4.84547
G1 X111.878 Y105.590 E4.99533
G1 X109.530 Y101.523 E5.09969
G1 X92.042 Y101.523 E5.48831
G1 X91.624 Y102.810 E5.51840
G1 X90.837 Y104.173 E5.55336
G1 X89.785 Y105.342 E5.58831
G1 X88.512 Y106.266 E5.62327
G1 X87.075 Y106.906 E5.65822
G1 X85.536 Y107.233 E5.69318
G1 X83.964 Y107.233 E5.72813
G1 X82.425 Y106.906 E5.76309
G1 X80.988 Y106.266 E5.79804
G1 X79.715 Y105.342 E5.83300
G1 X78.663 Y104.173 E5.86795
G1 X77.876 Y102.810 E5.90291
G1 X77.390 Y101.314 E5.93786
G1 X77.226 Y99.750 E5.97282
G1 X77.390 Y98.186 E6.00777
G1 X77.876 Y96.690 E6.04273
G1 X78.663 Y95.327 E6.07769
G1 X79.715 Y94.158 E6.11264
G1 X80.988 Y93.234 E6.14760
G1 X82.350 Y92.627 E6.18073
G1 X82.557 Y92.065 F6000.000
G1 F1800.000 E5.18073
G92 E0
G1 X93.498 Y121.204 F6000.000
G1 F1800.000 E1.00000
G1 X94.000 Y121.124 F900.000 E1.01131
G1 X94.502 Y121.204 E1.02261
G1 X94.956 Y121.434 E1.03392
G1 X95.316 Y121.794 E1.04522
G1 X95.547 Y122.247 E1.05653
G1 X95.626 Y122.750 E1.06783
G1 X95.547 Y123.253 E1.07914
G1 X95.316 Y123.706 E1.09045
G1 X94.956 Y124.066 E1.10175
G1 X94.502 Y124.296 E1.11306
G1 X94.000 Y124.376 E1.12436
G1 X93.498 Y124.296 E1.13567
G1 X93.044 Y124.066 E1.14697
G1 X92.684 Y123.706 E1.15828
G1 X92.453 Y123.253 E1.16959
G1 X92.374 Y122.750 E1.18089
G1 X92.453 Y122.247 E1.19220
G1 X92.684 Y121.794 E1.20350
G1 X93.044 Y121.434 E1.21481
G1 X93.425 Y121.241 E1.22430
G1 X93.629 Y120.712 F6000.000
G1 F1800.000 E0.22430
G92 E0
G1 X125.182 Y74.568 F6000.000
G1 F1800.000 E1.00000
G1 X125.182 Y124.932 F1800.000 E2.11919
G1 X94.861 Y124.932 E2.79299
G1 X95.762 Y124.030 E2.82132
G1 X96.072 Y123.423 E2.83647
G1 X96.178 Y122.750 E2.85161
G1 X96.072 Y122.077 E2.86676
G1 X95.762 Y121.470 E2.88190
G1 X95.280 Y120.988 E2.89705
G1 X94.673 Y120.678 E2.91220
G1 X94.000 Y120.572 E2.92734
G1 X93.327 Y120.678 E2.94248
G1 X92.720 Y120.988 E2.95763
G1 X92.238 Y121.470 E2.97277
G1 X91.928 Y122.077 E2.98792
G1 X91.822 Y122.750 E3.00307
G1 X91.928 Y123.423 E3.01821
G1 X92.238 Y124.030 E3.03336
G1 X93.139 Y124.932 E3.06169
G1 X80.818 Y124.932 E3.33548
G1 X80.818 Y108.807 E3.69382
G1 X79.786 Y108.347 E3.71892
G1 X78.107 Y107.127 E3.76504
G1 X76.719 Y105.585 E3.81116
G1 X75.681 Y103.788 E3.85728
G1 X75.040 Y101.814 E3.90340
G1 X74.823 Y99.750 E3.94952
G1 X75.040 Y97.686 E3.99564
G1 X75.681 Y95.712 E4.04176
G1 X76.719 Y93.915 E4.08788
G1 X78.107 Y92.373 E4.13400
G1 X79.786 Y91.153 E4.18012
G1 X80.818 Y90.693 E4.20522
G1 X80.818 Y74.568 E4.56355
G1 X125.100 Y74.568 E5.54760
G1 X125.727 Y74.023 F6000.000
G1 X125.727 Y125.477 F900.000 E6.69103
G1 X80.273 Y125.477 E7.70113
G1 X80.273 Y109.161 E8.06372
G1 X79.512 Y108.822 E8.08222
G1 X77.740 Y107.535 E8.13089
G1 X76.275 Y105.908 E8.17955
G1 X75.180 Y104.011 E8.22822
G1 X74.503 Y101.928 E8.27689
G1 X74.274 Y99.750 E8.32556
G1 X74.503 Y97.572 E8.37422
G1 X75.180 Y95.489 E8.42289
G1 X76.275 Y93.592 E8.47156
G1 X77.740 Y91.965 E8.52023
G1 X79.512 Y90.678 E8.56889
G1 X80.273 Y90.339 E8.58740
G1 X80.273 Y74.023 E8.94998
G1 X125.645 Y74.023 E9.95827
G1 X125.455 Y74.495 F6000.000
G1 X124.786 Y74.963
G1 X124.787 Y75.740 F2100.000 E9.97563
G1 X124.010 Y74.963 E10.00018
G1 X123.234 Y74.963 E10.01754
G1 X124.787 Y76.516 E10.06664
G1 X124.787 Y77.292 E10.08400
G1 X122.458 Y74.963 E10.15765
G1 X121.682 Y74.963 E10.17501
G1 X124.787 Y78.068 E10.27320
G1 X124.787 Y78.845 E10.29056
G1 X120.905 Y74.963 E10.41331
G1 X120.129 Y74.963 E10.43067
G1 X124.787 Y79.621 E10.57796
G1 X124.787 Y80.397 E10.59532
G1 X119.353 Y74.963 E10.76717
G1 X118.577 Y74.963 E10.78452
G1 X124.787 Y81.173 E10.98092
G1 X124.787 Y81.950 E10.99828
G1 X117.800 Y74.963 E11.21922
G1 X117.024 Y74.963 E11.23658
G1 X124.787 Y82.726 E11.48207
G1 X124.787 Y83.502 E11.49942
G1 X116.248 Y74.963 E11.76946
G1 X115.472 Y74.963 E11.78682
G1 X124.787 Y84.278 E12.08141
G1 X124.787 Y85.054 E12.09877
G1 X114.696 Y74.963 E12.41790
G1 X113.919 Y74.963 E12.43526
G1 X124.787 Y85.831 E12.77894
G1 X124.787 Y86.607 E12.79630
G1 X113.143 Y74.963 E13.16453
G1 X112.367 Y74.963 E13.18189
G1 X124.787 Y87.383 E13.57467
G1 X124.787 Y88.159 E13.59203
G1 X111.591 Y74.963 E14.00936
G1 X110.815 Y74.963 E14.02672
G1 X124.787 Y88.935 E14.46860
G1 X124.787 Y89.712 E14.48595
G1 X110.038 Y74.963 E14.95238
G1 X109.262 Y74.963 E14.96974
G1 X124.787 Y90.488 E15.46071
G1 X124.787 Y91.264 E15.47807
G1 X108.486 Y74.963 E15.99360
G1 X107.710 Y74.963 E16.01095
G1 X124.787 Y92.040 E16.55103
G1 X124.787 Y92.817 E16.56839
G1 X106.933 Y74.963 E17.13301
G1 X106.157 Y74.963 E17.15036
G1 X124.787 Y93.593 E17.73953
G1 X124.787 Y94.369 E17.75689
G1 X105.381 Y74.963 E18.37061
G1 X104.605 Y74.963 E18.38797
G1 X124.787 Y95.145 E19.02623
G1 X124.787 Y95.921 E19.04359
G1 X103.829 Y74.963 E19.70641
G1 X103.052 Y74.963 E19.72377
G1 X124.787 Y96.698 E20.41113
G1 X124.787 Y97.474 E20.42849
G1 X102.276 Y74.963 E21.14040
G1 X101.500 Y74.963 E21.15776
G1 X124.787 Y98.250 E21.89422
G1 X119.760 Y93.999 F6000.000
G1 X124.787 Y99.026 F2100.000 E22.05320
