; generated by Slic3r 0.9.9 on 2013-04-19 at 10:12:32

; layer_height = 0.36
; perimeters = 2
; top_solid_layers = 3
; bottom_solid_layers = 3
; fill_density = 0.6
; perimeter_speed = 60
; infill_speed = 70
; travel_speed = 100
; nozzle_diameter = 0.5
; filament_diameter = 3
; extrusion_multiplier = 0.8
; perimeters extrusion width = 0.56mm
; infill extrusion width = 0.43mm
; solid infill extrusion width = 0.56mm
; top infill extrusion width = 0.56mm

G21 ; set units to millimeters
M107
M104 S220 ; set temperature
G28 ; home all axes
M92 X64.8592 ; calibrate X
M92 Y64.8592  ; calibrate Y
M92 Z2560   ; calibrate Z
M92 E569  ; calibrate E
M551 ; prime extruder 1
M109 S220 ; wait for temperature to be reached
G90 ; use absolute coordinates
G92 E0
M82 ; use absolute distances for extrusion
G1 F1800.000 E-1.00000
G92 E0
G1 Z0.360 F6000.000
G1 X85.220 Y90.575
G1 F1800.000 E1.00000
G1 X85.690 Y90.215 F1800.000 E1.01316
G1 X85.930 Y90.055 E1.01957
G1 X86.190 Y89.915 E1.02613
G1 X89.460 Y88.245 E1.10772
G1 X90.010 Y88.005 E1.12106
G1 X90.290 Y87.915 E1.12759
G1 X90.880 Y87.785 E1.14102
G1 X94.520 Y87.215 E1.22289
G1 X94.810 Y87.175 E1.22940
G1 X95.100 Y87.165 E1.23585
G1 X95.690 Y87.175 E1.24896
G1 X99.610 Y87.785 E1.33712
G1 X100.200 Y87.915 E1.35055
G1 X100.480 Y88.005 E1.35708
G1 X101.030 Y88.245 E1.37042
G1 X123.860 Y99.905 E1.94009
G1 X124.270 Y100.145 E1.95065
G1 X124.830 Y100.565 E1.96620
G1 X125.010 Y100.725 E1.97155
G1 X125.480 Y101.255 E1.98729
G1 X125.740 Y101.645 E1.99771
G1 X125.970 Y102.065 E2.00835
G1 X126.230 Y102.715 E2.02391
G1 X126.340 Y103.175 E2.03442
G1 X126.410 Y103.645 E2.04498
G1 X126.440 Y104.115 E2.05544
G1 X126.440 Y108.115 E2.14433
G1 X126.420 Y108.565 E2.15434
G1 X126.350 Y109.005 E2.16424
G1 X126.250 Y109.445 E2.17427
G1 X126.100 Y109.875 E2.18439
G1 X125.910 Y110.285 E2.19443
G1 X125.690 Y110.675 E2.20438
G1 X125.280 Y111.215 E2.21945
G1 X124.810 Y111.685 E2.23422
G1 X124.270 Y112.095 E2.24929
G1 X123.670 Y112.415 E2.26440
G1 X123.470 Y112.505 E2.26927
G1 X123.040 Y112.655 E2.27939
G1 X122.380 Y112.795 E2.29439
G1 X122.160 Y112.825 E2.29932
G1 X121.710 Y112.845 E2.30933
G1 X78.280 Y112.845 E3.27444
G1 X77.830 Y112.825 E3.28445
G1 X77.610 Y112.795 E3.28939
G1 X76.950 Y112.655 E3.30438
G1 X76.520 Y112.505 E3.31450
G1 X76.110 Y112.315 E3.32454
G1 X75.720 Y112.095 E3.33449
G1 X75.360 Y111.835 E3.34436
G1 X75.020 Y111.535 E3.35444
G1 X74.560 Y111.035 E3.36953
G1 X74.300 Y110.675 E3.37940
G1 X73.980 Y110.075 E3.39451
G1 X73.890 Y109.875 E3.39939
G1 X73.740 Y109.445 E3.40951
G1 X73.640 Y109.005 E3.41953
G1 X73.570 Y108.565 E3.42944
G1 X73.550 Y108.115 E3.43945
G1 X73.550 Y104.115 E3.52833
G1 X73.600 Y103.415 E3.54393
G1 X73.640 Y103.185 E3.54912
G1 X73.760 Y102.735 E3.55947
G1 X73.920 Y102.295 E3.56987
G1 X74.010 Y102.085 E3.57495
G1 X74.230 Y101.675 E3.58529
G1 X74.490 Y101.285 E3.59570
G1 X74.790 Y100.925 E3.60612
G1 X85.161 Y90.631 E3.93083
G1 X85.580 Y90.985 F6000.000
G1 X85.780 Y90.815 F1800.000 E3.93666
G1 X86.210 Y90.525 E3.94819
G1 X89.950 Y88.615 E4.04151
G1 X90.450 Y88.435 E4.05332
G1 X90.960 Y88.325 E4.06491
G1 X94.600 Y87.755 E4.14679
G1 X95.120 Y87.705 E4.15840
G1 X95.380 Y87.705 E4.16417
G1 X95.900 Y87.755 E4.17578
G1 X99.530 Y88.325 E4.25744
G1 X100.040 Y88.435 E4.26903
G1 X100.540 Y88.615 E4.28084
G1 X123.610 Y100.395 E4.85647
G1 X123.990 Y100.605 E4.86612
G1 X124.510 Y101.005 E4.88070
G1 X124.820 Y101.315 E4.89044
G1 X124.960 Y101.485 E4.89534
G1 X125.220 Y101.835 E4.90503
G1 X125.440 Y102.215 E4.91478
G1 X125.690 Y102.825 E4.92943
G1 X125.800 Y103.245 E4.93908
G1 X125.870 Y103.675 E4.94876
G1 X125.890 Y103.895 E4.95367
G1 X125.890 Y108.325 E5.05212
G1 X125.810 Y108.955 E5.06623
G1 X125.760 Y109.165 E5.07103
G1 X125.630 Y109.565 E5.08037
G1 X125.370 Y110.145 E5.09450
G1 X125.020 Y110.675 E5.10861
G1 X124.740 Y110.995 E5.11806
G1 X124.270 Y111.425 E5.13222
G1 X123.920 Y111.665 E5.14165
G1 X123.740 Y111.775 E5.14634
G1 X123.360 Y111.955 E5.15568
G1 X122.960 Y112.105 E5.16517
G1 X122.550 Y112.215 E5.17461
G1 X121.920 Y112.295 E5.18872
G1 X78.070 Y112.295 E6.16316
G1 X77.440 Y112.215 E6.17728
G1 X77.230 Y112.165 E6.18207
G1 X76.830 Y112.035 E6.19142
G1 X76.250 Y111.775 E6.20554
G1 X75.720 Y111.425 E6.21966
G1 X75.400 Y111.145 E6.22911
G1 X74.970 Y110.675 E6.24326
G1 X74.620 Y110.145 E6.25738
G1 X74.440 Y109.765 E6.26672
G1 X74.290 Y109.365 E6.27621
G1 X74.180 Y108.955 E6.28565
G1 X74.100 Y108.325 E6.29976
G1 X74.100 Y103.895 E6.39821
G1 X74.150 Y103.455 E6.40805
G1 X74.240 Y103.025 E6.41781
G1 X74.300 Y102.815 E6.42266
G1 X74.460 Y102.405 E6.43244
G1 X74.660 Y102.015 E6.44218
G1 X74.900 Y101.645 E6.45198
G1 X75.330 Y101.145 E6.46664
G1 X85.519 Y91.040 E6.78554
G1 X85.940 Y91.395 F6000.000
G1 X86.300 Y91.115 F1800.000 E6.79567
G1 X86.690 Y90.885 E6.80573
G1 X90.160 Y89.115 E6.89230
G1 X90.600 Y88.965 E6.90263
G1 X91.050 Y88.865 E6.91287
G1 X94.690 Y88.295 E6.99475
G1 X94.910 Y88.265 E6.99968
G1 X95.360 Y88.255 E7.00968
G1 X95.810 Y88.295 E7.01972
G1 X99.440 Y88.865 E7.10138
G1 X99.890 Y88.965 E7.11162
G1 X100.330 Y89.115 E7.12195
G1 X123.360 Y100.875 E7.69659
G1 X123.730 Y101.085 E7.70605
G1 X124.060 Y101.345 E7.71538
G1 X124.510 Y101.785 E7.72937
G1 X124.760 Y102.125 E7.73875
G1 X124.860 Y102.305 E7.74332
G1 X125.050 Y102.685 E7.75276
G1 X125.200 Y103.075 E7.76205
G1 X125.320 Y103.695 E7.77608
G1 X125.350 Y104.115 E7.78544
G1 X125.340 Y108.315 E7.87877
G1 X125.260 Y108.925 E7.89244
G1 X125.140 Y109.315 E7.90151
G1 X124.990 Y109.695 E7.91059
G1 X124.680 Y110.215 E7.92404
G1 X124.420 Y110.535 E7.93321
G1 X123.980 Y110.955 E7.94672
G1 X123.640 Y111.195 E7.95597
G1 X123.290 Y111.395 E7.96493
G1 X123.100 Y111.475 E7.96951
G1 X122.520 Y111.665 E7.98307
G1 X122.120 Y111.725 E7.99206
G1 X121.710 Y111.755 E8.00120
G1 X78.280 Y111.755 E8.96631
G1 X77.870 Y111.725 E8.97544
G1 X77.470 Y111.665 E8.98443
G1 X77.080 Y111.545 E8.99350
G1 X76.700 Y111.395 E9.00258
G1 X76.350 Y111.195 E9.01154
G1 X76.010 Y110.955 E9.02079
G1 X75.710 Y110.685 E9.02975
G1 X75.440 Y110.385 E9.03872
G1 X75.200 Y110.045 E9.04797
G1 X75.000 Y109.695 E9.05693
G1 X74.850 Y109.315 E9.06601
G1 X74.730 Y108.925 E9.07508
G1 X74.670 Y108.525 E9.08406
G1 X74.640 Y108.115 E9.09320
G1 X74.640 Y104.115 E9.18209
G1 X74.700 Y103.505 E9.19571
G1 X74.790 Y103.105 E9.20482
G1 X74.920 Y102.715 E9.21396
G1 X75.100 Y102.345 E9.22310
G1 X75.320 Y102.005 E9.23210
G1 X75.440 Y101.835 E9.23672
G1 X75.720 Y101.535 E9.24584
G1 X85.880 Y91.451 E9.56395
G1 X86.300 Y91.805 F6000.000
G1 X86.600 Y91.565 F1800.000 E9.57249
G1 X86.930 Y91.375 E9.58095
G1 X90.380 Y89.615 E9.66702
G1 X90.940 Y89.435 E9.68009
G1 X94.960 Y88.805 E9.77052
G1 X95.350 Y88.795 E9.77918
G1 X95.540 Y88.805 E9.78341
G1 X99.550 Y89.435 E9.87362
G1 X100.110 Y89.615 E9.88669
G1 X123.120 Y101.365 E10.46083
G1 X123.440 Y101.555 E10.46910
G1 X123.740 Y101.785 E10.47750
G1 X124.010 Y102.045 E10.48583
G1 X124.130 Y102.195 E10.49010
G1 X124.350 Y102.505 E10.49855
G1 X124.440 Y102.665 E10.50263
G1 X124.600 Y103.005 E10.51098
G1 X124.660 Y103.185 E10.51519
G1 X124.750 Y103.555 E10.52366
G1 X124.800 Y103.925 E10.53195
G1 X124.800 Y108.305 E10.62929
G1 X124.710 Y108.855 E10.64167
G1 X124.530 Y109.385 E10.65411
G1 X124.360 Y109.715 E10.66236
G1 X124.140 Y110.025 E10.67081
G1 X123.900 Y110.305 E10.67900
G1 X123.470 Y110.655 E10.69132
G1 X123.150 Y110.855 E10.69971
G1 X122.810 Y111.005 E10.70797
G1 X122.270 Y111.155 E10.72042
G1 X121.900 Y111.205 E10.72872
G1 X78.090 Y111.205 E11.70227
G1 X77.720 Y111.155 E11.71057
G1 X77.360 Y111.065 E11.71882
G1 X76.840 Y110.855 E11.73128
G1 X76.680 Y110.765 E11.73536
G1 X76.370 Y110.545 E11.74381
G1 X76.090 Y110.305 E11.75200
G1 X75.850 Y110.025 E11.76020
G1 X75.630 Y109.715 E11.76864
G1 X75.460 Y109.385 E11.77689
G1 X75.330 Y109.035 E11.78519
G1 X75.240 Y108.675 E11.79344
G1 X75.190 Y108.305 E11.80173
G1 X75.190 Y104.115 E11.89484
G1 X75.250 Y103.505 E11.90846
G1 X75.350 Y103.115 E11.91741
G1 X75.510 Y102.745 E11.92637
G1 X75.710 Y102.395 E11.93533
G1 X75.960 Y102.065 E11.94453
G1 X86.240 Y91.861 E12.26641
G1 X86.660 Y92.215 F6000.000
G1 X86.910 Y92.015 F1800.000 E12.27353
G1 X87.180 Y91.855 E12.28050
G1 X90.450 Y90.185 E12.36209
G1 X90.750 Y90.055 E12.36936
G1 X91.220 Y89.945 E12.38009
G1 X94.860 Y89.375 E12.46196
G1 X95.330 Y89.345 E12.47243
G1 X95.640 Y89.375 E12.47935
G1 X99.270 Y89.945 E12.56100
G1 X99.590 Y90.015 E12.56828
G1 X99.890 Y90.115 E12.57531
G1 X122.870 Y101.845 E13.14866
G1 X123.170 Y102.025 E13.15643
G1 X123.310 Y102.135 E13.16039
G1 X123.440 Y102.245 E13.16417
G1 X123.680 Y102.505 E13.17204
G1 X123.970 Y102.935 E13.18356
G1 X124.110 Y103.255 E13.19132
G1 X124.160 Y103.425 E13.19526
G1 X124.250 Y103.945 E13.20699
G1 X124.260 Y108.115 E13.29966
G1 X124.210 Y108.615 E13.31082
G1 X124.120 Y108.935 E13.31821
G1 X123.990 Y109.245 E13.32568
G1 X123.830 Y109.525 E13.33285
G1 X123.620 Y109.795 E13.34045
G1 X123.390 Y110.025 E13.34768
G1 X123.120 Y110.235 E13.35528
G1 X122.840 Y110.395 E13.36244
G1 X122.370 Y110.575 E13.37363
G1 X122.210 Y110.615 E13.37729
G1 X121.710 Y110.665 E13.38846
G1 X78.280 Y110.665 E14.35357
G1 X77.780 Y110.615 E14.36474
G1 X77.460 Y110.525 E14.37212
G1 X77.150 Y110.395 E14.37959
G1 X76.730 Y110.135 E14.39057
G1 X76.480 Y109.915 E14.39797
G1 X76.260 Y109.665 E14.40537
G1 X76.000 Y109.245 E14.41635
G1 X75.870 Y108.935 E14.42382
G1 X75.780 Y108.615 E14.43121
G1 X75.730 Y108.115 E14.44237
G1 X75.730 Y104.115 E14.53126
G1 X75.790 Y103.575 E14.54333
G1 X75.900 Y103.225 E14.55149
G1 X76.050 Y102.895 E14.55954
G1 X76.250 Y102.585 E14.56774
G1 X76.490 Y102.305 E14.57594
G1 X86.599 Y92.270 E14.89248
G1 F1800.000 E13.89248
G92 E0
G1 X120.899 Y104.933 F6000.000
G1 F1800.000 E1.00000
G1 X120.899 Y107.297 F1800.000 E1.05253
G1 X103.818 Y107.297 E1.43210
G1 X103.818 Y103.571 E1.51491
G1 X103.409 Y100.984 E1.57310
G1 X102.190 Y98.593 E1.63274
G1 X100.292 Y96.695 E1.69239
G1 X97.901 Y95.476 E1.75203
G1 X95.250 Y95.057 E1.81167
G1 X92.599 Y95.476 E1.87132
G1 X90.208 Y96.695 E1.93095
G1 X88.310 Y98.593 E1.99061
G1 X87.091 Y100.984 E2.05024
G1 X86.682 Y103.571 E2.10844
G1 X86.682 Y107.297 E2.19124
G1 X79.101 Y107.297 E2.35971
G1 X79.101 Y104.933 E2.41224
G1 X84.318 Y104.933 E2.52817
G1 X84.318 Y103.699 E2.55559
G1 X84.863 Y100.260 E2.63297
G1 X86.414 Y97.216 E2.70890
G1 X88.831 Y94.799 E2.78485
G1 X91.875 Y93.248 E2.86077
G1 X95.250 Y92.713 E2.93671
G1 X98.625 Y93.248 E3.01264
G1 X101.669 Y94.799 E3.08857
G1 X104.086 Y97.216 E3.16452
G1 X105.637 Y100.260 E3.24044
G1 X106.182 Y103.699 E3.31783
G1 X106.182 Y104.933 E3.34524
G1 X120.817 Y104.933 E3.67047
G1 X121.444 Y104.388 F6000.000
G1 X121.444 Y107.842 F900.000 E3.74724
G1 X103.273 Y107.842 E4.15106
G1 X103.273 Y103.614 E4.24503
G1 X102.884 Y101.155 E4.30035
G1 X101.743 Y98.918 E4.35615
G1 X99.967 Y97.142 E4.41196
G1 X97.730 Y96.001 E4.46776
G1 X95.250 Y95.609 E4.52356
G1 X92.770 Y96.001 E4.57937
G1 X90.533 Y97.142 E4.63516
G1 X88.757 Y98.918 E4.69098
G1 X87.616 Y101.155 E4.74678
G1 X87.227 Y103.614 E4.80210
G1 X87.227 Y107.842 E4.89607
G1 X78.556 Y107.842 E5.08877
G1 X78.556 Y104.388 E5.16554
G1 X83.773 Y104.388 E5.28148
G1 X83.773 Y103.656 E5.29773
G1 X84.338 Y100.089 E5.37799
G1 X85.967 Y96.891 E5.45775
G1 X88.506 Y94.352 E5.53754
G1 X91.704 Y92.723 E5.61730
G1 X95.250 Y92.161 E5.69708
G1 X98.796 Y92.723 E5.77685
G1 X101.994 Y94.352 E5.85662
G1 X104.533 Y96.891 E5.93641
G1 X106.162 Y100.089 E6.01617
G1 X106.727 Y103.656 E6.09643
G1 X106.727 Y104.388 E6.11268
G1 X121.363 Y104.388 E6.43791
G1 X121.172 Y104.860 F6000.000
G1 X120.504 Y105.328
G1 X120.504 Y106.103 F2100.000 E6.45518
G1 X119.729 Y105.328 E6.47960
G1 X118.955 Y105.328 E6.49687
G1 X120.504 Y106.877 E6.54572
G1 X119.754 Y106.902 E6.56245
G1 X118.181 Y105.328 E6.61207
G1 X117.407 Y105.328 E6.62934
G1 X118.980 Y106.902 E6.67896
G1 X118.206 Y106.902 E6.69623
G1 X116.633 Y105.328 E6.74585
G1 X115.858 Y105.328 E6.76311
G1 X117.432 Y106.902 E6.81274
G1 X116.657 Y106.902 E6.83000
G1 X115.084 Y105.328 E6.87963
G1 X114.310 Y105.328 E6.89689
G1 X115.883 Y106.902 E6.94652
G1 X115.109 Y106.902 E6.96378
G1 X113.536 Y105.328 E7.01341
G1 X112.762 Y105.328 E7.03067
G1 X114.335 Y106.902 E7.08029
G1 X113.561 Y106.902 E7.09756
G1 X111.987 Y105.328 E7.14718
G1 X111.213 Y105.328 E7.16445
G1 X112.786 Y106.902 E7.21407
G1 X112.012 Y106.902 E7.23134
G1 X110.439 Y105.328 E7.28096
G1 X109.665 Y105.328 E7.29823
G1 X111.238 Y106.902 E7.34785
G1 X110.464 Y106.902 E7.36512
G1 X108.891 Y105.328 E7.41474
G1 X108.117 Y105.328 E7.43201
G1 X109.690 Y106.902 E7.48163
G1 X108.916 Y106.902 E7.49890
G1 X107.342 Y105.328 E7.54852
G1 X106.568 Y105.328 E7.56579
G1 X108.141 Y106.902 E7.61541
G1 X107.367 Y106.902 E7.63268
G1 X105.794 Y105.328 E7.68230
G1 X104.213 Y106.845 F6000.000
G1 X104.270 Y106.902 F2100.000 E7.68410
G1 X105.045 Y106.902 E7.70137
G1 X104.213 Y106.070 E7.72758
G1 X104.213 Y105.296 E7.74485
G1 X105.819 Y106.902 E7.79549
G1 X106.593 Y106.902 E7.81276
G1 X104.213 Y104.522 E7.88782
G1 X104.213 Y103.748 E7.90508
G1 X105.787 Y105.321 E7.95470
G1 X105.787 Y104.547 E7.97197
G1 X104.107 Y102.867 E8.02495
G1 X103.961 Y101.948 E8.04572
G1 X105.787 Y103.773 E8.10329
G1 X105.649 Y102.861 E8.12386
G1 X103.816 Y101.028 E8.18167
G1 X103.131 Y99.569 E8.21762
G1 X105.503 Y101.941 E8.29244
G1 X105.357 Y101.021 E8.31322
G1 X97.864 Y93.527 E8.54958
G1 X96.944 Y93.382 F6000.000
G1 X99.316 Y95.754 F2100.000 E8.62441
G1 X97.857 Y95.069 F6000.000
G1 X96.024 Y93.236 F2100.000 E8.68222
G1 X95.144 Y93.130 E8.70199
G1 X96.937 Y94.924 E8.75855
G1 X96.018 Y94.778 E8.77932
G1 X94.476 Y93.236 E8.82796
G1 X93.808 Y93.342 E8.84305
G1 X95.140 Y94.674 E8.88507
G1 X94.471 Y94.780 E8.90016
G1 X93.139 Y93.448 E8.94217
G1 X92.471 Y93.554 E8.95726
G1 X93.803 Y94.885 E8.99928
G1 X93.134 Y94.991 E9.01437
G1 X91.848 Y93.705 E9.05494
G1 X91.335 Y93.966 E9.06778
G1 X92.468 Y95.099 E9.10351
G1 X91.955 Y95.361 E9.11635
G1 X90.822 Y94.228 E9.15208
G1 X90.310 Y94.489 E9.16492
G1 X91.442 Y95.622 E9.20065
G1 X90.930 Y95.883 E9.21349
G1 X89.797 Y94.751 E9.24922
G1 X89.284 Y95.012 E9.26206
G1 X90.417 Y96.145 E9.29779
G1 X89.921 Y96.423 E9.31048
G1 X88.844 Y95.346 E9.34446
G1 X88.456 Y95.733 E9.35667
G1 X89.534 Y96.810 E9.39066
G1 X89.147 Y97.197 E9.40287
G1 X88.069 Y96.120 E9.43685
G1 X87.682 Y96.507 E9.44906
G1 X88.760 Y97.584 E9.48304
G1 X88.373 Y97.971 E9.49525
G1 X87.295 Y96.894 E9.52924
G1 X86.908 Y97.281 E9.54145
G1 X87.986 Y98.359 E9.57544
G1 X87.724 Y98.871 E9.58828
G1 X86.591 Y97.739 E9.62401
G1 X86.330 Y98.251 E9.63685
G1 X87.463 Y99.384 E9.67258
G1 X87.202 Y99.897 E9.68542
G1 X86.069 Y98.764 E9.72116
G1 X85.807 Y99.277 E9.73399
G1 X86.940 Y100.410 E9.76973
G1 X86.698 Y100.942 E9.78276
G1 X85.546 Y99.790 E9.81909
G1 X85.285 Y100.303 E9.83193
G1 X86.592 Y101.610 E9.87316
G1 X86.486 Y102.278 E9.88825
G1 X85.154 Y100.947 E9.93027
G1 X85.048 Y101.615 E9.94536
G1 X86.380 Y102.947 E9.98737
G1 X86.287 Y103.627 E10.00269
G1 X84.943 Y102.283 E10.04508
G1 X84.837 Y102.952 E10.06018
G1 X86.287 Y104.401 E10.10591
G1 X86.287 Y105.176 E10.12318
G1 X84.731 Y103.620 E10.17225
G1 X84.713 Y104.377 E10.18913
G1 X86.287 Y105.950 E10.23875
G1 X86.287 Y106.724 E10.25602
G1 X84.713 Y105.151 E10.30564
G1 X84.117 Y105.328 E10.31952
G1 X85.690 Y106.902 E10.36914
G1 X84.916 Y106.902 E10.38641
G1 X83.343 Y105.328 E10.43603
G1 X82.568 Y105.328 E10.45330
G1 X84.142 Y106.902 E10.50292
G1 X83.367 Y106.902 E10.52019
G1 X81.794 Y105.328 E10.56981
G1 X81.020 Y105.328 E10.58708
G1 X82.593 Y106.902 E10.63670
G1 X81.819 Y106.902 E10.65397
G1 X80.246 Y105.328 E10.70359
G1 X79.496 Y105.353 E10.72032
G1 X81.045 Y106.902 E10.76917
G1 X80.271 Y106.902 E10.78643
G1 X79.496 Y106.127 E10.81086
G1 X79.497 Y106.902 E10.82813
G1 F1800.000 E9.82813
G92 E0
G1 X104.205 Y98.320 F6000.000
G1 F1800.000 E1.00000
G1 X100.565 Y94.680 F2100.000 E1.11481
G1 X98.986 Y93.876 E1.15434
G1 X105.009 Y99.899 E1.34433
G1 F1800.000 E0.34433
G92 E0
G1 Z0.720 F6000.000
G1 X101.669 Y94.799
G1 F1800.000 E1.00000
G1 X104.086 Y97.216 F3600.000 E1.07595
G1 X105.637 Y100.260 E1.15188
G1 X106.182 Y103.699 E1.22926
G1 X106.182 Y104.933 E1.25668
