; generated by Slic3r 0.9.9 on 2013-04-19 at 10:11:59

; layer_height = 0.36
; perimeters = 2
; top_solid_layers = 3
; bottom_solid_layers = 3
; fill_density = 0.6
; perimeter_speed = 60
; infill_speed = 70
; travel_speed = 100
; nozzle_diameter = 0.5
; filament_diameter = 3
; extrusion_multiplier = 0.8
; perimeters extrusion width = 0.56mm
; infill extrusion width = 0.43mm
; solid infill extrusion width = 0.56mm
; top infill extrusion width = 0.56mm

G21 ; set units to millimeters
M107
M104 S220 ; set temperature
G28 ; home all axes
M92 X64.8592 ; calibrate X
M92 Y64.8592  ; calibrate Y
M92 Z2560   ; calibrate Z
M92 E569  ; calibrate E
M551 ; prime extruder 1
M109 S220 ; wait for temperature to be reached
G90 ; use absolute coordinates
G92 E0
M82 ; use absolute distances for extrusion
G1 F1800.000 E-1.00000
G92 E0
G1 Z0.360 F6000.000
G1 X75.180 Y84.690
G1 F1800.000 E1.00000
G1 X75.720 Y84.280 F1800.000 E1.01507
G1 X76.110 Y84.060 E1.02502
G1 X76.730 Y83.790 E1.04004
G1 X76.950 Y83.720 E1.04518
G1 X77.610 Y83.580 E1.06017
G1 X77.830 Y83.550 E1.06510
G1 X78.280 Y83.530 E1.07511
G1 X121.710 Y83.530 E2.04022
G1 X122.160 Y83.550 E2.05023
G1 X122.380 Y83.580 E2.05517
G1 X123.040 Y83.720 E2.07016
G1 X123.260 Y83.790 E2.07529
G1 X123.670 Y83.960 E2.08515
G1 X124.270 Y84.280 E2.10027
G1 X124.810 Y84.690 E2.11533
G1 X125.280 Y85.160 E2.13010
G1 X125.690 Y85.700 E2.14517
G1 X125.910 Y86.090 E2.15512
G1 X126.100 Y86.500 E2.16516
G1 X126.250 Y86.930 E2.17528
G1 X126.390 Y87.590 E2.19028
G1 X126.420 Y87.810 E2.19521
G1 X126.440 Y88.260 E2.20522
G1 X126.440 Y92.260 E2.29411
G1 X125.710 Y112.140 E2.73618
G1 X125.650 Y112.590 E2.74627
G1 X125.550 Y113.030 E2.75630
G1 X125.480 Y113.250 E2.76143
G1 X125.320 Y113.670 E2.77142
G1 X125.000 Y114.270 E2.78653
G1 X124.740 Y114.640 E2.79658
G1 X124.440 Y114.980 E2.80665
G1 X124.110 Y115.300 E2.81687
G1 X123.570 Y115.710 E2.83194
G1 X122.980 Y116.030 E2.84685
G1 X122.560 Y116.200 E2.85692
G1 X121.900 Y116.380 E2.87212
G1 X121.450 Y116.450 E2.88224
G1 X121.000 Y116.470 E2.89225
G1 X103.000 Y116.470 E3.29225
G1 X102.260 Y116.410 E3.30875
G1 X101.780 Y116.310 E3.31965
G1 X101.540 Y116.240 E3.32520
G1 X101.080 Y116.060 E3.33618
G1 X100.640 Y115.840 E3.34711
G1 X85.770 Y106.210 E3.74080
G1 X85.450 Y105.980 E3.74956
G1 X85.010 Y105.600 E3.76248
G1 X74.950 Y95.620 E4.07738
G1 X74.490 Y95.090 E4.09297
G1 X74.230 Y94.700 E4.10339
G1 X74.010 Y94.290 E4.11373
G1 X73.920 Y94.080 E4.11880
G1 X73.760 Y93.640 E4.12921
G1 X73.640 Y93.190 E4.13956
G1 X73.600 Y92.960 E4.14475
G1 X73.550 Y92.260 E4.16034
G1 X73.550 Y88.260 E4.24923
G1 X73.570 Y87.810 E4.25924
G1 X73.640 Y87.370 E4.26914
G1 X73.740 Y86.930 E4.27917
G1 X73.890 Y86.500 E4.28929
G1 X74.080 Y86.090 E4.29933
G1 X74.300 Y85.700 E4.30928
G1 X74.560 Y85.340 E4.31915
G1 X74.860 Y85.000 E4.32922
G1 X75.120 Y84.746 E4.33731
G1 X75.400 Y85.230 F6000.000
G1 X75.720 Y84.950 F1800.000 E4.34676
G1 X76.070 Y84.710 E4.35619
G1 X76.250 Y84.600 E4.36088
G1 X76.630 Y84.420 E4.37022
G1 X77.030 Y84.270 E4.37971
G1 X77.440 Y84.160 E4.38915
G1 X78.070 Y84.080 E4.40326
G1 X121.920 Y84.080 E5.37770
G1 X122.550 Y84.160 E5.39182
G1 X122.760 Y84.210 E5.39661
G1 X123.160 Y84.340 E5.40596
G1 X123.740 Y84.600 E5.42008
G1 X124.270 Y84.950 E5.43420
G1 X124.590 Y85.230 E5.44365
G1 X125.020 Y85.700 E5.45780
G1 X125.260 Y86.050 E5.46723
G1 X125.370 Y86.230 E5.47192
G1 X125.550 Y86.610 E5.48127
G1 X125.700 Y87.010 E5.49076
G1 X125.810 Y87.420 E5.50019
G1 X125.890 Y88.050 E5.51430
G1 X125.890 Y92.410 E5.61119
G1 X125.170 Y112.110 E6.04926
G1 X125.110 Y112.530 E6.05869
G1 X124.940 Y113.150 E6.07298
G1 X124.680 Y113.730 E6.08710
G1 X124.570 Y113.920 E6.09198
G1 X124.330 Y114.270 E6.10141
G1 X123.900 Y114.750 E6.11573
G1 X123.410 Y115.160 E6.12993
G1 X123.050 Y115.390 E6.13942
G1 X122.470 Y115.660 E6.15364
G1 X122.060 Y115.790 E6.16320
G1 X121.640 Y115.870 E6.17270
G1 X121.210 Y115.920 E6.18232
G1 X103.000 Y115.920 E6.58699
G1 X102.280 Y115.860 E6.60304
G1 X101.810 Y115.750 E6.61377
G1 X101.360 Y115.590 E6.62438
G1 X100.930 Y115.370 E6.63512
G1 X85.780 Y105.550 E7.03632
G1 X85.390 Y105.210 E7.04782
G1 X75.180 Y95.070 E7.36759
G1 X74.900 Y94.730 E7.37738
G1 X74.780 Y94.550 E7.38219
G1 X74.660 Y94.360 E7.38718
G1 X74.460 Y93.970 E7.39692
G1 X74.240 Y93.350 E7.41154
G1 X74.150 Y92.920 E7.42130
G1 X74.100 Y92.480 E7.43114
G1 X74.100 Y88.050 E7.52959
G1 X74.180 Y87.420 E7.54370
G1 X74.290 Y87.010 E7.55313
G1 X74.440 Y86.610 E7.56263
G1 X74.620 Y86.230 E7.57197
G1 X74.850 Y85.870 E7.58146
G1 X74.970 Y85.700 E7.58609
G1 X75.342 Y85.288 E7.59843
G1 X75.710 Y85.690 F6000.000
G1 X76.180 Y85.290 F1800.000 E7.61214
G1 X76.700 Y84.980 E7.62559
G1 X76.890 Y84.900 E7.63018
G1 X77.470 Y84.710 E7.64374
G1 X77.870 Y84.650 E7.65273
G1 X78.280 Y84.620 E7.66186
G1 X121.710 Y84.620 E8.62697
G1 X122.120 Y84.650 E8.63611
G1 X122.520 Y84.710 E8.64510
G1 X123.100 Y84.900 E8.65866
G1 X123.470 Y85.080 E8.66780
G1 X123.810 Y85.290 E8.67668
G1 X124.280 Y85.690 E8.69040
G1 X124.550 Y85.990 E8.69937
G1 X124.790 Y86.330 E8.70862
G1 X124.990 Y86.680 E8.71757
G1 X125.070 Y86.870 E8.72216
G1 X125.260 Y87.450 E8.73572
G1 X125.320 Y87.850 E8.74471
G1 X125.350 Y88.260 E8.75384
G1 X125.350 Y92.260 E8.84273
G1 X124.630 Y111.870 E9.27880
G1 X124.600 Y112.270 E9.28772
G1 X124.520 Y112.660 E9.29656
G1 X124.400 Y113.040 E9.30542
G1 X124.140 Y113.580 E9.31874
G1 X123.800 Y114.070 E9.33199
G1 X123.380 Y114.490 E9.34519
G1 X123.060 Y114.740 E9.35421
G1 X122.540 Y115.030 E9.36745
G1 X122.170 Y115.180 E9.37632
G1 X121.600 Y115.330 E9.38942
G1 X121.200 Y115.370 E9.39835
G1 X103.000 Y115.380 E9.80279
G1 X102.540 Y115.350 E9.81304
G1 X102.080 Y115.260 E9.82345
G1 X101.640 Y115.110 E9.83378
G1 X101.220 Y114.910 E9.84412
G1 X86.120 Y105.120 E10.24403
G1 X85.780 Y104.820 E10.25411
G1 X75.720 Y94.840 E10.56901
G1 X75.440 Y94.540 E10.57813
G1 X75.100 Y94.030 E10.59175
G1 X74.920 Y93.660 E10.60089
G1 X74.790 Y93.270 E10.61003
G1 X74.670 Y92.670 E10.62362
G1 X74.640 Y92.260 E10.63276
G1 X74.640 Y88.260 E10.72165
G1 X74.670 Y87.850 E10.73078
G1 X74.730 Y87.450 E10.73977
G1 X74.920 Y86.870 E10.75334
G1 X75.000 Y86.680 E10.75792
G1 X75.310 Y86.160 E10.77137
G1 X75.654 Y85.750 E10.78327
G1 X76.090 Y86.070 F6000.000
G1 X76.370 Y85.830 F1800.000 E10.79146
G1 X76.680 Y85.610 E10.79991
G1 X77.010 Y85.440 E10.80816
G1 X77.540 Y85.260 E10.82060
G1 X78.090 Y85.170 E10.83298
G1 X121.900 Y85.170 E11.80654
G1 X122.270 Y85.220 E11.81484
G1 X122.630 Y85.310 E11.82308
G1 X122.980 Y85.440 E11.83138
G1 X123.310 Y85.610 E11.83963
G1 X123.620 Y85.830 E11.84808
G1 X123.900 Y86.070 E11.85627
G1 X124.140 Y86.350 E11.86447
G1 X124.360 Y86.660 E11.87291
G1 X124.530 Y86.990 E11.88116
G1 X124.660 Y87.340 E11.88946
G1 X124.750 Y87.700 E11.89771
G1 X124.800 Y88.070 E11.90600
G1 X124.800 Y92.370 E12.00156
G1 X124.090 Y111.850 E12.43474
G1 X124.080 Y112.040 E12.43896
G1 X124.020 Y112.420 E12.44751
G1 X123.970 Y112.600 E12.45166
G1 X123.840 Y112.960 E12.46017
G1 X123.670 Y113.300 E12.46862
G1 X123.340 Y113.760 E12.48120
G1 X123.080 Y114.030 E12.48953
G1 X122.780 Y114.270 E12.49806
G1 X122.460 Y114.470 E12.50645
G1 X121.930 Y114.690 E12.51920
G1 X121.570 Y114.780 E12.52745
G1 X121.190 Y114.830 E12.53597
G1 X103.000 Y114.830 E12.94019
G1 X102.610 Y114.810 E12.94887
G1 X102.220 Y114.730 E12.95771
G1 X101.840 Y114.610 E12.96657
G1 X101.490 Y114.440 E12.97522
G1 X86.450 Y104.690 E13.37352
G1 X86.160 Y104.430 E13.38218
G1 X75.960 Y94.310 E13.70148
G1 X75.830 Y94.150 E13.70606
G1 X75.510 Y93.630 E13.71963
G1 X75.350 Y93.260 E13.72859
G1 X75.250 Y92.870 E13.73753
G1 X75.220 Y92.670 E13.74203
G1 X75.190 Y92.260 E13.75116
G1 X75.190 Y88.070 E13.84427
G1 X75.280 Y87.520 E13.85666
G1 X75.460 Y86.990 E13.86910
G1 X75.630 Y86.660 E13.87735
G1 X75.850 Y86.350 E13.88579
G1 X76.037 Y86.132 E13.89217
G1 X76.480 Y86.460 F6000.000
G1 X76.870 Y86.140 F1800.000 E13.90338
G1 X77.310 Y85.910 E13.91442
G1 X77.780 Y85.760 E13.92538
G1 X78.280 Y85.710 E13.93655
G1 X121.710 Y85.710 E14.90166
G1 X122.210 Y85.760 E14.91282
G1 X122.530 Y85.850 E14.92021
G1 X122.840 Y85.980 E14.92768
G1 X123.120 Y86.140 E14.93485
G1 X123.390 Y86.350 E14.94245
G1 X123.620 Y86.580 E14.94968
G1 X123.830 Y86.850 E14.95728
G1 X123.990 Y87.130 E14.96444
G1 X124.170 Y87.600 E14.97563
G1 X124.210 Y87.760 E14.97929
G1 X124.260 Y88.260 E14.99046
G1 X124.260 Y92.260 E15.07935
G1 X123.540 Y111.830 E15.51453
G1 X123.510 Y112.170 E15.52212
G1 X123.430 Y112.500 E15.52966
G1 X123.310 Y112.820 E15.53726
G1 X123.230 Y112.970 E15.54103
G1 X123.050 Y113.250 E15.54843
G1 X122.830 Y113.510 E15.55600
G1 X122.570 Y113.740 E15.56371
G1 X122.290 Y113.930 E15.57123
G1 X121.830 Y114.150 E15.58256
G1 X121.670 Y114.200 E15.58629
G1 X121.340 Y114.260 E15.59374
G1 X121.000 Y114.290 E15.60133
G1 X103.000 Y114.290 E16.00133
G1 X102.460 Y114.230 E16.01340
G1 X102.100 Y114.120 E16.02177
G1 X101.770 Y113.970 E16.02982
G1 X86.960 Y104.380 E16.42191
G1 X86.700 Y104.190 E16.42906
G1 X76.360 Y93.930 E16.75276
G1 X76.140 Y93.640 E16.76085
G1 X75.970 Y93.320 E16.76890
G1 X75.840 Y92.980 E16.77699
G1 X75.760 Y92.620 E16.78519
G1 X75.730 Y92.260 E16.79322
G1 X75.730 Y88.260 E16.88211
G1 X75.780 Y87.760 E16.89327
G1 X75.870 Y87.440 E16.90066
G1 X76.000 Y87.130 E16.90813
G1 X76.160 Y86.850 E16.91530
G1 X76.425 Y86.520 E16.92469
G1 F1800.000 E15.92469
G92 E0
G1 X115.182 Y103.922 F6000.000
G1 F1800.000 E1.00000
G1 X118.818 Y103.922 F900.000 E1.08081
G1 X118.818 Y109.558 E1.20606
G1 X115.182 Y109.558 E1.28686
G1 X115.182 Y104.004 E1.41029
G1 X115.727 Y104.467 F6000.000
G1 X118.273 Y104.467 F900.000 E1.46686
G1 X118.273 Y109.013 E1.56787
G1 X115.727 Y109.013 E1.62443
G1 X115.727 Y104.549 E1.72362
G1 X115.727 Y103.922 F6000.000
G1 X108.818 Y103.922
G1 X108.818 Y109.558 F900.000 E1.84887
G1 X105.182 Y109.558 E1.92968
G1 X105.182 Y103.922 E2.05493
G1 X108.736 Y103.922 E2.13392
G1 X108.273 Y104.467 F6000.000
G1 X108.273 Y109.013 F900.000 E2.23492
G1 X105.727 Y109.013 E2.29149
G1 X105.727 Y104.467 E2.39250
G1 X108.191 Y104.467 E2.44725
G1 X108.818 Y104.467 F6000.000
G1 F1800.000 E1.44725
G92 E0
G1 X88.831 Y101.576 F6000.000
G1 F1800.000 E1.00000
G1 X86.414 Y99.159 F1800.000 E1.07595
G1 X84.863 Y96.115 E1.15188
G1 X84.318 Y92.676 E1.22926
G1 X84.318 Y91.442 E1.25668
G1 X79.101 Y91.442 E1.37261
G1 X79.101 Y89.078 E1.42514
G1 X86.682 Y89.078 E1.59360
G1 X86.682 Y92.804 E1.67641
G1 X87.091 Y95.391 E1.73461
G1 X88.310 Y97.782 E1.79424
G1 X90.208 Y99.680 E1.85390
G1 X92.599 Y100.899 E1.91353
G1 X95.250 Y101.318 E1.97318
G1 X97.901 Y100.899 E2.03282
G1 X100.292 Y99.680 E2.09245
G1 X102.190 Y97.782 E2.15211
G1 X103.409 Y95.391 E2.21174
G1 X103.818 Y92.804 E2.26994
G1 X103.818 Y89.078 E2.35275
G1 X120.899 Y89.078 E2.73232
G1 X120.899 Y91.442 E2.78485
G1 X120.182 Y91.442 E2.80078
G1 X120.182 Y110.922 E3.23367
G1 X103.818 Y110.922 E3.59731
G1 X103.818 Y99.427 E3.85276
G1 X101.669 Y101.576 E3.92029
G1 X98.625 Y103.127 E3.99622
G1 X95.250 Y103.662 E4.07215
G1 X91.875 Y103.127 E4.14809
G1 X88.904 Y101.613 E4.22219
G1 X88.506 Y102.023 F6000.000
G1 X85.967 Y99.484 F900.000 E4.30199
G1 X84.338 Y96.286 E4.38175
G1 X83.773 Y92.719 E4.46201
G1 X83.773 Y91.987 E4.47826
G1 X78.556 Y91.987 E4.59419
G1 X78.556 Y88.533 E4.67096
G1 X87.227 Y88.533 E4.86367
G1 X87.227 Y92.761 E4.95764
G1 X87.616 Y95.220 E5.01296
G1 X88.757 Y97.457 E5.06876
G1 X90.533 Y99.233 E5.12457
G1 X92.770 Y100.374 E5.18037
G1 X95.250 Y100.766 E5.23617
G1 X97.730 Y100.374 E5.29198
G1 X99.967 Y99.233 E5.34777
G1 X101.743 Y97.457 E5.40359
G1 X102.884 Y95.220 E5.45938
G1 X103.273 Y92.761 E5.51471
G1 X103.273 Y88.533 E5.60868
G1 X121.444 Y88.533 E6.01249
G1 X121.444 Y91.987 E6.08926
G1 X120.727 Y91.987 E6.10520
G1 X120.727 Y111.467 E6.53809
G1 X103.273 Y111.467 E6.92597
G1 X103.273 Y100.744 E7.16427
G1 X101.994 Y102.023 E7.20447
G1 X98.796 Y103.652 E7.28423
G1 X95.250 Y104.214 E7.36400
G1 X91.704 Y103.652 E7.44378
G1 X88.579 Y102.060 E7.52172
G1 X88.592 Y101.484 F6000.000
G1 X89.066 Y101.252
G1 X86.738 Y98.924 F2100.000 E7.59494
G1 X87.819 Y97.690 F6000.000
G1 X85.078 Y94.949 F2100.000 E7.68113
G1 X84.933 Y94.032 E7.70177
G1 X87.017 Y96.116 E7.76729
G1 X86.621 Y94.948 E7.79471
G1 X84.788 Y93.115 E7.85234
G1 X84.713 Y92.269 E7.87123
G1 X86.476 Y94.031 E7.92665
G1 X86.331 Y93.115 E7.94728
G1 X84.713 Y91.497 E7.99813
G1 X84.263 Y91.047 F6000.000
G1 X82.690 Y89.473 F2100.000 E8.04760
G1 X81.918 Y89.473 E8.06476
G1 X83.491 Y91.047 E8.11422
G1 X82.719 Y91.047 E8.13138
G1 X81.146 Y89.473 E8.18084
G1 X80.374 Y89.473 E8.19800
G1 X81.948 Y91.047 E8.24746
G1 X81.176 Y91.047 E8.26462
G1 X79.603 Y89.473 E8.31408
G1 X79.496 Y90.139 E8.32906
G1 X80.404 Y91.047 E8.35761
G1 X79.632 Y91.047 E8.37476
G1 X79.496 Y90.910 E8.37905
G1 X83.461 Y89.473 F6000.000
G1 X86.287 Y92.299 F2100.000 E8.46788
G1 X86.287 Y91.527 E8.48504
G1 X84.233 Y89.473 E8.54960
G1 X85.005 Y89.473 E8.56676
G1 X86.287 Y90.755 E8.60707
G1 X86.287 Y89.984 E8.62422
G1 X85.776 Y89.473 E8.64026
G1 X85.224 Y95.866 F6000.000
G1 X92.124 Y102.766 F2100.000 E8.85723
G1 X93.041 Y102.912 E8.87787
G1 X90.300 Y100.171 E8.96405
G1 X91.874 Y100.973 E9.00333
G1 X93.958 Y103.057 E9.06886
G1 X94.875 Y103.202 E9.08950
G1 X93.042 Y101.369 E9.14713
G1 X93.959 Y101.514 E9.16777
G1 X95.644 Y103.199 E9.22074
G1 X96.310 Y103.094 E9.23574
G1 X94.875 Y101.659 E9.28084
G1 X95.644 Y101.656 E9.29793
G1 X96.976 Y102.988 E9.33981
G1 X97.642 Y102.883 E9.35481
G1 X96.310 Y101.551 E9.39668
G1 X96.977 Y101.445 E9.41168
G1 X98.308 Y102.777 E9.45356
G1 X98.865 Y102.561 E9.46682
G1 X97.643 Y101.340 E9.50523
G1 X98.243 Y101.168 E9.51910
G1 X99.376 Y102.301 E9.55472
G1 X99.887 Y102.040 E9.56748
G1 X98.754 Y100.908 E9.60310
G1 X99.265 Y100.647 E9.61585
G1 X100.398 Y101.780 E9.65147
G1 X100.909 Y101.519 E9.66423
G1 X99.776 Y100.387 E9.69985
G1 X100.288 Y100.126 E9.71261
G1 X101.420 Y101.259 E9.74823
G1 X101.810 Y100.876 E9.76036
G1 X100.732 Y99.799 E9.79424
G1 X101.118 Y99.413 E9.80637
G1 X102.195 Y100.490 E9.84025
G1 X102.581 Y100.105 E9.85238
G1 X101.504 Y99.027 E9.88626
G1 X101.890 Y98.641 E9.89839
G1 X102.967 Y99.719 E9.93227
G1 X103.353 Y99.333 E9.94440
G1 X102.276 Y98.255 E9.97828
G1 X102.614 Y97.822 E9.99050
G1 X103.739 Y98.947 E10.02589
G1 X104.125 Y98.561 E10.03802
G1 X102.874 Y97.310 E10.07734
G1 X103.135 Y96.799 E10.09010
G1 X114.787 Y108.451 E10.45647
G1 X114.787 Y109.223 E10.47362
G1 X109.213 Y103.650 E10.64886
G1 X109.090 Y103.527 F6000.000
G1 X104.213 Y98.650 F2100.000 E10.80219
G1 X104.213 Y99.422 E10.81935
G1 X108.318 Y103.527 E10.94842
G1 X107.547 Y103.527 E10.96558
G1 X104.213 Y100.193 E11.07039
G1 X104.213 Y100.965 E11.08754
G1 X106.775 Y103.527 E11.16809
G1 X106.003 Y103.527 E11.18524
G1 X104.213 Y101.737 E11.24152
G1 X104.213 Y102.508 E11.25868
G1 X105.232 Y103.527 E11.29069
G1 X104.460 Y103.527 E11.30785
G1 X104.213 Y103.280 E11.31560
G1 X109.213 Y104.422 F6000.000
G1 X114.787 Y109.995 F2100.000 E11.49083
G1 X114.547 Y110.527 E11.50380
G1 X109.213 Y105.193 E11.67149
G1 X109.213 Y105.965 E11.68865
G1 X113.775 Y110.527 E11.83208
G1 X113.003 Y110.527 E11.84924
G1 X109.213 Y106.737 E11.96840
G1 X109.213 Y107.508 E11.98556
G1 X112.232 Y110.527 E12.08045
G1 X111.460 Y110.527 E12.09761
G1 X109.213 Y108.280 E12.16825
G1 X109.213 Y109.052 E12.18540
G1 X110.688 Y110.527 E12.23177
G1 X109.916 Y110.527 E12.24893
G1 X109.213 Y109.824 E12.27103
G1 X114.787 Y107.680 F6000.000
G1 X103.395 Y96.288 F2100.000 E12.62921
G1 X103.656 Y95.777 E12.64196
G1 X114.787 Y106.908 E12.99194
G1 X114.787 Y106.136 E13.00910
G1 X103.841 Y95.190 E13.35326
G1 X103.946 Y94.524 E13.36826
G1 X114.787 Y105.364 E13.70911
G1 X114.787 Y104.593 E13.72627
G1 X104.052 Y93.858 E14.06380
G1 X104.157 Y93.192 E14.07880
G1 X114.787 Y103.821 E14.41301
G1 X115.264 Y103.527 E14.42548
G1 X104.213 Y92.476 E14.77293
G1 X104.213 Y91.704 E14.79009
G1 X116.036 Y103.527 E15.16181
G1 X116.807 Y103.527 E15.17896
G1 X104.213 Y90.933 E15.57495
G1 X104.213 Y90.161 E15.59210
G1 X117.579 Y103.527 E16.01235
G1 X118.351 Y103.527 E16.02951
G1 X104.298 Y89.473 E16.47137
G1 X105.069 Y89.473 E16.48853
G1 X119.122 Y103.527 E16.93039
