; generated by Slic3r 0.9.9 on 2013-06-05 at 10:37:46

; layer_height = 0.36
; perimeters = 2
; top_solid_layers = 3
; bottom_solid_layers = 3
; fill_density = 1
; perimeter_speed = 30
; infill_speed = 30
; travel_speed = 50
; nozzle_diameter = 0.5
; filament_diameter = 3
; extrusion_multiplier = 1
; perimeters extrusion width = 0.56mm
; infill extrusion width = 0.43mm
; solid infill extrusion width = 0.56mm
; top infill extrusion width = 0.56mm
; support material extrusion width = 0.56mm

G21 ; set units to millimeters
M107
M104 S220 ; set temperature
G28 ; home all axes
M92 X64.8592 ; calibrate X
M92 Y64.8592  ; calibrate Y
M92 Z2560   ; calibrate Z
M92 E569  ; calibrate E
M551 ; prime extruder 1
M109 S220 ; wait for temperature to be reached
G90 ; use absolute coordinates
G92 E0
M82 ; use absolute distances for extrusion
G1 F1800.000 E-1.00000
G92 E0
G1 Z0.360 F3000.000
G1 X64.930 Y82.477
G1 F1800.000 E1.00000
G1 X66.820 Y81.117 F900.000 E1.06468
G1 X67.240 Y80.887 E1.07798
G1 X67.670 Y80.707 E1.09093
G1 X68.130 Y80.577 E1.10421
G1 X68.600 Y80.497 E1.11745
G1 X69.070 Y80.467 E1.13053
G1 X130.920 Y80.467 E2.84859
G1 X131.630 Y80.527 E2.86838
G1 X132.090 Y80.637 E2.88152
G1 X132.540 Y80.787 E2.89470
G1 X133.170 Y81.117 E2.91445
G1 X135.050 Y82.477 E2.97890
G1 X135.410 Y82.797 E2.99228
G1 X135.720 Y83.157 E3.00548
G1 X136.110 Y83.767 E3.02559
G1 X136.310 Y84.197 E3.03877
G1 X137.050 Y86.447 E3.10456
G1 X137.150 Y86.967 E3.11927
G1 X137.180 Y87.497 E3.13401
G1 X137.180 Y112.497 E3.82846
G1 X137.150 Y113.027 E3.84320
G1 X137.050 Y113.547 E3.85791
G1 X136.390 Y115.567 E3.91694
G1 X136.220 Y116.007 E3.93005
G1 X136.000 Y116.427 E3.94322
G1 X135.870 Y116.627 E3.94984
G1 X135.580 Y116.997 E3.96290
G1 X135.250 Y117.337 E3.97606
G1 X135.070 Y117.497 E3.98275
G1 X133.180 Y118.867 E4.04759
G1 X132.770 Y119.097 E4.06065
G1 X132.330 Y119.287 E4.07397
G1 X131.630 Y119.467 E4.09404
G1 X131.160 Y119.517 E4.10717
G1 X69.070 Y119.527 E5.83189
G1 X68.590 Y119.497 E5.84525
G1 X68.120 Y119.417 E5.85850
G1 X67.660 Y119.287 E5.87178
G1 X67.220 Y119.097 E5.88509
G1 X66.810 Y118.867 E5.89815
G1 X64.920 Y117.497 E5.96299
G1 X64.410 Y116.997 E5.98283
G1 X64.120 Y116.617 E5.99611
G1 X63.990 Y116.417 E6.00273
G1 X63.760 Y115.987 E6.01628
G1 X63.590 Y115.547 E6.02938
G1 X62.950 Y113.537 E6.08798
G1 X62.890 Y113.277 E6.09539
G1 X62.830 Y112.757 E6.10993
G1 X62.830 Y87.237 E6.81882
G1 X62.890 Y86.717 E6.83336
G1 X63.020 Y86.217 E6.84771
G1 X63.590 Y84.447 E6.89936
G1 X63.760 Y83.997 E6.91272
G1 X63.990 Y83.567 E6.92627
G1 X64.260 Y83.167 E6.93968
G1 X64.580 Y82.807 E6.95305
G1 X64.869 Y82.531 E6.96415
G1 X65.280 Y82.907 F3000.000
G1 X67.130 Y81.567 F900.000 E7.02760
G1 X67.330 Y81.457 E7.03394
G1 X67.740 Y81.267 E7.04649
G1 X68.170 Y81.127 E7.05905
G1 X68.620 Y81.037 E7.07180
G1 X69.070 Y81.007 E7.08433
G1 X130.920 Y81.007 E8.80238
G1 X131.370 Y81.037 E8.81491
G1 X131.600 Y81.077 E8.82140
G1 X132.040 Y81.187 E8.83400
G1 X132.460 Y81.357 E8.84658
G1 X132.860 Y81.567 E8.85913
G1 X134.540 Y82.777 E8.91664
G1 X134.870 Y83.037 E8.92831
G1 X135.290 Y83.497 E8.94561
G1 X135.530 Y83.837 E8.95717
G1 X135.630 Y84.017 E8.96289
G1 X135.880 Y84.597 E8.98044
G1 X136.460 Y86.367 E9.03218
G1 X136.610 Y87.037 E9.05125
G1 X136.640 Y87.497 E9.06405
G1 X136.640 Y112.497 E9.75850
G1 X136.610 Y112.957 E9.77130
G1 X136.520 Y113.417 E9.78432
G1 X135.800 Y115.607 E9.84836
G1 X135.710 Y115.817 E9.85471
G1 X135.490 Y116.217 E9.86739
G1 X135.360 Y116.397 E9.87356
G1 X135.220 Y116.577 E9.87989
G1 X134.910 Y116.907 E9.89247
G1 X134.560 Y117.197 E9.90509
G1 X132.870 Y118.417 E9.96299
G1 X132.470 Y118.637 E9.97567
G1 X132.040 Y118.807 E9.98852
G1 X131.380 Y118.957 E10.00732
G1 X130.920 Y118.987 E10.02012
G1 X69.070 Y118.987 E11.73818
G1 X68.610 Y118.957 E11.75098
G1 X68.390 Y118.917 E11.75719
G1 X67.950 Y118.807 E11.76979
G1 X67.520 Y118.637 E11.78264
G1 X67.320 Y118.537 E11.78885
G1 X66.930 Y118.287 E11.80171
G1 X65.430 Y117.197 E11.85322
G1 X65.080 Y116.907 E11.86585
G1 X64.920 Y116.747 E11.87213
G1 X64.630 Y116.397 E11.88476
G1 X64.380 Y116.007 E11.89763
G1 X64.280 Y115.807 E11.90384
G1 X64.110 Y115.377 E11.91668
G1 X63.540 Y113.617 E11.96807
G1 X63.430 Y113.177 E11.98067
G1 X63.370 Y112.727 E11.99328
G1 X63.370 Y87.267 E12.70050
G1 X63.430 Y86.817 E12.71311
G1 X63.540 Y86.387 E12.72544
G1 X64.110 Y84.617 E12.77709
G1 X64.260 Y84.217 E12.78896
G1 X64.460 Y83.847 E12.80064
G1 X64.690 Y83.507 E12.81205
G1 X64.970 Y83.187 E12.82386
G1 X65.217 Y82.958 E12.83319
G1 X65.610 Y83.337 F3000.000
G1 X67.260 Y82.137 F900.000 E12.88987
G1 X67.440 Y82.017 E12.89587
G1 X67.820 Y81.817 E12.90780
G1 X68.020 Y81.737 E12.91379
G1 X68.430 Y81.627 E12.92558
G1 X68.640 Y81.587 E12.93152
G1 X69.070 Y81.557 E12.94349
G1 X130.920 Y81.557 E14.66155
G1 X131.350 Y81.587 E14.67352
G1 X131.560 Y81.627 E14.67946
G1 X131.970 Y81.737 E14.69125
G1 X132.170 Y81.817 E14.69723
G1 X132.550 Y82.017 E14.70916
G1 X132.730 Y82.137 E14.71517
G1 X134.230 Y83.217 E14.76651
G1 X134.530 Y83.467 E14.77736
G1 X134.910 Y83.897 E14.79330
G1 X135.120 Y84.227 E14.80417
G1 X135.290 Y84.577 E14.81497
G1 X135.360 Y84.767 E14.82060
G1 X135.940 Y86.537 E14.87234
G1 X136.040 Y86.917 E14.88325
G1 X136.070 Y87.107 E14.88860
G1 X136.090 Y87.497 E14.89944
G1 X136.090 Y112.497 E15.59389
G1 X136.070 Y112.887 E15.60474
G1 X135.940 Y113.467 E15.62125
G1 X135.280 Y115.427 E15.67870
G1 X134.980 Y115.987 E15.69634
G1 X134.850 Y116.167 E15.70251
G1 X134.570 Y116.487 E15.71432
G1 X134.240 Y116.757 E15.72616
G1 X132.740 Y117.847 E15.77767
G1 X132.240 Y118.147 E15.79387
G1 X131.880 Y118.287 E15.80460
G1 X131.500 Y118.387 E15.81551
G1 X131.310 Y118.417 E15.82086
G1 X130.920 Y118.437 E15.83170
G1 X69.070 Y118.437 E17.54976
G1 X68.680 Y118.417 E17.56061
G1 X68.490 Y118.387 E17.56595
G1 X68.110 Y118.287 E17.57686
G1 X67.750 Y118.147 E17.58759
G1 X67.250 Y117.847 E17.60379
G1 X65.750 Y116.757 E17.65530
G1 X65.450 Y116.507 E17.66614
G1 X65.070 Y116.077 E17.68208
G1 X64.860 Y115.747 E17.69295
G1 X64.630 Y115.207 E17.70925
G1 X64.060 Y113.447 E17.76064
G1 X63.960 Y113.077 E17.77129
G1 X63.930 Y112.887 E17.77663
G1 X63.910 Y112.497 E17.78748
G1 X63.910 Y87.497 E18.48192
G1 X63.930 Y87.117 E18.49249
G1 X64.000 Y86.737 E18.50323
G1 X64.690 Y84.597 E18.56569
G1 X64.860 Y84.237 E18.57674
G1 X65.070 Y83.907 E18.58761
G1 X65.320 Y83.607 E18.59846
G1 X65.548 Y83.390 E18.60719
G1 X65.940 Y83.767 F3000.000
G1 X67.750 Y82.467 F900.000 E18.66910
G1 X68.100 Y82.297 E18.67990
G1 X68.480 Y82.167 E18.69106
G1 X68.870 Y82.107 E18.70202
G1 X69.070 Y82.097 E18.70758
G1 X130.920 Y82.097 E20.42564
G1 X131.120 Y82.107 E20.43120
G1 X131.510 Y82.167 E20.44216
G1 X132.070 Y82.377 E20.45878
G1 X132.410 Y82.577 E20.46973
G1 X133.910 Y83.657 E20.52108
G1 X134.310 Y84.017 E20.53602
G1 X134.530 Y84.297 E20.54592
G1 X134.780 Y84.767 E20.56070
G1 X134.840 Y84.937 E20.56571
G1 X135.420 Y86.707 E20.61745
G1 X135.530 Y87.177 E20.63086
G1 X135.550 Y87.497 E20.63976
G1 X135.550 Y112.497 E21.33421
G1 X135.500 Y112.977 E21.34761
G1 X135.420 Y113.297 E21.35678
G1 X134.770 Y115.237 E21.41361
G1 X134.590 Y115.597 E21.42479
G1 X134.480 Y115.757 E21.43018
G1 X134.220 Y116.057 E21.44121
G1 X134.070 Y116.197 E21.44691
G1 X132.420 Y117.407 E21.50375
G1 X131.960 Y117.677 E21.51856
G1 X131.620 Y117.797 E21.52858
G1 X131.270 Y117.867 E21.53849
G1 X130.920 Y117.897 E21.54825
G1 X69.070 Y117.897 E23.26631
G1 X68.540 Y117.837 E23.28112
G1 X68.370 Y117.797 E23.28598
G1 X68.030 Y117.677 E23.29599
G1 X67.570 Y117.407 E23.31081
G1 X66.070 Y116.317 E23.36231
G1 X65.800 Y116.087 E23.37216
G1 X65.560 Y115.827 E23.38199
G1 X65.360 Y115.527 E23.39201
G1 X65.210 Y115.207 E23.40183
G1 X64.530 Y113.127 E23.46261
G1 X64.470 Y112.817 E23.47138
G1 X64.450 Y112.497 E23.48029
G1 X64.450 Y87.497 E24.17473
G1 X64.470 Y87.177 E24.18364
G1 X64.530 Y86.867 E24.19241
G1 X65.210 Y84.777 E24.25346
G1 X65.280 Y84.617 E24.25831
G1 X65.460 Y84.307 E24.26827
G1 X65.680 Y84.017 E24.27838
G1 X65.880 Y83.822 E24.28613
G1 F1800.000 E23.28613
G92 E0
G1 X70.606 Y91.080 F3000.000
G1 F1800.000 E1.00000
G1 X70.973 Y90.921 F900.000 E1.01109
G1 X71.360 Y90.828 E1.02216
G1 X71.731 Y90.800 E1.03249
G1 X73.511 Y90.799 E1.08195
G1 X74.780 Y90.733 E1.11724
G1 X75.774 Y90.710 E1.14486
G1 X76.490 Y90.725 E1.16474
G1 X77.214 Y90.789 E1.18494
G1 X77.572 Y90.851 E1.19503
G1 X77.913 Y90.936 E1.20480
G1 X78.248 Y91.049 E1.21463
G1 X78.663 Y91.249 E1.22741
G1 X79.035 Y91.509 E1.24002
G1 X79.558 Y92.054 E1.26101
G1 X79.766 Y91.929 E1.26774
G1 X79.548 Y91.266 E1.28711
G1 X79.473 Y90.909 E1.29726
G1 X79.456 Y90.538 E1.30759
G1 X79.482 Y90.184 E1.31744
G1 X79.548 Y89.835 E1.32731
G1 X79.661 Y89.472 E1.33786
G1 X79.826 Y89.140 E1.34816
G1 X80.794 Y88.112 E1.38739
G1 X81.074 Y87.851 E1.39801
G1 X81.373 Y87.613 E1.40864
G1 X81.689 Y87.398 E1.41925
G1 X82.025 Y87.206 E1.43000
G1 X82.515 Y86.980 E1.44499
G1 X82.954 Y86.839 E1.45780
G1 X83.564 Y86.714 E1.47510
G1 X84.090 Y86.681 E1.48974
G1 X84.617 Y86.691 E1.50438
G1 X85.136 Y86.754 E1.51890
G1 X85.641 Y86.870 E1.53329
G1 X86.124 Y87.040 E1.54752
G1 X86.596 Y87.260 E1.56198
G1 X87.039 Y87.535 E1.57645
G1 X87.446 Y87.860 E1.59093
G1 X87.812 Y88.232 E1.60542
G1 X88.135 Y88.642 E1.61993
G1 X88.399 Y89.107 E1.63477
G1 X88.591 Y89.607 E1.64965
G1 X88.707 Y90.117 E1.66419
G1 X88.778 Y90.637 E1.67874
G1 X88.889 Y91.768 E1.71032
G1 X89.003 Y93.781 E1.76634
G1 X89.085 Y96.642 E1.84585
G1 X89.112 Y99.456 E1.92400
G1 X89.071 Y103.398 E2.03351
G1 X89.032 Y103.738 E2.04302
G1 X88.905 Y104.101 E2.05371
G1 X88.715 Y104.428 E2.06422
G1 X88.487 Y104.706 E2.07420
G1 X88.246 Y104.957 E2.08385
G1 X87.985 Y105.179 E2.09338
G1 X87.700 Y105.365 E2.10283
G1 X86.812 Y105.770 E2.12994
G1 X87.537 Y106.043 E2.15146
G1 X87.939 Y106.278 E2.16439
G1 X88.318 Y106.588 E2.17798
G1 X88.667 Y107.010 E2.19321
G1 X88.910 Y107.520 E2.20890
G1 X89.032 Y108.073 E2.22464
G1 X89.045 Y108.643 E2.24047
G1 X88.983 Y109.197 E2.25596
G1 X88.818 Y109.727 E2.27138
G1 X88.544 Y110.208 E2.28675
G1 X88.183 Y110.596 E2.30147
G1 X87.795 Y110.894 E2.31507
G1 X87.371 Y111.116 E2.32837
G1 X86.914 Y111.252 E2.34160
G1 X86.454 Y111.297 E2.35445
G1 X85.987 Y111.270 E2.36744
G1 X85.518 Y111.146 E2.38090
G1 X85.079 Y110.936 E2.39443
G1 X84.658 Y110.641 E2.40872
G1 X84.282 Y110.252 E2.42373
G1 X83.993 Y109.768 E2.43938
G1 X83.804 Y109.229 E2.45527
G1 X83.685 Y108.563 E2.47405
G1 X83.737 Y108.214 E2.48385
G1 X83.854 Y107.678 E2.49911
G1 X84.066 Y107.156 E2.51475
G1 X84.379 Y106.694 E2.53026
G1 X84.776 Y106.327 E2.54528
G1 X85.207 Y106.061 E2.55933
G1 X86.183 Y105.671 E2.58854
G1 X85.430 Y105.309 E2.61175
G1 X85.181 Y105.159 E2.61982
G1 X84.960 Y104.980 E2.62774
G1 X84.767 Y104.788 E2.63529
G1 X84.595 Y104.577 E2.64286
G1 X84.429 Y104.333 E2.65103
G1 X84.298 Y104.070 E2.65920
G1 X84.203 Y103.794 E2.66732
G1 X84.147 Y103.507 E2.67543
G1 X84.116 Y102.761 E2.69618
G1 X84.157 Y101.423 E2.73335
G1 X84.157 Y93.196 E2.96188
G1 X84.138 Y92.636 E2.97745
G1 X84.061 Y91.733 E3.00261
G1 X83.526 Y92.351 E3.02530
G1 X83.286 Y92.559 E3.03413
G1 X83.020 Y92.731 E3.04292
G1 X82.739 Y92.864 E3.05157
G1 X82.355 Y92.998 E3.06285
G1 X81.948 Y93.068 E3.07432
G1 X81.531 Y93.060 E3.08590
G1 X81.161 Y92.972 E3.09647
G1 X80.840 Y92.853 E3.10599
G1 X80.534 Y92.687 E3.11566
G1 X80.257 Y92.478 E3.12529
G1 X79.762 Y91.974 E3.14492
G1 X79.621 Y92.045 E3.14931
G1 X79.780 Y93.018 E3.17670
G1 X79.777 Y93.414 E3.18769
G1 X79.708 Y93.806 E3.19876
G1 X79.574 Y94.182 E3.20984
G1 X79.382 Y94.531 E3.22090
G1 X79.134 Y94.846 E3.23204
G1 X78.842 Y95.121 E3.24318
G1 X78.493 Y95.375 E3.25517
G1 X78.084 Y95.571 E3.26778
G1 X77.645 Y95.693 E3.28044
G1 X76.996 Y95.764 E3.29857
G1 X76.996 Y104.836 E3.55055
G1 X77.696 Y104.905 E3.57010
G1 X77.945 Y104.971 E3.57725
G1 X78.374 Y105.140 E3.59007
G1 X78.592 Y105.258 E3.59696
G1 X78.820 Y105.423 E3.60476
G1 X79.021 Y105.611 E3.61243
G1 X79.199 Y105.823 E3.62011
G1 X79.356 Y106.061 E3.62802
G1 X79.569 Y106.500 E3.64158
G1 X79.690 Y106.993 E3.65568
G1 X79.696 Y107.501 E3.66980
G1 X79.587 Y107.994 E3.68382
G1 X79.391 Y108.444 E3.69747
G1 X79.118 Y108.843 E3.71090
G1 X78.773 Y109.182 E3.72432
G1 X78.361 Y109.464 E3.73820
G1 X77.840 Y109.717 E3.75427
G1 X77.647 Y109.765 E3.75980
G1 X77.487 Y109.777 E3.76426
G1 X76.042 Y109.791 E3.80440
G1 X71.586 Y109.764 E3.92819
G1 X71.305 Y109.721 E3.93608
G1 X71.028 Y109.649 E3.94403
G1 X70.763 Y109.550 E3.95187
G1 X70.486 Y109.418 E3.96041
G1 X70.215 Y109.240 E3.96942
G1 X69.971 Y109.026 E3.97842
G1 X69.761 Y108.786 E3.98729
G1 X69.588 Y108.538 E3.99569
G1 X69.444 Y108.283 E4.00381
G1 X69.325 Y108.014 E4.01199
G1 X69.227 Y107.707 E4.02095
G1 X69.182 Y107.389 E4.02986
G1 X69.182 Y107.081 E4.03841
G1 X69.223 Y106.777 E4.04694
G1 X69.309 Y106.458 E4.05613
G1 X69.452 Y106.149 E4.06556
G1 X69.642 Y105.868 E4.07500
G1 X69.874 Y105.618 E4.08447
G1 X70.145 Y105.393 E4.09426
G1 X70.508 Y105.169 E4.10609
G1 X70.878 Y105.000 E4.11741
G1 X71.266 Y104.886 E4.12864
G1 X71.654 Y104.835 E4.13950
G1 X72.054 Y104.835 E4.15062
G1 X72.054 Y95.772 E4.40239
G1 X71.534 Y95.738 E4.41687
G1 X71.136 Y95.674 E4.42807
G1 X70.736 Y95.542 E4.43976
G1 X70.366 Y95.340 E4.45147
G1 X70.053 Y95.081 E4.46275
G1 X69.791 Y94.785 E4.47373
G1 X69.580 Y94.472 E4.48422
G1 X69.417 Y94.133 E4.49467
G1 X69.303 Y93.761 E4.50549
G1 X69.264 Y93.390 E4.51584
G1 X69.272 Y93.049 E4.52532
G1 X69.324 Y92.714 E4.53474
G1 X69.428 Y92.366 E4.54484
G1 X69.599 Y92.039 E4.55507
G1 X69.797 Y91.758 E4.56462
G1 X70.033 Y91.505 E4.57424
G1 X70.297 Y91.286 E4.58376
G1 X70.538 Y91.125 E4.59181
G1 X70.832 Y91.585 F3000.000
G1 X71.146 Y91.440 F450.000 E4.60141
G1 X71.444 Y91.368 E4.60993
G1 X71.751 Y91.346 E4.61847
G1 X73.521 Y91.344 E4.66763
G1 X74.804 Y91.278 E4.70332
G1 X75.780 Y91.256 E4.73044
G1 X76.798 Y91.293 E4.75873
G1 X77.460 Y91.385 E4.77729
G1 X77.760 Y91.460 E4.78588
G1 X78.042 Y91.555 E4.79415
G1 X78.387 Y91.721 E4.80479
G1 X78.679 Y91.925 E4.81469
G1 X78.914 Y92.170 E4.82412
G1 X79.082 Y92.452 E4.83325
G1 X79.185 Y92.759 E4.84222
G1 X79.234 Y93.061 E4.85072
G1 X79.232 Y93.364 E4.85915
G1 X79.179 Y93.666 E4.86768
G1 X79.075 Y93.957 E4.87626
G1 X78.926 Y94.228 E4.88486
G1 X78.730 Y94.477 E4.89364
G1 X78.493 Y94.701 E4.90270
G1 X78.213 Y94.905 E4.91234
G1 X77.892 Y95.058 E4.92221
G1 X77.541 Y95.155 E4.93232
G1 X77.168 Y95.196 E4.94275
G1 X76.947 Y95.196 E4.94890
G1 X76.450 Y95.130 E4.96281
G1 X76.450 Y105.381 E5.24756
G1 X77.041 Y105.385 E5.26395
G1 X77.587 Y105.440 E5.27921
G1 X77.964 Y105.556 E5.29017
G1 X78.301 Y105.720 E5.30059
G1 X78.472 Y105.844 E5.30644
G1 X78.625 Y105.987 E5.31226
G1 X78.881 Y106.331 E5.32417
G1 X79.053 Y106.686 E5.33514
G1 X79.146 Y107.062 E5.34588
G1 X79.150 Y107.445 E5.35651
G1 X79.066 Y107.825 E5.36732
G1 X78.911 Y108.179 E5.37806
G1 X78.698 Y108.492 E5.38858
G1 X78.426 Y108.759 E5.39918
G1 X78.098 Y108.983 E5.41021
G1 X77.667 Y109.198 E5.42359
G1 X77.463 Y109.232 E5.42932
G1 X76.042 Y109.245 E5.46880
G1 X71.863 Y109.232 E5.58489
G1 X71.415 Y109.186 E5.59739
G1 X70.977 Y109.048 E5.61015
G1 X70.755 Y108.941 E5.61699
G1 X70.546 Y108.804 E5.62394
G1 X70.357 Y108.639 E5.63090
G1 X70.191 Y108.450 E5.63790
G1 X69.932 Y108.039 E5.65139
G1 X69.836 Y107.820 E5.65803
G1 X69.760 Y107.584 E5.66490
G1 X69.727 Y107.351 E5.67145
G1 X69.727 Y107.118 E5.67791
G1 X69.759 Y106.885 E5.68446
G1 X69.824 Y106.644 E5.69139
G1 X69.928 Y106.418 E5.69829
G1 X70.070 Y106.208 E5.70534
G1 X70.249 Y106.015 E5.71265
G1 X70.464 Y105.838 E5.72039
G1 X70.765 Y105.651 E5.73023
G1 X71.070 Y105.513 E5.73952
G1 X71.379 Y105.421 E5.74849
G1 X71.689 Y105.381 E5.75717
G1 X72.599 Y105.381 E5.78246
G1 X72.599 Y95.216 E6.06481
G1 X72.249 Y95.224 E6.07456
G1 X71.595 Y95.195 E6.09274
G1 X71.265 Y95.142 E6.10202
G1 X70.954 Y95.040 E6.11111
G1 X70.674 Y94.886 E6.11998
G1 X70.433 Y94.687 E6.12866
G1 X70.223 Y94.450 E6.13747
G1 X70.054 Y94.200 E6.14585
G1 X69.926 Y93.935 E6.15403
G1 X69.840 Y93.651 E6.16226
G1 X69.810 Y93.367 E6.17019
G1 X69.816 Y93.098 E6.17768
G1 X69.857 Y92.835 E6.18507
G1 X69.936 Y92.572 E6.19270
G1 X70.065 Y92.324 E6.20045
G1 X70.222 Y92.103 E6.20798
G1 X70.408 Y91.902 E6.21560
