; generated by Slic3r 0.9.9 on 2013-06-05 at 14:18:59

; layer_height = 0.2
; perimeters = 2
; top_solid_layers = 3
; bottom_solid_layers = 3
; fill_density = 1
; perimeter_speed = 30
; infill_speed = 30
; travel_speed = 50
; nozzle_diameter = 0.5
; filament_diameter = 3
; extrusion_multiplier = 1
; perimeters extrusion width = 0.85mm
; infill extrusion width = 0.24mm
; solid infill extrusion width = 0.85mm
; top infill extrusion width = 0.85mm
; support material extrusion width = 0.85mm

G21 ; set units to millimeters
M107
M104 S220 ; set temperature
G28 ; home all axes
M92 X64.8592 ; calibrate X
M92 Y64.8592  ; calibrate Y
M92 Z2560   ; calibrate Z
M92 E569  ; calibrate E
M551 ; prime extruder 1
M109 S220 ; wait for temperature to be reached
G90 ; use absolute coordinates
G92 E0
M82 ; use absolute distances for extrusion
G1 F1800.000 E-1.00000
G92 E0
G1 Z0.200 F3000.000
G1 X61.810 Y80.137
G1 F1800.000 E1.00000
G1 X63.720 Y78.767 F900.000 E1.05368
G1 X63.940 Y78.627 E1.05963
G1 X64.380 Y78.397 E1.07097
G1 X64.850 Y78.207 E1.08255
G1 X65.330 Y78.067 E1.09396
G1 X65.820 Y77.977 E1.10534
G1 X66.570 Y77.917 E1.12252
G1 X133.420 Y77.917 E2.64909
G1 X134.170 Y77.977 E2.66627
G1 X134.660 Y78.067 E2.67764
G1 X135.140 Y78.207 E2.68906
G1 X135.610 Y78.397 E2.70064
G1 X136.050 Y78.627 E2.71198
G1 X136.270 Y78.767 E2.71793
G1 X138.180 Y80.137 E2.77161
G1 X138.560 Y80.467 E2.78310
G1 X139.060 Y81.037 E2.80041
G1 X139.350 Y81.457 E2.81207
G1 X139.600 Y81.897 E2.82363
G1 X139.710 Y82.127 E2.82945
G1 X139.890 Y82.597 E2.84094
G1 X140.550 Y84.637 E2.88990
G1 X140.700 Y85.447 E2.90871
G1 X140.730 Y85.997 E2.92129
G1 X140.730 Y113.997 E3.56069
G1 X140.700 Y114.547 E3.57327
G1 X140.550 Y115.367 E3.59231
G1 X139.890 Y117.397 E3.64105
G1 X139.600 Y118.087 E3.65814
G1 X139.220 Y118.737 E3.67534
G1 X139.070 Y118.937 E3.68105
G1 X138.740 Y119.327 E3.69271
G1 X138.380 Y119.677 E3.70418
G1 X137.990 Y119.987 E3.71555
G1 X136.290 Y121.217 E3.76347
G1 X136.070 Y121.357 E3.76943
G1 X135.620 Y121.587 E3.78097
G1 X134.920 Y121.857 E3.79810
G1 X134.420 Y121.977 E3.80984
G1 X133.670 Y122.067 E3.82709
G1 X66.570 Y122.077 E5.35936
G1 X65.810 Y122.017 E5.37677
G1 X65.320 Y121.927 E5.38815
G1 X64.830 Y121.777 E5.39985
G1 X64.140 Y121.477 E5.41703
G1 X63.920 Y121.357 E5.42276
G1 X63.500 Y121.077 E5.43428
G1 X61.800 Y119.837 E5.48233
G1 X61.240 Y119.317 E5.49979
G1 X60.910 Y118.927 E5.51145
G1 X60.770 Y118.727 E5.51703
G1 X60.500 Y118.297 E5.52862
G1 X60.180 Y117.607 E5.54599
G1 X59.450 Y115.347 E5.60022
G1 X59.340 Y114.817 E5.61258
G1 X59.280 Y114.267 E5.62522
G1 X59.280 Y85.727 E6.27695
G1 X59.330 Y85.187 E6.28933
G1 X59.380 Y84.917 E6.29560
G1 X59.520 Y84.397 E6.30790
G1 X60.090 Y82.627 E6.35036
G1 X60.270 Y82.147 E6.36207
G1 X60.500 Y81.687 E6.37382
G1 X60.920 Y81.047 E6.39130
G1 X61.250 Y80.657 E6.40296
G1 X61.720 Y80.218 E6.41765
G1 X62.300 Y80.777 F3000.000
G1 X63.990 Y79.557 F900.000 E6.46525
G1 X64.370 Y79.307 E6.47563
G1 X64.580 Y79.197 E6.48105
G1 X65.210 Y78.937 E6.49661
G1 X65.430 Y78.877 E6.50182
G1 X65.880 Y78.777 E6.51234
G1 X66.340 Y78.727 E6.52291
G1 X133.650 Y78.727 E8.05998
G1 X134.110 Y78.777 E8.07055
G1 X134.560 Y78.877 E8.08107
G1 X134.780 Y78.937 E8.08628
G1 X135.410 Y79.197 E8.10184
G1 X135.620 Y79.307 E8.10726
G1 X136.000 Y79.557 E8.11765
G1 X137.690 Y80.777 E8.16524
G1 X138.030 Y81.087 E8.17575
G1 X138.490 Y81.617 E8.19178
G1 X138.850 Y82.207 E8.20756
G1 X139.040 Y82.627 E8.21809
G1 X139.700 Y84.617 E8.26596
G1 X139.780 Y84.887 E8.27239
G1 X139.890 Y85.437 E8.28520
G1 X139.920 Y85.997 E8.29801
G1 X139.920 Y113.997 E8.93741
G1 X139.890 Y114.557 E8.95021
G1 X139.780 Y115.107 E8.96302
G1 X139.120 Y117.137 E9.01177
G1 X138.850 Y117.777 E9.02763
G1 X138.490 Y118.367 E9.04341
G1 X138.200 Y118.717 E9.05379
G1 X137.880 Y119.047 E9.06429
G1 X137.520 Y119.337 E9.07484
G1 X135.830 Y120.557 E9.12244
G1 X135.220 Y120.887 E9.13828
G1 X134.790 Y121.047 E9.14876
G1 X134.110 Y121.217 E9.16476
G1 X133.650 Y121.267 E9.17533
G1 X66.340 Y121.267 E10.71240
G1 X65.880 Y121.217 E10.72297
G1 X65.430 Y121.117 E10.73349
G1 X64.990 Y120.977 E10.74404
G1 X64.560 Y120.787 E10.75477
G1 X63.970 Y120.427 E10.77055
G1 X62.290 Y119.197 E10.81810
G1 X61.940 Y118.887 E10.82878
G1 X61.490 Y118.357 E10.84465
G1 X61.360 Y118.167 E10.84991
G1 X61.130 Y117.757 E10.86065
G1 X61.030 Y117.557 E10.86575
G1 X60.860 Y117.117 E10.87653
G1 X60.290 Y115.357 E10.91877
G1 X60.160 Y114.827 E10.93123
G1 X60.110 Y114.547 E10.93773
G1 X60.090 Y114.277 E10.94391
G1 X60.090 Y85.717 E11.59610
G1 X60.110 Y85.447 E11.60228
G1 X60.290 Y84.637 E11.62123
G1 X60.860 Y82.867 E11.66369
G1 X61.030 Y82.437 E11.67425
G1 X61.360 Y81.817 E11.69029
G1 X61.640 Y81.437 E11.70107
G1 X61.950 Y81.097 E11.71157
G1 X62.210 Y80.857 E11.71964
G1 X62.790 Y81.417 F3000.000
G1 X64.460 Y80.217 F900.000 E11.76660
G1 X64.840 Y79.977 E11.77686
G1 X65.460 Y79.707 E11.79231
G1 X65.900 Y79.597 E11.80266
G1 X66.340 Y79.537 E11.81280
G1 X133.650 Y79.537 E13.34987
G1 X133.870 Y79.557 E13.35492
G1 X134.310 Y79.647 E13.36517
G1 X134.530 Y79.707 E13.37038
G1 X134.950 Y79.877 E13.38073
G1 X135.340 Y80.087 E13.39084
G1 X135.530 Y80.217 E13.39610
G1 X137.210 Y81.437 E13.44351
G1 X137.550 Y81.747 E13.45402
G1 X137.970 Y82.277 E13.46946
G1 X138.190 Y82.677 E13.47989
G1 X138.280 Y82.887 E13.48510
G1 X138.930 Y84.867 E13.53269
G1 X139.050 Y85.317 E13.54333
G1 X139.110 Y85.767 E13.55369
G1 X139.110 Y114.227 E14.20360
G1 X139.050 Y114.687 E14.21419
G1 X139.000 Y114.907 E14.21934
G1 X138.280 Y117.097 E14.27199
G1 X138.190 Y117.307 E14.27720
G1 X137.970 Y117.697 E14.28743
G1 X137.840 Y117.887 E14.29269
G1 X137.700 Y118.067 E14.29789
G1 X137.390 Y118.397 E14.30823
G1 X137.220 Y118.547 E14.31341
G1 X135.360 Y119.897 E14.36589
G1 X134.960 Y120.117 E14.37632
G1 X134.540 Y120.287 E14.38666
G1 X134.100 Y120.397 E14.39702
G1 X133.650 Y120.457 E14.40739
G1 X66.340 Y120.457 E15.94446
G1 X66.120 Y120.437 E15.94950
G1 X65.670 Y120.347 E15.95998
G1 X65.450 Y120.287 E15.96519
G1 X65.030 Y120.117 E15.97554
G1 X64.630 Y119.897 E15.98596
G1 X62.950 Y118.677 E16.03337
G1 X62.430 Y118.227 E16.04908
G1 X62.140 Y117.877 E16.05946
G1 X61.900 Y117.497 E16.06972
G1 X61.800 Y117.297 E16.07483
G1 X61.630 Y116.867 E16.08539
G1 X61.000 Y114.897 E16.13262
G1 X60.910 Y114.447 E16.14310
G1 X60.890 Y114.227 E16.14814
G1 X60.890 Y85.767 E16.79804
G1 X60.950 Y85.327 E16.80818
G1 X61.060 Y84.887 E16.81854
G1 X61.630 Y83.117 E16.86100
G1 X61.780 Y82.727 E16.87055
G1 X61.970 Y82.357 E16.88004
G1 X62.210 Y82.017 E16.88955
G1 X62.480 Y81.697 E16.89911
G1 X62.699 Y81.497 E16.90588
G1 X63.270 Y82.067 F3000.000
G1 X64.930 Y80.867 F900.000 E16.95266
G1 X65.260 Y80.667 E16.96147
G1 X65.620 Y80.507 E16.97047
G1 X65.990 Y80.397 E16.97928
G1 X66.570 Y80.337 E16.99260
G1 X133.420 Y80.337 E18.51916
G1 X134.000 Y80.397 E18.53248
G1 X134.550 Y80.577 E18.54569
G1 X134.900 Y80.757 E18.55468
G1 X136.560 Y81.947 E18.60132
G1 X136.860 Y82.197 E18.61024
G1 X137.130 Y82.487 E18.61929
G1 X137.350 Y82.817 E18.62834
G1 X137.440 Y82.987 E18.63274
G1 X137.590 Y83.357 E18.64185
G1 X138.220 Y85.297 E18.68843
G1 X138.260 Y85.467 E18.69242
G1 X138.300 Y85.817 E18.70047
G1 X138.310 Y113.997 E19.34398
G1 X138.260 Y114.527 E19.35613
G1 X138.220 Y114.707 E19.36034
G1 X137.590 Y116.637 E19.40670
G1 X137.440 Y116.997 E19.41561
G1 X137.240 Y117.337 E19.42462
G1 X136.870 Y117.777 E19.43775
G1 X136.570 Y118.027 E19.44666
G1 X134.910 Y119.227 E19.49344
G1 X134.740 Y119.327 E19.49794
G1 X134.380 Y119.487 E19.50694
G1 X134.190 Y119.547 E19.51149
G1 X133.810 Y119.627 E19.52036
G1 X133.420 Y119.657 E19.52929
G1 X66.570 Y119.657 E21.05585
G1 X65.990 Y119.597 E21.06917
G1 X65.610 Y119.487 E21.07820
G1 X65.250 Y119.327 E21.08720
G1 X64.920 Y119.117 E21.09613
G1 X63.420 Y118.027 E21.13847
G1 X62.980 Y117.637 E21.15190
G1 X62.740 Y117.327 E21.16085
G1 X62.550 Y116.987 E21.16975
G1 X62.400 Y116.617 E21.17886
G1 X61.780 Y114.697 E21.22494
G1 X61.710 Y114.347 E21.23309
G1 X61.700 Y114.177 E21.23698
G1 X61.690 Y85.997 E21.88049
G1 X61.710 Y85.647 E21.88849
G1 X61.780 Y85.307 E21.89642
G1 X62.470 Y83.177 E21.94755
G1 X62.740 Y82.657 E21.96093
G1 X62.990 Y82.347 E21.97002
G1 X63.184 Y82.152 E21.97630
G1 F1800.000 E20.97630
G92 E0
G1 X70.729 Y92.104 F3000.000
G1 F1800.000 E1.00000
G1 X71.352 Y91.748 F900.000 E1.01639
G1 X72.038 Y91.540 E1.03276
G1 X72.755 Y91.475 E1.04920
G1 X73.468 Y91.537 E1.06555
G1 X74.146 Y91.737 E1.08169
G1 X74.764 Y92.083 E1.09787
G1 X75.283 Y92.560 E1.11397
G1 X75.697 Y93.143 E1.13029
G1 X75.984 Y93.791 E1.14648
G1 X76.148 Y94.484 E1.16274
G1 X76.196 Y95.169 E1.17842
G1 X76.196 Y110.178 E1.52117
G1 X76.147 Y110.852 E1.53660
G1 X75.980 Y111.537 E1.55270
G1 X75.688 Y112.176 E1.56873
G1 X75.282 Y112.725 E1.58432
G1 X74.784 Y113.203 E1.60008
G1 X74.164 Y113.566 E1.61651
G1 X73.478 Y113.777 E1.63289
G1 X72.760 Y113.842 E1.64936
G1 X72.047 Y113.780 E1.66569
G1 X71.369 Y113.583 E1.68182
G1 X70.749 Y113.244 E1.69796
G1 X70.207 Y112.765 E1.71447
G1 X69.800 Y112.185 E1.73065
G1 X69.519 Y111.555 E1.74641
G1 X69.352 Y110.878 E1.76233
G1 X69.289 Y110.189 E1.77812
G1 X69.289 Y95.168 E2.12114
G1 X69.338 Y94.494 E2.13658
G1 X69.504 Y93.808 E2.15270
G1 X69.791 Y93.167 E2.16873
G1 X70.203 Y92.590 E2.18493
G1 X70.640 Y92.186 E2.19851
G1 X71.209 Y92.759 F3000.000
G1 X71.673 Y92.494 F450.000 E2.21072
G1 X72.193 Y92.336 E2.22311
G1 X72.756 Y92.286 E2.23604
G1 X73.318 Y92.334 E2.24892
G1 X73.831 Y92.485 E2.26112
G1 X74.287 Y92.741 E2.27307
G1 X74.674 Y93.097 E2.28508
G1 X74.992 Y93.544 E2.29760
G1 X75.216 Y94.050 E2.31023
G1 X75.347 Y94.607 E2.32330
G1 X75.389 Y95.198 E2.33683
G1 X75.389 Y110.149 E2.67826
G1 X75.347 Y110.727 E2.69148
G1 X75.214 Y111.271 E2.70428
G1 X74.989 Y111.764 E2.71665
G1 X74.674 Y112.190 E2.72875
G1 X74.294 Y112.555 E2.74077
G1 X73.837 Y112.823 E2.75288
G1 X73.321 Y112.981 E2.76519
G1 X72.758 Y113.031 E2.77811
G1 X72.196 Y112.983 E2.79099
G1 X71.679 Y112.833 E2.80328
G1 X71.216 Y112.579 E2.81534
G1 X70.813 Y112.223 E2.82763
G1 X70.505 Y111.785 E2.83984
G1 X70.285 Y111.292 E2.85218
G1 X70.150 Y110.744 E2.86507
G1 X70.096 Y110.153 E2.87862
G1 X70.096 Y95.197 E3.22014
G1 X70.138 Y94.618 E3.23340
G1 X70.271 Y94.069 E3.24629
G1 X70.494 Y93.570 E3.25878
G1 X70.811 Y93.126 E3.27124
G1 X71.120 Y92.841 E3.28083
G1 X71.171 Y92.226 F3000.000
G1 X75.175 Y90.757
G1 X75.081 Y89.978 F900.000 E3.29875
G1 X75.147 Y89.307 E3.31415
G1 X75.352 Y88.679 E3.32922
G1 X75.693 Y88.115 E3.34427
G1 X76.141 Y87.644 E3.35912
G1 X76.664 Y87.262 E3.37391
G1 X77.268 Y86.989 E3.38904
G1 X77.913 Y86.834 E3.40419
G1 X78.572 Y86.787 E3.41929
G1 X79.031 Y86.810 E3.42978
G1 X79.472 Y86.878 E3.43998
G1 X79.908 Y86.989 E3.45024
G1 X80.332 Y87.142 E3.46053
G1 X80.739 Y87.327 E3.47074
G1 X81.128 Y87.544 E3.48092
G1 X81.501 Y87.792 E3.49115
G1 X81.858 Y88.071 E3.50150
G1 X82.196 Y88.379 E3.51194
G1 X82.512 Y88.714 E3.52245
G1 X82.802 Y89.076 E3.53305
G1 X83.062 Y89.453 E3.54349
G1 X83.296 Y89.839 E3.55381
G1 X83.504 Y90.256 E3.56445
G1 X83.674 Y90.690 E3.57508
G1 X83.833 Y91.218 E3.58767
G1 X83.961 Y91.817 E3.60167
G1 X84.038 Y92.577 E3.61911
G1 X84.047 Y97.768 E3.73765
G1 X84.461 Y97.846 E3.74728
G1 X85.008 Y96.446 E3.78160
G1 X85.376 Y95.721 E3.80017
G1 X85.797 Y95.045 E3.81837
G1 X86.277 Y94.413 E3.83648
G1 X86.817 Y93.820 E3.85481
G1 X87.428 Y93.281 E3.87340
G1 X88.079 Y92.807 E3.89179
G1 X88.774 Y92.395 E3.91025
G1 X89.519 Y92.040 E3.92909
G1 X90.317 Y91.756 E3.94843
G1 X91.136 Y91.552 E3.96769
G1 X91.974 Y91.431 E3.98703
G1 X92.828 Y91.391 E4.00656
G1 X93.680 Y91.431 E4.02605
G1 X94.515 Y91.553 E4.04530
G1 X95.327 Y91.758 E4.06444
G1 X96.119 Y92.045 E4.08367
G1 X96.866 Y92.415 E4.10271
G1 X97.556 Y92.835 E4.12116
G1 X98.202 Y93.312 E4.13948
G1 X98.810 Y93.850 E4.15804
G1 X99.362 Y94.458 E4.17678
G1 X99.848 Y95.102 E4.19521
G1 X100.269 Y95.791 E4.21364
G1 X100.623 Y96.517 E4.23209
G1 X101.150 Y97.889 E4.26564
G1 X101.373 Y97.877 E4.27075
G1 X101.729 Y96.550 E4.30213
G1 X101.908 Y96.028 E4.31472
G1 X102.121 Y95.537 E4.32695
G1 X102.374 Y95.072 E4.33902
G1 X102.932 Y94.274 E4.36128
G1 X103.584 Y93.552 E4.38348
G1 X104.322 Y92.918 E4.40571
G1 X105.153 Y92.367 E4.42847
G1 X106.055 Y91.939 E4.45128
G1 X106.975 Y91.634 E4.47341
G1 X107.921 Y91.451 E4.49541
G1 X108.882 Y91.390 E4.51739
G1 X109.719 Y91.436 E4.53653
G1 X110.535 Y91.575 E4.55544
G1 X111.331 Y91.804 E4.57437
G1 X112.302 Y92.205 E4.59834
G1 X111.748 Y91.019 E4.62823
G1 X111.637 Y90.680 E4.63637
G1 X111.570 Y90.331 E4.64449
G1 X111.546 Y89.958 E4.65303
G1 X111.602 Y89.338 E4.66724
G1 X111.780 Y88.729 E4.68172
G1 X112.080 Y88.168 E4.69625
G1 X112.487 Y87.677 E4.71081
G1 X112.978 Y87.270 E4.72538
G1 X113.539 Y86.970 E4.73991
G1 X114.148 Y86.792 E4.75441
G1 X114.767 Y86.737 E4.76859
G1 X115.200 Y86.764 E4.77850
G1 X115.611 Y86.849 E4.78809
G1 X116.007 Y86.992 E4.79769
G1 X116.369 Y87.189 E4.80712
G1 X116.694 Y87.425 E4.81629
G1 X117.004 Y87.697 E4.82568
G1 X117.313 Y88.006 E4.83569
G1 X122.717 Y93.892 E5.01816
G1 X123.885 Y95.281 E5.05958
G1 X125.949 Y92.783 E5.13357
G1 X126.252 Y92.462 E5.14365
G1 X126.553 Y92.181 E5.15307
G1 X126.901 Y91.904 E5.16323
G1 X127.308 Y91.694 E5.17368
G1 X127.703 Y91.557 E5.18323
G1 X128.112 Y91.474 E5.19277
G1 X128.546 Y91.447 E5.20269
G1 X129.156 Y91.504 E5.21668
G1 X129.760 Y91.684 E5.23106
G1 X130.311 Y91.985 E5.24541
G1 X130.804 Y92.396 E5.26006
G1 X131.209 Y92.902 E5.27486
G1 X131.502 Y93.455 E5.28916
G1 X131.680 Y94.057 E5.30349
G1 X131.736 Y94.668 E5.31749
G1 X131.712 Y95.041 E5.32605
G1 X131.645 Y95.391 E5.33417
G1 X131.535 Y95.728 E5.34228
G1 X131.405 Y96.007 E5.34929
G1 X131.257 Y96.297 E5.35674
G1 X131.045 Y96.626 E5.36567
G1 X130.797 Y96.952 E5.37502
G1 X128.095 Y100.108 E5.46989
G1 X130.136 Y102.322 E5.53865
G1 X130.657 Y102.955 E5.55737
G1 X130.870 Y103.267 E5.56600
G1 X131.182 Y103.852 E5.58116
G1 X131.308 Y104.202 E5.58964
G1 X131.387 Y104.570 E5.59824
G1 X131.414 Y104.960 E5.60715
G1 X131.355 Y105.590 E5.62162
G1 X131.165 Y106.209 E5.63640
G1 X130.848 Y106.773 E5.65118
G1 X130.443 Y107.238 E5.66526
G1 X129.536 Y108.032 E5.69278
G1 X131.085 Y108.386 E5.72906
G1 X132.344 Y111.000 E5.79532
G1 X131.085 Y113.614 E5.86158
G1 X128.256 Y114.260 E5.92784
G1 X125.987 Y112.451 E5.99410
G1 X125.987 Y109.549 E6.06036
G1 X127.666 Y108.211 E6.10937
G1 X126.958 Y107.965 E6.12647
G1 X126.573 Y107.768 E6.13635
G1 X126.235 Y107.522 E6.14589
G1 X125.927 Y107.251 E6.15526
G1 X125.617 Y106.942 E6.16526
G1 X123.925 Y105.008 E6.22393
G1 X122.616 Y106.614 E6.27126
G1 X121.990 Y107.274 E6.29204
G1 X121.685 Y107.540 E6.30127
G1 X121.386 Y107.753 E6.30966
G1 X121.050 Y107.947 E6.31851
G1 X120.653 Y108.097 E6.32820
G1 X120.240 Y108.184 E6.33783
G1 X119.808 Y108.211 E6.34772
G1 X119.197 Y108.159 E6.36172
G1 X118.596 Y107.992 E6.37596
G1 X118.040 Y107.709 E6.39022
G1 X117.549 Y107.323 E6.40447
G1 X117.140 Y106.859 E6.41861
G1 X116.832 Y106.325 E6.43268
G1 X116.506 Y105.309 E6.45705
G1 X115.856 Y106.673 E6.49154
G1 X115.476 Y107.166 E6.50576
G1 X115.026 Y107.593 E6.51993
G1 X114.465 Y107.926 E6.53484
G1 X113.845 Y108.122 E6.54968
G1 X113.201 Y108.184 E6.56445
G1 X112.553 Y108.126 E6.57931
G1 X111.935 Y107.945 E6.59400
G1 X111.368 Y107.630 E6.60882
G1 X110.886 Y107.198 E6.62361
G1 X110.508 Y106.679 E6.63826
G1 X110.241 Y106.100 E6.65284
G1 X110.083 Y105.482 E6.66739
G1 X110.022 Y104.858 E6.68172
G1 X110.022 Y99.073 E6.81381
G1 X109.993 Y98.725 E6.82178
G1 X109.926 Y98.478 E6.82763
G1 X109.819 Y98.263 E6.83312
G1 X109.665 Y98.061 E6.83892
G1 X109.489 Y97.903 E6.84433
G1 X109.313 Y97.803 E6.84894
G1 X109.113 Y97.741 E6.85373
G1 X108.845 Y97.717 E6.85987
G1 X108.541 Y97.762 E6.86690
G1 X108.379 Y97.822 E6.87083
G1 X108.234 Y97.900 E6.87459
G1 X108.106 Y98.000 E6.87830
G1 X107.987 Y98.123 E6.88222
G1 X107.821 Y98.384 E6.88927
G1 X107.710 Y98.793 E6.89895
G1 X107.678 Y99.177 E6.90775
G1 X107.664 Y99.879 E6.92378
G1 X107.664 Y104.845 E7.03718
G1 X107.618 Y105.454 E7.05114
G1 X107.459 Y106.084 E7.06597
G1 X107.178 Y106.673 E7.08087
G1 X106.797 Y107.167 E7.09513
G1 X106.341 Y107.597 E7.10944
G1 X105.771 Y107.930 E7.12452
G1 X105.144 Y108.123 E7.13949
