; generated by Slic3r 0.9.9 on 2013-04-18 at 16:12:54

; layer_height = 0.36
; perimeters = 2
; top_solid_layers = 3
; bottom_solid_layers = 3
; fill_density = 0.6
; perimeter_speed = 60
; infill_speed = 70
; travel_speed = 100
; nozzle_diameter = 0.5
; filament_diameter = 3
; extrusion_multiplier = 0.8
; perimeters extrusion width = 0.56mm
; infill extrusion width = 0.43mm
; solid infill extrusion width = 0.56mm
; top infill extrusion width = 0.56mm

G21 ; set units to millimeters
M107
M104 S220 ; set temperature
G28 ; home all axes
M92 X64.8592 ; calibrate X
M92 Y64.8592  ; calibrate Y
M92 Z2560   ; calibrate Z
M92 E569  ; calibrate E
M551 ; prime extruder 1
M109 S220 ; wait for temperature to be reached
G90 ; use absolute coordinates
G92 E0
M82 ; use absolute distances for extrusion
G1 F1800.000 E-1.00000
G92 E0
G1 Z0.360 F6000.000
G1 X73.212 Y79.260
G1 F1800.000 E1.00000
G1 X73.402 Y79.090 F1800.000 E1.00567
G1 X73.822 Y78.770 E1.01740
G1 X74.382 Y78.440 E1.03184
G1 X74.902 Y78.169 E1.04486
G1 X76.392 Y77.540 E1.08081
G1 X76.712 Y77.440 E1.08826
G1 X77.292 Y77.300 E1.10152
G1 X77.932 Y77.190 E1.11595
G1 X78.362 Y77.169 E1.12552
G1 X87.272 Y77.139 E1.32352
G1 X88.772 Y77.219 E1.35690
G1 X89.052 Y77.260 E1.36319
G1 X89.592 Y77.389 E1.37553
G1 X91.302 Y77.990 E1.41580
G1 X105.102 Y83.160 E1.74328
G1 X121.562 Y90.010 E2.13947
G1 X123.612 Y90.880 E2.18896
G1 X125.122 Y91.620 E2.22633
G1 X125.612 Y91.960 E2.23958
G1 X127.062 Y93.090 E2.28043
G1 X127.422 Y93.430 E2.29144
G1 X127.882 Y94.010 E2.30789
G1 X128.012 Y94.210 E2.31319
G1 X128.242 Y94.650 E2.32422
G1 X129.172 Y96.609 E2.37243
G1 X129.262 Y96.859 E2.37833
G1 X129.402 Y97.359 E2.38987
G1 X129.492 Y97.880 E2.40160
G1 X129.522 Y98.400 E2.41317
G1 X129.492 Y98.950 E2.42542
G1 X129.462 Y99.200 E2.43101
G1 X129.352 Y99.690 E2.44217
G1 X129.072 Y100.710 E2.46568
G1 X128.912 Y101.200 E2.47713
G1 X128.692 Y101.660 E2.48846
G1 X128.432 Y102.100 E2.49982
G1 X127.442 Y103.570 E2.53920
G1 X127.022 Y104.109 E2.55441
G1 X112.672 Y119.929 E3.02904
G1 X112.342 Y120.260 E3.03941
G1 X111.932 Y120.630 E3.05169
G1 X111.512 Y120.970 E3.06370
G1 X111.282 Y121.120 E3.06980
G1 X110.812 Y121.380 E3.08173
G1 X109.112 Y122.200 E3.12368
G1 X108.572 Y122.419 E3.13663
G1 X108.292 Y122.510 E3.14317
G1 X108.002 Y122.570 E3.14975
G1 X106.342 Y122.809 E3.18702
G1 X106.102 Y122.840 E3.19240
G1 X105.612 Y122.859 E3.20330
G1 X105.372 Y122.850 E3.20863
G1 X78.142 Y119.570 E3.81812
G1 X77.452 Y119.440 E3.83372
G1 X75.602 Y118.929 E3.87637
G1 X75.102 Y118.760 E3.88810
G1 X74.852 Y118.650 E3.89417
G1 X74.382 Y118.400 E3.90600
G1 X73.742 Y117.919 E3.92378
G1 X72.922 Y117.200 E3.94803
G1 X72.552 Y116.840 E3.95950
G1 X72.072 Y116.220 E3.97693
G1 X71.682 Y115.499 E3.99512
G1 X71.392 Y114.760 E4.01278
G1 X70.602 Y112.150 E4.07338
G1 X70.482 Y111.329 E4.09180
G1 X70.472 Y86.749 E4.63802
G1 X70.542 Y84.510 E4.68782
G1 X70.632 Y83.919 E4.70109
G1 X70.702 Y83.639 E4.70750
G1 X71.212 Y82.160 E4.74229
G1 X71.442 Y81.609 E4.75553
G1 X71.582 Y81.350 E4.76210
G1 X71.912 Y80.850 E4.77541
G1 X72.682 Y79.840 E4.80363
G1 X73.154 Y79.317 E4.81928
G1 X73.472 Y79.770 F6000.000
G1 X73.872 Y79.410 F1800.000 E4.83124
G1 X74.092 Y79.249 E4.83728
G1 X74.662 Y78.910 E4.85203
G1 X75.122 Y78.669 E4.86356
G1 X76.302 Y78.160 E4.89213
G1 X76.712 Y78.010 E4.90183
G1 X77.412 Y77.829 E4.91789
G1 X77.792 Y77.760 E4.92648
G1 X78.172 Y77.719 E4.93497
G1 X87.282 Y77.690 E5.13741
G1 X88.712 Y77.760 E5.16923
G1 X89.432 Y77.910 E5.18557
G1 X91.112 Y78.499 E5.22514
G1 X104.912 Y83.669 E5.55262
G1 X121.322 Y90.499 E5.94761
G1 X123.392 Y91.380 E5.99760
G1 X124.692 Y92.010 E6.02970
G1 X125.142 Y92.279 E6.04136
G1 X126.732 Y93.520 E6.08617
G1 X127.232 Y94.049 E6.10236
G1 X127.382 Y94.249 E6.10792
G1 X127.642 Y94.660 E6.11871
G1 X128.662 Y96.820 E6.17179
G1 X128.872 Y97.480 E6.18718
G1 X128.952 Y97.940 E6.19756
G1 X128.972 Y98.169 E6.20269
G1 X128.972 Y98.660 E6.21357
G1 X128.882 Y99.329 E6.22860
G1 X128.542 Y100.570 E6.25717
G1 X128.372 Y101.079 E6.26912
G1 X128.252 Y101.329 E6.27528
G1 X127.982 Y101.799 E6.28732
G1 X126.992 Y103.269 E6.32671
G1 X126.622 Y103.739 E6.34000
G1 X112.272 Y119.559 E6.81464
G1 X111.382 Y120.380 E6.84153
G1 X110.992 Y120.660 E6.85220
G1 X110.582 Y120.889 E6.86265
G1 X108.882 Y121.709 E6.90459
G1 X108.392 Y121.900 E6.91627
G1 X107.892 Y122.040 E6.92781
G1 X106.052 Y122.299 E6.96910
G1 X105.622 Y122.309 E6.97866
G1 X105.192 Y122.279 E6.98824
G1 X78.212 Y119.029 E7.59213
G1 X77.602 Y118.910 E7.60594
G1 X75.752 Y118.400 E7.64859
G1 X75.302 Y118.249 E7.65913
G1 X74.872 Y118.049 E7.66967
G1 X74.282 Y117.660 E7.68539
G1 X73.082 Y116.609 E7.72082
G1 X72.572 Y115.989 E7.73866
G1 X72.172 Y115.260 E7.75716
G1 X71.912 Y114.600 E7.77292
G1 X71.132 Y112.029 E7.83260
G1 X71.082 Y111.790 E7.83805
G1 X71.032 Y111.299 E7.84900
G1 X71.022 Y86.760 E8.39433
G1 X71.082 Y84.549 E8.44346
G1 X71.162 Y84.040 E8.45493
G1 X71.222 Y83.790 E8.46065
G1 X71.722 Y82.340 E8.49473
G1 X71.932 Y81.850 E8.50658
G1 X72.052 Y81.620 E8.51234
G1 X72.342 Y81.180 E8.52405
G1 X73.112 Y80.169 E8.55227
G1 X73.417 Y79.830 E8.56242
G1 X73.862 Y80.150 F6000.000
G1 X74.212 Y79.840 F1800.000 E8.57281
G1 X74.402 Y79.700 E8.57805
G1 X74.942 Y79.380 E8.59200
G1 X75.342 Y79.169 E8.60204
G1 X76.632 Y78.609 E8.63329
G1 X76.872 Y78.529 E8.63891
G1 X77.542 Y78.359 E8.65427
G1 X78.032 Y78.279 E8.66531
G1 X78.372 Y78.260 E8.67287
G1 X87.282 Y78.230 E8.87088
G1 X88.652 Y78.309 E8.90137
G1 X89.282 Y78.430 E8.91562
G1 X90.922 Y79.010 E8.95428
G1 X104.722 Y84.180 E9.28176
G1 X121.112 Y90.999 E9.67626
G1 X123.182 Y91.880 E9.72624
G1 X124.432 Y92.490 E9.75715
G1 X124.822 Y92.730 E9.76733
G1 X126.392 Y93.950 E9.81151
G1 X126.732 Y94.299 E9.82235
G1 X126.882 Y94.490 E9.82773
G1 X127.022 Y94.690 E9.83316
G1 X127.262 Y95.109 E9.84391
G1 X128.172 Y97.049 E9.89153
G1 X128.312 Y97.490 E9.90179
G1 X128.402 Y97.940 E9.91198
G1 X128.432 Y98.400 E9.92223
G1 X128.412 Y98.829 E9.93179
G1 X128.302 Y99.400 E9.94470
G1 X127.952 Y100.650 E9.97354
G1 X127.762 Y101.079 E9.98399
G1 X127.532 Y101.489 E9.99443
G1 X126.542 Y102.960 E10.03382
G1 X126.212 Y103.370 E10.04551
G1 X111.862 Y119.190 E10.52015
G1 X111.612 Y119.450 E10.52817
G1 X111.202 Y119.820 E10.54044
G1 X110.872 Y120.079 E10.54978
G1 X110.522 Y120.299 E10.55896
G1 X108.642 Y121.220 E10.60548
G1 X108.222 Y121.389 E10.61554
G1 X107.562 Y121.540 E10.63059
G1 X106.192 Y121.730 E10.66132
G1 X105.632 Y121.769 E10.67380
G1 X105.442 Y121.760 E10.67803
G1 X78.282 Y118.489 E11.28594
G1 X77.742 Y118.389 E11.29814
G1 X75.672 Y117.809 E11.34591
G1 X75.032 Y117.510 E11.36162
G1 X74.642 Y117.249 E11.37204
G1 X73.472 Y116.220 E11.40668
G1 X73.312 Y116.049 E11.41187
G1 X73.022 Y115.679 E11.42231
G1 X72.662 Y115.019 E11.43902
G1 X72.432 Y114.450 E11.45268
G1 X71.662 Y111.900 E11.51187
G1 X71.572 Y111.260 E11.52623
G1 X71.562 Y86.779 E12.07023
G1 X71.612 Y84.829 E12.11358
G1 X71.652 Y84.380 E12.12362
G1 X71.752 Y83.930 E12.13386
G1 X72.322 Y82.309 E12.17203
G1 X72.522 Y81.900 E12.18217
G1 X72.652 Y81.700 E12.18747
G1 X73.552 Y80.510 E12.22062
G1 X73.806 Y80.209 E12.22936
G1 X74.132 Y80.650 F6000.000
G1 X74.482 Y80.320 F1800.000 E12.24005
G1 X74.672 Y80.180 E12.24530
G1 X75.212 Y79.850 E12.25936
G1 X75.552 Y79.669 E12.26791
G1 X76.932 Y79.079 E12.30126
G1 X77.662 Y78.889 E12.31803
G1 X78.092 Y78.820 E12.32771
G1 X87.452 Y78.779 E12.53571
G1 X88.412 Y78.829 E12.55707
G1 X88.772 Y78.870 E12.56512
G1 X89.302 Y79.010 E12.57730
G1 X90.692 Y79.510 E12.61013
G1 X104.592 Y84.719 E12.94000
G1 X120.922 Y91.510 E13.33301
G1 X122.972 Y92.380 E13.38250
G1 X124.062 Y92.910 E13.40943
G1 X124.292 Y93.029 E13.41520
G1 X124.502 Y93.169 E13.42081
G1 X126.032 Y94.359 E13.46388
G1 X126.182 Y94.499 E13.46844
G1 X126.442 Y94.820 E13.47760
G1 X126.672 Y95.160 E13.48672
G1 X127.672 Y97.290 E13.53901
G1 X127.752 Y97.499 E13.54401
G1 X127.852 Y97.950 E13.55425
G1 X127.882 Y98.609 E13.56893
G1 X127.842 Y98.930 E13.57610
G1 X127.772 Y99.260 E13.58360
G1 X127.492 Y100.279 E13.60710
G1 X127.362 Y100.660 E13.61603
G1 X127.282 Y100.840 E13.62040
G1 X127.072 Y101.190 E13.62947
G1 X126.082 Y102.660 E13.66886
G1 X125.812 Y103.010 E13.67868
G1 X111.462 Y118.829 E14.15332
G1 X110.702 Y119.529 E14.17628
G1 X110.562 Y119.639 E14.18024
G1 X110.262 Y119.820 E14.18801
G1 X108.402 Y120.720 E14.23393
G1 X108.052 Y120.870 E14.24239
G1 X107.672 Y120.970 E14.25112
G1 X105.962 Y121.209 E14.28950
G1 X105.642 Y121.220 E14.29661
G1 X105.322 Y121.200 E14.30374
G1 X78.342 Y117.950 E14.90763
G1 X77.892 Y117.859 E14.91782
G1 X75.822 Y117.279 E14.96560
G1 X75.392 Y117.090 E14.97604
G1 X75.002 Y116.840 E14.98634
G1 X74.822 Y116.690 E14.99154
G1 X73.832 Y115.809 E15.02098
G1 X73.522 Y115.440 E15.03170
G1 X73.392 Y115.239 E15.03701
G1 X73.152 Y114.769 E15.04873
G1 X72.952 Y114.290 E15.06029
G1 X72.192 Y111.769 E15.11878
G1 X72.112 Y111.230 E15.13091
G1 X72.112 Y86.790 E15.67402
G1 X72.172 Y84.650 E15.72160
G1 X72.192 Y84.460 E15.72584
G1 X72.272 Y84.079 E15.73447
G1 X72.752 Y82.700 E15.76694
G1 X72.902 Y82.340 E15.77561
G1 X73.102 Y81.999 E15.78437
G1 X74.081 Y80.714 E15.82029
G1 X74.542 Y81.010 F6000.000
G1 X74.982 Y80.620 F1800.000 E15.83336
G1 X75.772 Y80.169 E15.85356
G1 X76.952 Y79.660 E15.88213
G1 X77.202 Y79.570 E15.88803
G1 X77.792 Y79.419 E15.90156
G1 X78.372 Y79.350 E15.91454
G1 X87.282 Y79.320 E16.11254
G1 X88.382 Y79.380 E16.13702
G1 X88.682 Y79.410 E16.14372
G1 X89.112 Y79.520 E16.15359
G1 X90.502 Y80.020 E16.18641
G1 X104.822 Y85.400 E16.52635
G1 X120.692 Y92.010 E16.90839
G1 X122.872 Y92.940 E16.96105
G1 X124.012 Y93.499 E16.98928
G1 X124.272 Y93.680 E16.99631
G1 X125.532 Y94.660 E17.03178
G1 X125.832 Y94.930 E17.04075
G1 X125.962 Y95.079 E17.04516
G1 X126.182 Y95.400 E17.05379
G1 X127.092 Y97.309 E17.10080
G1 X127.232 Y97.660 E17.10918
G1 X127.272 Y97.840 E17.11328
G1 X127.312 Y98.029 E17.11759
G1 X127.342 Y98.440 E17.12673
G1 X127.282 Y98.980 E17.13880
G1 X126.922 Y100.290 E17.16899
G1 X126.862 Y100.450 E17.17279
G1 X126.712 Y100.739 E17.18005
G1 X125.632 Y102.350 E17.22313
G1 X125.412 Y102.639 E17.23122
G1 X111.062 Y118.459 E17.70586
G1 X110.472 Y119.010 E17.72378
G1 X110.242 Y119.190 E17.73027
G1 X109.992 Y119.350 E17.73687
G1 X108.022 Y120.299 E17.78547
G1 X107.722 Y120.400 E17.79250
G1 X107.412 Y120.459 E17.79951
G1 X105.912 Y120.669 E17.83317
G1 X105.652 Y120.679 E17.83895
G1 X105.392 Y120.660 E17.84475
G1 X78.412 Y117.410 E18.44864
G1 X78.032 Y117.329 E18.45727
G1 X76.002 Y116.769 E18.50406
G1 X75.652 Y116.609 E18.51261
G1 X75.332 Y116.400 E18.52112
G1 X74.362 Y115.559 E18.54964
G1 X74.222 Y115.429 E18.55388
G1 X73.972 Y115.130 E18.56256
G1 X73.762 Y114.790 E18.57144
G1 X73.632 Y114.529 E18.57790
G1 X73.472 Y114.130 E18.58747
G1 X72.762 Y111.790 E18.64181
G1 X72.692 Y111.499 E18.64844
G1 X72.652 Y111.049 E18.65848
G1 X72.652 Y86.870 E19.19582
G1 X72.712 Y84.700 E19.24406
G1 X72.802 Y84.230 E19.25469
G1 X73.392 Y82.579 E19.29363
G1 X73.552 Y82.309 E19.30061
G1 X74.493 Y81.075 E19.33510
G1 F1800.000 E18.33510
G92 E0
G1 X76.831 Y84.268 F6000.000
G1 F1800.000 E1.00000
G1 X78.363 Y83.134 F900.000 E1.04236
G1 X79.013 Y83.388 E1.05787
G1 X79.134 Y83.478 E1.06121
G1 X79.562 Y84.128 E1.07851
G1 X79.576 Y85.857 E1.11693
G1 X79.325 Y86.433 E1.13090
G1 X79.244 Y86.528 E1.13367
G1 X79.233 Y86.658 E1.13657
G1 X79.372 Y88.443 E1.17635
G1 X79.470 Y88.618 E1.18081
G1 X83.141 Y88.894 E1.26263
G1 X85.588 Y89.158 E1.31732
G1 X85.348 Y88.401 E1.33496
G1 X85.450 Y87.688 E1.35097
G1 X85.976 Y87.196 E1.36697
G1 X86.518 Y87.032 E1.37954
G1 X86.349 Y86.542 E1.39105
G1 X86.210 Y84.774 E1.43048
G1 X86.473 Y83.973 E1.44920
G1 X86.513 Y83.892 E1.45120
G1 X87.071 Y83.317 E1.46900
G1 X87.949 Y83.104 E1.48909
G1 X88.084 Y83.104 E1.49208
G1 X88.994 Y83.444 E1.51366
G1 X90.139 Y85.189 E1.56004
G1 X90.170 Y85.516 E1.56735
G1 X90.411 Y85.637 E1.57335
G1 X92.203 Y86.658 E1.61919
G1 X93.887 Y87.861 E1.66517
G1 X95.445 Y89.219 E1.71109
G1 X96.866 Y90.720 E1.75703
G1 X98.164 Y92.388 E1.80401
G1 X98.230 Y92.441 E1.80588
G1 X98.512 Y92.898 E1.81781
G1 X98.943 Y93.264 E1.83037
G1 X99.768 Y93.155 E1.84886
G1 X99.846 Y93.107 E1.85090
G1 X99.928 Y92.860 E1.85669
G1 X100.301 Y92.656 E1.86612
G1 X100.744 Y92.349 E1.87810
G1 X101.104 Y91.619 E1.89619
G1 X101.115 Y91.531 E1.89818
G1 X101.018 Y91.359 E1.90256
G1 X100.872 Y90.640 E1.91886
G1 X100.872 Y90.524 E1.92145
G1 X101.163 Y89.759 E1.93963
G1 X101.753 Y89.183 E1.95794
G1 X101.886 Y89.095 E1.96149
G1 X102.752 Y88.833 E1.98161
G1 X103.428 Y88.894 E1.99669
G1 X103.982 Y89.298 E2.01192
G1 X104.221 Y89.723 E2.02276
G1 X104.301 Y90.105 E2.03143
G1 X104.315 Y90.498 E2.04018
G1 X104.125 Y91.214 E2.05664
G1 X104.837 Y91.147 E2.07255
G1 X106.983 Y91.182 E2.12023
G1 X109.088 Y91.668 E2.16823
G1 X111.048 Y92.579 E2.21628
G1 X112.742 Y93.901 E2.26402
G1 X112.863 Y94.022 E2.26783
G1 X115.127 Y94.404 E2.31885
G1 X117.209 Y94.886 E2.36632
G1 X119.253 Y95.518 E2.41388
G1 X121.275 Y96.349 E2.46247
G1 X122.749 Y97.266 E2.50102
G1 X123.250 Y97.782 E2.51702
G1 X123.539 Y98.496 E2.53413
G1 X122.625 Y100.043 E2.57407
G1 X120.752 Y100.977 E2.62057
G1 X118.855 Y101.666 E2.66542
G1 X117.861 Y101.989 E2.68866
G1 X115.396 Y102.573 E2.74495
G1 X112.752 Y103.031 E2.80457
G1 X112.637 Y103.148 E2.80821
G1 X110.952 Y104.452 E2.85555
G1 X109.000 Y105.338 E2.90321
G1 X106.900 Y105.772 E2.95084
G1 X104.771 Y105.716 E2.99817
G1 X103.980 Y105.596 E3.01595
G1 X104.264 Y106.437 E3.03569
G1 X103.708 Y108.003 E3.07260
G1 X103.176 Y108.288 E3.08602
G1 X103.210 Y108.335 E3.08732
G1 X103.086 Y108.406 E3.09048
G1 X104.934 Y110.170 E3.14726
G1 X105.087 Y110.285 E3.15151
G1 X106.512 Y110.037 E3.18366
G1 X107.457 Y110.167 E3.20487
G1 X107.574 Y110.227 E3.20778
G1 X107.840 Y110.425 E3.21515
G1 X107.939 Y110.573 E3.21912
G1 X107.939 Y111.027 E3.22921
G1 X107.416 Y111.837 E3.25063
G1 X106.726 Y112.153 E3.26750
G1 X106.801 Y112.239 E3.27005
G1 X106.730 Y112.278 E3.27186
G1 X107.182 Y112.613 E3.28436
G1 X108.325 Y114.022 E3.32469
G1 X108.401 Y114.215 E3.32929
G1 X108.046 Y116.107 E3.37207
G1 X107.254 Y116.653 E3.39346
G1 X105.744 Y116.874 E3.42737
G1 X104.318 Y116.461 E3.46037
G1 X103.057 Y115.557 E3.49484
G1 X102.019 Y114.157 E3.53357
G1 X101.847 Y113.729 E3.54383
G1 X101.665 Y113.353 E3.55310
G1 X101.499 Y113.213 E3.55794
G1 X101.314 Y112.880 E3.56638
G1 X101.156 Y112.924 E3.57004
G1 X101.059 Y112.896 E3.57227
G1 X100.970 Y112.918 E3.57433
G1 X99.739 Y113.796 E3.60793
G1 X98.121 Y111.659 E3.66750
G1 X96.876 Y109.577 E3.72141
G1 X95.812 Y107.402 E3.77520
G1 X94.699 Y104.691 E3.84034
G1 X94.232 Y104.912 E3.85182
G1 X92.026 Y105.855 E3.90514
G1 X89.757 Y106.652 E3.95859
G1 X87.436 Y107.284 E4.01204
G1 X84.846 Y107.778 E4.07063
G1 X83.325 Y107.947 E4.10465
G1 X81.702 Y108.044 E4.14076
G1 X79.686 Y108.084 E4.18558
G1 X79.530 Y108.107 E4.18907
G1 X79.454 Y108.188 E4.19155
G1 X79.059 Y109.502 E4.22203
G1 X79.437 Y110.655 E4.24898
G1 X79.477 Y110.717 E4.25064
G1 X79.829 Y112.164 E4.28373
G1 X79.026 Y113.475 E4.31789
G1 X78.302 Y113.647 E4.33442
G1 X78.149 Y113.616 E4.33790
G1 X77.537 Y113.349 E4.35275
G1 X76.614 Y112.031 E4.38849
G1 X76.476 Y109.610 E4.44238
G1 X76.772 Y107.262 E4.49498
G1 X77.320 Y104.976 E4.54721
G1 X77.469 Y104.463 E4.55909
G1 X77.790 Y103.497 E4.58171
G1 X77.939 Y101.701 E4.62176
G1 X77.406 Y99.936 E4.66274
G1 X77.284 Y98.291 E4.69937
G1 X77.512 Y96.598 E4.73734
G1 X78.058 Y95.025 E4.77435
G1 X78.138 Y94.845 E4.77871
G1 X77.477 Y92.663 E4.82939
G1 X76.960 Y90.631 E4.87597
G1 X76.602 Y88.608 E4.92163
G1 X76.477 Y86.520 E4.96811
G1 X76.458 Y86.443 E4.96988
G1 X76.817 Y84.349 E5.01709
G1 X76.635 Y83.760 F6000.000
G1 F1800.000 E4.01709
G92 E0
G1 X123.759 Y96.849 F6000.000
G1 F1800.000 E1.00000
G1 X124.515 Y98.445 F1800.000 E1.03925
G1 X124.269 Y99.350 E1.06008
G1 X123.340 Y100.726 E1.09699
G1 X121.229 Y101.896 E1.15062
G1 X118.016 Y102.945 E1.22572
G1 X115.667 Y103.519 E1.27945
G1 X113.216 Y103.971 E1.33485
G1 X111.505 Y105.269 E1.38257
G1 X109.646 Y106.148 E1.42828
G1 X107.648 Y106.644 E1.47403
G1 X105.387 Y106.753 E1.52431
G1 X104.663 Y108.606 E1.56853
G1 X105.013 Y108.957 E1.57955
G1 X105.336 Y109.202 E1.58856
