; generated by Slic3r 0.9.9 on 2013-06-04 at 11:13:03

; layer_height = 0.36
; perimeters = 1
; top_solid_layers = 3
; bottom_solid_layers = 3
; fill_density = 1
; perimeter_speed = 30
; infill_speed = 30
; travel_speed = 50
; nozzle_diameter = 0.5
; filament_diameter = 3
; extrusion_multiplier = 0.8
; perimeters extrusion width = 0.56mm
; infill extrusion width = 0.43mm
; solid infill extrusion width = 0.56mm
; top infill extrusion width = 0.56mm
; support material extrusion width = 0.56mm

G21 ; set units to millimeters
M107
M104 S220 ; set temperature
G28 ; home all axes
M92 X64.8592 ; calibrate X
M92 Y64.8592  ; calibrate Y
M92 Z2560   ; calibrate Z
M92 E569  ; calibrate E
M551 ; prime extruder 1
M109 S220 ; wait for temperature to be reached
G90 ; use absolute coordinates
G92 E0
M82 ; use absolute distances for extrusion
G1 F1800.000 E-1.00000
G92 E0
G1 Z0.360 F3000.000
G1 X64.610 Y79.547
G1 F1800.000 E1.00000
G1 X66.310 Y78.307 F900.000 E1.04676
G1 X66.940 Y77.927 E1.06311
G1 X67.390 Y77.727 E1.07405
G1 X68.090 Y77.517 E1.09029
G1 X68.580 Y77.447 E1.10129
G1 X69.070 Y77.417 E1.11220
G1 X130.920 Y77.417 E2.48665
G1 X131.650 Y77.477 E2.50292
G1 X132.140 Y77.577 E2.51404
G1 X132.600 Y77.727 E2.52479
G1 X133.050 Y77.927 E2.53573
G1 X133.270 Y78.047 E2.54130
G1 X133.680 Y78.307 E2.55209
G1 X135.380 Y79.537 E2.59872
G1 X135.570 Y79.697 E2.60424
G1 X135.920 Y80.047 E2.61524
G1 X136.380 Y80.637 E2.63186
G1 X136.630 Y81.067 E2.64292
G1 X136.830 Y81.517 E2.65386
G1 X136.910 Y81.757 E2.65948
G1 X137.580 Y83.817 E2.70762
G1 X137.690 Y84.397 E2.72074
G1 X137.720 Y84.697 E2.72744
G1 X137.730 Y114.997 E3.40077
G1 X137.690 Y115.597 E3.41413
G1 X137.640 Y115.897 E3.42089
G1 X137.490 Y116.477 E3.43421
G1 X136.830 Y118.467 E3.48080
G1 X136.630 Y118.917 E3.49174
G1 X136.240 Y119.547 E3.50820
G1 X135.760 Y120.107 E3.52460
G1 X135.200 Y120.577 E3.54084
G1 X133.700 Y121.667 E3.58205
G1 X133.070 Y122.057 E3.59851
G1 X132.380 Y122.347 E3.61514
G1 X132.140 Y122.417 E3.62070
G1 X131.660 Y122.517 E3.63160
G1 X131.170 Y122.567 E3.64254
G1 X69.070 Y122.577 E5.02254
G1 X68.330 Y122.517 E5.03904
G1 X67.850 Y122.417 E5.04994
G1 X67.610 Y122.347 E5.05549
G1 X66.920 Y122.057 E5.07212
G1 X66.290 Y121.667 E5.08859
G1 X64.590 Y120.427 E5.13535
G1 X64.230 Y120.097 E5.14620
G1 X63.740 Y119.537 E5.16274
G1 X63.470 Y119.117 E5.17383
G1 X63.250 Y118.677 E5.18476
G1 X63.070 Y118.217 E5.19574
G1 X62.420 Y116.167 E5.24353
G1 X62.310 Y115.587 E5.25665
G1 X62.280 Y115.297 E5.26313
G1 X62.280 Y84.707 E5.94291
G1 X62.310 Y84.407 E5.94961
G1 X62.420 Y83.827 E5.96273
G1 X63.070 Y81.777 E6.01052
G1 X63.250 Y81.307 E6.02170
G1 X63.610 Y80.647 E6.03841
G1 X63.900 Y80.247 E6.04939
G1 X64.240 Y79.877 E6.06055
G1 X64.547 Y79.600 E6.06975
G1 X64.930 Y79.977 F3000.000
G1 X66.820 Y78.617 F900.000 E6.12150
G1 X67.240 Y78.387 E6.13214
G1 X67.670 Y78.207 E6.14250
G1 X68.130 Y78.077 E6.15312
G1 X68.600 Y77.997 E6.16371
G1 X69.070 Y77.967 E6.17418
G1 X130.920 Y77.967 E7.54862
G1 X131.390 Y77.997 E7.55909
G1 X131.860 Y78.077 E7.56968
G1 X132.540 Y78.287 E7.58550
G1 X132.960 Y78.497 E7.59594
G1 X133.170 Y78.617 E7.60131
G1 X135.050 Y79.977 E7.65287
G1 X135.410 Y80.297 E7.66358
G1 X135.720 Y80.657 E7.67413
G1 X136.110 Y81.267 E7.69022
G1 X136.310 Y81.697 E7.70076
G1 X137.050 Y83.947 E7.75340
G1 X137.150 Y84.467 E7.76516
G1 X137.180 Y84.997 E7.77696
G1 X137.180 Y114.997 E8.44363
G1 X137.150 Y115.527 E8.45542
G1 X137.050 Y116.047 E8.46719
G1 X136.310 Y118.287 E8.51961
G1 X136.220 Y118.507 E8.52490
G1 X136.000 Y118.927 E8.53543
G1 X135.870 Y119.127 E8.54073
G1 X135.580 Y119.497 E8.55118
G1 X135.420 Y119.677 E8.55653
G1 X135.070 Y119.997 E8.56707
G1 X133.180 Y121.367 E8.61894
G1 X132.980 Y121.487 E8.62413
G1 X132.550 Y121.697 E8.63476
G1 X132.100 Y121.857 E8.64538
G1 X131.630 Y121.967 E8.65610
G1 X130.920 Y122.027 E8.67194
G1 X69.070 Y122.027 E10.04638
G1 X68.360 Y121.967 E10.06221
G1 X67.890 Y121.857 E10.07294
G1 X67.440 Y121.697 E10.08355
G1 X67.010 Y121.487 E10.09419
G1 X66.610 Y121.227 E10.10479
G1 X64.920 Y119.997 E10.15124
G1 X64.410 Y119.497 E10.16711
G1 X64.120 Y119.117 E10.17773
G1 X63.990 Y118.917 E10.18303
G1 X63.760 Y118.487 E10.19387
G1 X63.590 Y118.047 E10.20435
G1 X62.950 Y116.037 E10.25123
G1 X62.850 Y115.517 E10.26300
G1 X62.830 Y115.257 E10.26879
G1 X62.830 Y84.737 E10.94701
G1 X62.890 Y84.217 E10.95865
G1 X63.020 Y83.717 E10.97013
G1 X63.590 Y81.947 E11.01145
G1 X63.760 Y81.497 E11.02214
G1 X63.990 Y81.067 E11.03298
G1 X64.260 Y80.667 E11.04370
G1 X64.580 Y80.307 E11.05440
G1 X64.869 Y80.031 E11.06328
G1 X65.280 Y80.407 F3000.000
G1 X67.130 Y79.067 F900.000 E11.11404
G1 X67.330 Y78.957 E11.11911
G1 X67.740 Y78.767 E11.12915
G1 X68.170 Y78.627 E11.13920
G1 X68.620 Y78.537 E11.14940
G1 X69.070 Y78.507 E11.15942
G1 X130.920 Y78.507 E12.53387
G1 X131.370 Y78.537 E12.54389
G1 X131.820 Y78.627 E12.55409
G1 X132.250 Y78.767 E12.56414
G1 X132.660 Y78.957 E12.57418
G1 X132.860 Y79.067 E12.57925
G1 X134.540 Y80.277 E12.62526
G1 X134.870 Y80.537 E12.63460
G1 X135.160 Y80.837 E12.64387
G1 X135.530 Y81.337 E12.65769
G1 X135.720 Y81.707 E12.66693
G1 X135.880 Y82.097 E12.67630
G1 X136.460 Y83.867 E12.71769
G1 X136.570 Y84.307 E12.72777
G1 X136.630 Y84.767 E12.73808
G1 X136.640 Y114.997 E13.40986
G1 X136.610 Y115.457 E13.42010
G1 X136.520 Y115.917 E13.43052
G1 X135.800 Y118.107 E13.48175
G1 X135.710 Y118.317 E13.48682
G1 X135.490 Y118.717 E13.49697
G1 X135.360 Y118.897 E13.50190
G1 X135.220 Y119.077 E13.50697
G1 X134.910 Y119.407 E13.51703
G1 X134.560 Y119.697 E13.52713
G1 X132.870 Y120.917 E13.57345
G1 X132.470 Y121.137 E13.58360
G1 X132.040 Y121.307 E13.59387
G1 X131.380 Y121.457 E13.60891
G1 X130.920 Y121.487 E13.61916
G1 X69.070 Y121.487 E14.99360
G1 X68.610 Y121.457 E15.00384
G1 X68.170 Y121.367 E15.01382
G1 X67.730 Y121.227 E15.02409
G1 X67.320 Y121.037 E15.03413
G1 X66.930 Y120.787 E15.04442
G1 X65.250 Y119.557 E15.09069
G1 X65.080 Y119.407 E15.09573
G1 X64.770 Y119.077 E15.10579
G1 X64.500 Y118.707 E15.11597
G1 X64.280 Y118.307 E15.12611
G1 X64.110 Y117.877 E15.13639
G1 X63.540 Y116.117 E15.17750
G1 X63.430 Y115.677 E15.18758
G1 X63.370 Y115.227 E15.19767
G1 X63.370 Y84.767 E15.87456
G1 X63.430 Y84.317 E15.88465
G1 X63.540 Y83.887 E15.89451
G1 X64.110 Y82.117 E15.93583
G1 X64.260 Y81.717 E15.94532
G1 X64.460 Y81.347 E15.95467
G1 X64.690 Y81.007 E15.96379
G1 X64.970 Y80.687 E15.97324
G1 X65.217 Y80.458 E15.98071
G1 X65.610 Y80.837 F3000.000
G1 X67.260 Y79.637 F900.000 E16.02605
G1 X67.440 Y79.517 E16.03086
G1 X67.820 Y79.317 E16.04040
G1 X68.020 Y79.237 E16.04518
G1 X68.430 Y79.127 E16.05462
G1 X68.640 Y79.087 E16.05937
G1 X69.070 Y79.057 E16.06895
G1 X130.920 Y79.057 E17.44339
G1 X131.350 Y79.087 E17.45297
G1 X131.770 Y79.177 E17.46252
G1 X132.170 Y79.317 E17.47193
G1 X132.550 Y79.517 E17.48148
G1 X134.230 Y80.717 E17.52736
G1 X134.530 Y80.967 E17.53603
G1 X134.910 Y81.397 E17.54879
G1 X135.120 Y81.727 E17.55748
G1 X135.290 Y82.077 E17.56612
G1 X135.360 Y82.267 E17.57062
G1 X135.940 Y84.037 E17.61202
G1 X136.040 Y84.417 E17.62075
G1 X136.070 Y84.607 E17.62502
G1 X136.090 Y84.997 E17.63370
G1 X136.090 Y114.997 E18.30037
G1 X136.070 Y115.387 E18.30904
G1 X135.940 Y115.967 E18.32225
G1 X135.360 Y117.727 E18.36343
G1 X135.090 Y118.307 E18.37765
G1 X134.850 Y118.667 E18.38727
G1 X134.570 Y118.987 E18.39671
G1 X134.410 Y119.127 E18.40144
G1 X132.580 Y120.457 E18.45171
G1 X132.240 Y120.647 E18.46037
G1 X131.880 Y120.787 E18.46895
G1 X131.500 Y120.887 E18.47768
G1 X131.310 Y120.917 E18.48196
G1 X130.920 Y120.937 E18.49063
G1 X69.070 Y120.937 E19.86508
G1 X68.680 Y120.917 E19.87376
G1 X68.490 Y120.887 E19.87803
G1 X68.110 Y120.787 E19.88676
G1 X67.750 Y120.647 E19.89535
G1 X67.580 Y120.557 E19.89962
G1 X67.250 Y120.347 E19.90831
G1 X65.750 Y119.257 E19.94952
G1 X65.450 Y119.007 E19.95820
G1 X65.070 Y118.577 E19.97095
G1 X64.860 Y118.247 E19.97964
G1 X64.630 Y117.707 E19.99268
G1 X64.010 Y115.767 E20.03794
G1 X63.930 Y115.387 E20.04657
G1 X63.910 Y114.997 E20.05525
G1 X63.910 Y84.997 E20.72192
G1 X63.930 Y84.617 E20.73037
G1 X64.000 Y84.237 E20.73896
G1 X64.690 Y82.097 E20.78893
G1 X64.860 Y81.737 E20.79777
G1 X65.070 Y81.407 E20.80647
G1 X65.320 Y81.107 E20.81514
G1 X65.548 Y80.890 E20.82213
G1 X65.940 Y81.267 F3000.000
G1 X67.750 Y79.967 F900.000 E20.87165
G1 X68.100 Y79.797 E20.88030
G1 X68.480 Y79.667 E20.88923
G1 X68.870 Y79.607 E20.89799
G1 X69.070 Y79.597 E20.90244
G1 X130.920 Y79.597 E22.27689
G1 X131.120 Y79.607 E22.28134
G1 X131.510 Y79.667 E22.29011
G1 X131.890 Y79.797 E22.29903
G1 X132.240 Y79.967 E22.30768
G1 X134.050 Y81.267 E22.35720
G1 X134.310 Y81.517 E22.36522
G1 X134.530 Y81.797 E22.37313
G1 X134.780 Y82.267 E22.38496
G1 X135.420 Y84.207 E22.43036
G1 X135.530 Y84.677 E22.44108
G1 X135.550 Y84.997 E22.44821
G1 X135.550 Y114.997 E23.11487
G1 X135.500 Y115.477 E23.12560
G1 X135.420 Y115.797 E23.13293
G1 X134.840 Y117.557 E23.17411
G1 X134.590 Y118.097 E23.18733
G1 X134.350 Y118.417 E23.19622
G1 X134.070 Y118.697 E23.20502
G1 X132.270 Y120.007 E23.25449
G1 X131.960 Y120.177 E23.26235
G1 X131.620 Y120.297 E23.27036
G1 X131.270 Y120.367 E23.27829
G1 X130.920 Y120.397 E23.28610
G1 X69.070 Y120.397 E24.66054
G1 X68.720 Y120.367 E24.66835
G1 X68.370 Y120.297 E24.67628
G1 X68.030 Y120.177 E24.68429
G1 X67.870 Y120.097 E24.68827
G1 X67.570 Y119.907 E24.69616
G1 X66.070 Y118.817 E24.73737
G1 X65.800 Y118.587 E24.74525
G1 X65.560 Y118.327 E24.75311
G1 X65.360 Y118.027 E24.76112
G1 X65.150 Y117.537 E24.77297
G1 X64.530 Y115.627 E24.81759
G1 X64.470 Y115.317 E24.82461
G1 X64.450 Y114.997 E24.83174
G1 X64.450 Y84.997 E25.49840
G1 X64.470 Y84.677 E25.50553
G1 X64.530 Y84.367 E25.51254
G1 X65.210 Y82.277 E25.56139
G1 X65.280 Y82.117 E25.56527
G1 X65.460 Y81.807 E25.57323
G1 X65.680 Y81.517 E25.58132
G1 X65.880 Y81.322 E25.58752
G1 F1800.000 E24.58752
G92 E0
G1 X75.336 Y91.686 F3000.000
G1 F1800.000 E1.00000
G1 X76.193 Y90.952 F450.000 E1.02508
G1 X77.203 Y90.385 E1.05082
G1 X78.345 Y90.009 E1.07754
G1 X79.054 Y89.893 E1.09351
G1 X79.816 Y89.853 E1.11046
G1 X80.626 Y89.884 E1.12847
G1 X81.474 Y89.985 E1.14746
G1 X82.353 Y90.152 E1.16734
G1 X83.254 Y90.386 E1.18802
G1 X84.168 Y90.683 E1.20937
G1 X85.081 Y91.042 E1.23117
G1 X86.089 Y91.472 E1.25554
G1 X87.080 Y90.555 E1.28554
G1 X87.434 Y90.288 E1.29540
G1 X87.789 Y90.083 E1.30450
G1 X88.157 Y89.941 E1.31328
G1 X88.547 Y89.862 E1.32212
G1 X88.967 Y89.839 E1.33146
G1 X89.428 Y89.867 E1.34172
G1 X89.947 Y89.937 E1.35335
G1 X90.432 Y90.026 E1.36432
G1 X90.919 Y90.140 E1.37543
G1 X91.883 Y90.432 E1.39782
G1 X92.813 Y90.804 E1.42007
G1 X93.257 Y91.016 E1.43101
G1 X94.328 Y91.588 E1.45799
G1 X94.769 Y90.587 E1.48229
G1 X95.098 Y90.189 E1.49377
G1 X95.532 Y89.932 E1.50497
G1 X96.053 Y89.829 E1.51677
G1 X96.650 Y89.870 E1.53008
G1 X97.336 Y90.038 E1.54578
G1 X98.131 Y90.327 E1.56456
G1 X100.166 Y91.230 E1.61403
G1 X100.246 Y90.712 E1.62569
G1 X100.330 Y90.405 E1.63277
G1 X100.412 Y90.269 E1.63629
G1 X100.527 Y90.159 E1.63983
G1 X100.663 Y90.086 E1.64326
G1 X101.074 Y89.989 E1.65265
G1 X101.515 Y89.957 E1.66247
G1 X102.011 Y89.957 E1.67349
G1 X103.126 Y90.025 E1.69831
G1 X103.205 Y95.430 E1.81842
G1 X105.182 Y97.284 E1.87867
G1 X105.944 Y97.953 E1.90119
G1 X106.631 Y98.519 E1.92097
G1 X107.236 Y98.976 E1.93783
G1 X107.750 Y99.318 E1.95155
G1 X108.160 Y99.540 E1.96190
G1 X108.540 Y99.671 E1.97084
G1 X108.566 Y99.411 E1.97664
G1 X108.546 Y99.097 E1.98364
G1 X108.477 Y98.649 E1.99371
G1 X108.357 Y98.059 E2.00708
G1 X107.718 Y95.445 E2.06688
G1 X107.535 Y94.601 E2.08607
G1 X107.407 Y93.862 E2.10274
G1 X107.330 Y93.213 E2.11727
G1 X107.307 Y92.640 E2.13002
G1 X107.337 Y92.127 E2.14143
G1 X107.421 Y91.664 E2.15189
G1 X107.561 Y91.230 E2.16201
G1 X107.898 Y90.638 E2.17717
G1 X108.376 Y90.201 E2.19155
G1 X108.969 Y89.944 E2.20592
G1 X109.649 Y89.866 E2.22112
G1 X110.396 Y89.958 E2.23784
G1 X111.202 Y90.209 E2.25661
G1 X112.064 Y90.616 E2.27779
G1 X112.970 Y91.172 E2.30142
G1 X113.541 Y91.562 E2.31678
G1 X115.050 Y89.938 E2.36603
G1 X116.849 Y89.941 E2.40601
G1 X117.829 Y89.967 E2.42780
G1 X118.748 Y90.049 E2.44831
G1 X119.628 Y90.194 E2.46812
G1 X120.493 Y90.411 E2.48794
G1 X121.367 Y90.707 E2.50845
G1 X122.275 Y91.089 E2.53033
G1 X123.244 Y91.562 E2.55429
G1 X125.979 Y93.085 E2.62387
G1 X126.123 Y95.325 E2.67373
G1 X126.170 Y96.514 E2.70019
G1 X125.470 Y96.006 E2.71942
G1 X123.764 Y94.709 E2.76705
G1 X123.133 Y94.286 E2.78393
G1 X122.472 Y93.883 E2.80113
G1 X121.800 Y93.508 E2.81824
G1 X121.135 Y93.173 E2.83477
G1 X120.497 Y92.889 E2.85030
G1 X119.906 Y92.663 E2.86437
G1 X119.379 Y92.505 E2.87658
G1 X118.915 Y92.407 E2.88712
G1 X118.471 Y92.349 E2.89707
G1 X118.057 Y92.327 E2.90630
G1 X117.680 Y92.343 E2.91466
G1 X117.352 Y92.392 E2.92204
G1 X117.082 Y92.472 E2.92830
G1 X116.878 Y92.574 E2.93336
G1 X116.744 Y92.690 E2.93730
G1 X116.560 Y92.981 E2.94496
G1 X116.406 Y93.401 E2.95490
G1 X116.294 Y93.923 E2.96675
G1 X116.231 Y94.517 E2.98004
G1 X116.221 Y95.157 E2.99426
G1 X116.264 Y95.816 E3.00894
G1 X116.345 Y96.397 E3.02197
G1 X116.518 Y97.088 E3.03780
G1 X116.714 Y97.638 E3.05076
G1 X116.958 Y98.180 E3.06399
G1 X117.242 Y98.701 E3.07717
G1 X117.555 Y99.186 E3.09001
G1 X117.889 Y99.623 E3.10221
G1 X118.231 Y99.995 E3.11345
G1 X118.570 Y100.291 E3.12344
G1 X118.896 Y100.501 E3.13206
G1 X119.145 Y100.586 E3.13792
G1 X119.477 Y100.636 E3.14537
G1 X119.674 Y100.636 E3.14976
G1 X119.953 Y100.599 E3.15599
G1 X119.985 Y100.387 E3.16075
G1 X119.966 Y100.118 E3.16674
G1 X119.861 Y99.817 E3.17382
G1 X119.667 Y99.479 E3.18250
G1 X119.392 Y99.122 E3.19250
G1 X119.045 Y98.765 E3.20358
G1 X118.638 Y98.420 E3.21544
G1 X118.181 Y98.102 E3.22782
G1 X117.442 Y97.682 E3.24670
G1 X117.227 Y97.521 E3.25265
G1 X117.043 Y97.338 E3.25842
G1 X116.890 Y97.133 E3.26411
G1 X116.772 Y96.907 E3.26978
G1 X116.689 Y96.662 E3.27552
G1 X116.640 Y96.402 E3.28141
G1 X116.625 Y96.124 E3.28759
G1 X116.642 Y95.892 E3.29276
G1 X116.706 Y95.677 E3.29775
G1 X116.840 Y95.490 E3.30288
G1 X117.043 Y95.373 E3.30806
G1 X117.269 Y95.337 E3.31315
G1 X117.504 Y95.358 E3.31839
G1 X117.757 Y95.420 E3.32418
G1 X118.043 Y95.519 E3.33092
G1 X118.700 Y95.805 E3.34684
G1 X119.345 Y96.152 E3.36311
G1 X119.962 Y96.549 E3.37941
G1 X120.538 Y96.984 E3.39545
G1 X121.061 Y97.447 E3.41097
G1 X121.517 Y97.929 E3.42572
G1 X121.894 Y98.420 E3.43946
G1 X122.174 Y98.909 E3.45200
G1 X122.329 Y99.309 E3.46154
G1 X122.441 Y99.735 E3.47133
G1 X122.511 Y100.175 E3.48122
G1 X122.541 Y100.616 E3.49105
G1 X122.530 Y101.047 E3.50063
G1 X122.475 Y101.455 E3.50977
G1 X122.375 Y101.829 E3.51837
G1 X122.221 Y102.162 E3.52653
G1 X121.886 Y102.553 E3.53797
G1 X121.437 Y102.847 E3.54990
G1 X120.909 Y103.044 E3.56243
G1 X120.320 Y103.147 E3.57572
G1 X119.687 Y103.161 E3.58978
G1 X119.027 Y103.085 E3.60455
G1 X118.357 Y102.918 E3.61989
G1 X117.691 Y102.657 E3.63579
G1 X116.807 Y102.137 E3.65859
G1 X115.978 Y101.443 E3.68261
G1 X115.222 Y100.606 E3.70767
G1 X114.551 Y99.651 E3.73361
G1 X113.979 Y98.601 E3.76018
G1 X113.521 Y97.480 E3.78708
G1 X113.191 Y96.313 E3.81404
G1 X113.008 Y95.132 E3.84059
G1 X112.946 Y94.583 E3.85286
G1 X112.910 Y94.406 E3.85687
G1 X112.814 Y94.167 E3.86261
G1 X112.631 Y93.939 E3.86910
G1 X112.373 Y93.692 E3.87705
G1 X111.739 Y93.224 E3.89456
G1 X111.388 Y93.007 E3.90372
G1 X111.011 Y92.808 E3.91320
G1 X110.698 Y92.669 E3.92081
G1 X110.487 Y92.619 E3.92563
G1 X110.411 Y92.705 E3.92818
G1 X110.357 Y92.866 E3.93193
G1 X110.332 Y93.154 E3.93837
G1 X110.353 Y93.559 E3.94737
G1 X110.424 Y94.069 E3.95881
G1 X110.547 Y94.680 E3.97268
G1 X110.722 Y95.392 E3.98897
G1 X111.123 Y96.802 E4.02153
G1 X111.371 Y97.752 E4.04336
G1 X111.510 Y98.517 E4.06063
G1 X111.571 Y99.254 E4.07706
G1 X111.575 Y100.208 E4.09827
G1 X111.542 Y100.678 E4.10874
G1 X111.476 Y101.085 E4.11791
G1 X111.368 Y101.439 E4.12612
G1 X111.210 Y101.744 E4.13376
G1 X111.000 Y102.001 E4.14113
G1 X110.742 Y102.210 E4.14851
G1 X110.435 Y102.381 E4.15632
G1 X109.940 Y102.563 E4.16804
G1 X109.421 Y102.634 E4.17968
G1 X108.877 Y102.587 E4.19182
G1 X108.302 Y102.418 E4.20514
G1 X107.683 Y102.131 E4.22030
G1 X107.001 Y101.722 E4.23797
