; generated by Slic3r 0.9.9 on 2013-06-03 at 16:06:05

; layer_height = 0.36
; perimeters = 2
; top_solid_layers = 3
; bottom_solid_layers = 3
; fill_density = 1
; perimeter_speed = 30
; infill_speed = 30
; travel_speed = 50
; nozzle_diameter = 0.5
; filament_diameter = 3
; extrusion_multiplier = 0.8
; perimeters extrusion width = 0.56mm
; infill extrusion width = 0.43mm
; solid infill extrusion width = 0.56mm
; top infill extrusion width = 0.56mm
; support material extrusion width = 0.56mm

G21 ; set units to millimeters
M107
M104 S220 ; set temperature
G28 ; home all axes
M92 X64.8592 ; calibrate X
M92 Y64.8592  ; calibrate Y
M92 Z2560   ; calibrate Z
M92 E569  ; calibrate E
M551 ; prime extruder 1
M109 S220 ; wait for temperature to be reached
G90 ; use absolute coordinates
G92 E0
M82 ; use absolute distances for extrusion
G1 F1800.000 E-1.00000
G92 E0
G1 Z0.360 F3000.000
G1 X63.872 Y83.760
G1 F1800.000 E1.00000
G1 X64.302 Y83.440 F900.000 E1.01191
G1 X64.932 Y83.020 E1.02874
G1 X65.392 Y82.750 E1.04059
G1 X66.462 Y82.220 E1.06712
G1 X67.182 Y81.930 E1.08437
G1 X68.342 Y81.560 E1.11143
G1 X68.802 Y81.440 E1.12200
G1 X69.982 Y81.220 E1.14867
G1 X70.842 Y81.120 E1.16791
G1 X71.232 Y81.100 E1.17659
G1 X72.282 Y81.060 E1.19994
G1 X94.892 Y80.980 E1.70239
G1 X123.502 Y80.940 E2.33816
G1 X125.232 Y81.020 E2.37665
G1 X125.662 Y81.060 E2.38625
G1 X127.182 Y81.270 E2.42034
G1 X127.612 Y81.350 E2.43006
G1 X129.522 Y81.810 E2.47372
G1 X131.062 Y82.310 E2.50970
G1 X131.432 Y82.450 E2.51849
G1 X133.292 Y83.240 E2.56340
G1 X134.852 Y84.030 E2.60226
G1 X136.692 Y85.110 E2.64967
G1 X138.532 Y86.350 E2.69898
G1 X139.072 Y86.780 E2.71432
G1 X139.392 Y87.110 E2.72453
G1 X139.682 Y87.460 E2.73463
G1 X140.052 Y88.050 E2.75011
G1 X140.242 Y88.460 E2.76015
G1 X140.402 Y88.900 E2.77056
G1 X140.512 Y89.340 E2.78064
G1 X140.552 Y89.570 E2.78582
G1 X140.602 Y90.260 E2.80120
G1 X140.602 Y93.730 E2.87831
G1 X140.542 Y94.450 E2.89436
G1 X140.442 Y94.930 E2.90526
G1 X140.302 Y95.390 E2.91594
G1 X140.212 Y95.610 E2.92123
G1 X139.872 Y96.260 E2.93753
G1 X134.772 Y104.330 E3.14967
G1 X134.462 Y104.750 E3.16127
G1 X133.942 Y105.390 E3.17960
G1 X133.782 Y105.570 E3.18495
G1 X133.412 Y105.900 E3.19597
G1 X132.762 Y106.390 E3.21405
G1 X132.412 Y106.630 E3.22349
G1 X132.042 Y106.830 E3.23283
G1 X131.282 Y107.170 E3.25133
G1 X130.742 Y107.370 E3.26413
G1 X92.632 Y118.790 E4.14823
G1 X92.072 Y118.920 E4.16100
G1 X91.782 Y118.970 E4.16754
G1 X91.152 Y119.030 E4.18160
G1 X90.712 Y119.050 E4.19139
G1 X77.412 Y119.010 E4.48695
G1 X76.242 Y118.960 E4.51297
G1 X75.792 Y118.920 E4.52301
G1 X74.842 Y118.790 E4.54432
G1 X74.422 Y118.720 E4.55378
G1 X73.512 Y118.510 E4.57454
G1 X73.012 Y118.360 E4.58614
G1 X72.152 Y118.060 E4.60638
G1 X71.722 Y117.890 E4.61665
G1 X70.902 Y117.510 E4.63673
G1 X70.452 Y117.270 E4.64807
G1 X69.672 Y116.800 E4.66831
G1 X69.262 Y116.520 E4.67934
G1 X68.522 Y115.960 E4.69996
G1 X68.162 Y115.660 E4.71037
G1 X67.472 Y115.020 E4.73129
G1 X67.172 Y114.720 E4.74072
G1 X66.612 Y114.100 E4.75928
G1 X65.902 Y113.200 E4.78476
G1 X65.612 Y112.790 E4.79592
G1 X65.002 Y111.780 E4.82214
G1 X64.662 Y111.110 E4.83883
G1 X64.462 Y110.640 E4.85018
G1 X64.142 Y109.790 E4.87037
G1 X60.082 Y97.780 E5.15209
G1 X59.832 Y96.950 E5.17136
G1 X59.712 Y96.440 E5.18300
G1 X59.542 Y95.450 E5.20532
G1 X59.412 Y94.260 E5.23192
G1 X59.392 Y93.480 E5.24926
G1 X59.462 Y91.930 E5.28374
G1 X59.562 Y91.140 E5.30144
G1 X59.652 Y90.630 E5.31295
G1 X59.832 Y89.880 E5.33009
G1 X60.192 Y88.760 E5.35623
G1 X60.382 Y88.290 E5.36749
G1 X60.692 Y87.620 E5.38390
G1 X60.982 Y87.080 E5.39752
G1 X61.372 Y86.460 E5.41380
G1 X61.612 Y86.110 E5.42323
G1 X62.062 Y85.520 E5.43972
G1 X62.452 Y85.080 E5.45278
G1 X63.292 Y84.250 E5.47902
G1 X63.810 Y83.813 E5.49408
G1 X64.222 Y84.180 F3000.000
G1 X64.602 Y83.890 F900.000 E5.50470
G1 X65.232 Y83.470 E5.52153
G1 X65.642 Y83.230 E5.53209
G1 X66.322 Y82.880 E5.54908
G1 X67.392 Y82.430 E5.57488
G1 X68.502 Y82.080 E5.60074
G1 X68.912 Y81.980 E5.61012
G1 X70.052 Y81.770 E5.63588
G1 X71.252 Y81.640 E5.66270
G1 X72.162 Y81.610 E5.68293
G1 X94.902 Y81.530 E6.18827
G1 X123.502 Y81.490 E6.82383
G1 X125.202 Y81.560 E6.86164
G1 X125.582 Y81.600 E6.87013
G1 X127.102 Y81.810 E6.90423
G1 X127.492 Y81.880 E6.91303
G1 X129.352 Y82.330 E6.95556
G1 X131.222 Y82.950 E6.99934
G1 X132.772 Y83.600 E7.03669
G1 X134.842 Y84.650 E7.08827
G1 X136.412 Y85.580 E7.12882
G1 X138.222 Y86.800 E7.17732
G1 X138.582 Y87.070 E7.18732
G1 X139.062 Y87.550 E7.20241
G1 X139.332 Y87.920 E7.21259
G1 X139.572 Y88.300 E7.22257
G1 X139.762 Y88.710 E7.23262
G1 X139.902 Y89.140 E7.24267
G1 X140.002 Y89.580 E7.25269
G1 X140.052 Y90.030 E7.26275
G1 X140.052 Y93.970 E7.35031
G1 X140.032 Y94.200 E7.35544
G1 X139.952 Y94.660 E7.36582
G1 X139.892 Y94.890 E7.37110
G1 X139.732 Y95.340 E7.38171
G1 X139.532 Y95.760 E7.39205
G1 X134.302 Y104.030 E7.60949
G1 X134.042 Y104.410 E7.61972
G1 X133.542 Y105.030 E7.63742
G1 X133.392 Y105.190 E7.64230
G1 X132.902 Y105.610 E7.65664
G1 X132.132 Y106.160 E7.67767
G1 X131.802 Y106.340 E7.68602
G1 X131.062 Y106.670 E7.70403
G1 X130.582 Y106.850 E7.71542
G1 X92.472 Y118.270 E8.59951
G1 X91.982 Y118.380 E8.61067
G1 X91.692 Y118.430 E8.61721
G1 X91.132 Y118.490 E8.62973
G1 X90.862 Y118.500 E8.63573
G1 X77.252 Y118.460 E8.93818
G1 X76.262 Y118.420 E8.96020
G1 X75.862 Y118.380 E8.96913
G1 X74.912 Y118.250 E8.99044
G1 X73.632 Y117.970 E9.01955
G1 X73.192 Y117.850 E9.02969
G1 X72.332 Y117.550 E9.04993
G1 X71.132 Y117.010 E9.07917
G1 X70.732 Y116.800 E9.08921
G1 X69.952 Y116.330 E9.10945
G1 X68.852 Y115.520 E9.13981
G1 X68.532 Y115.260 E9.14897
G1 X67.842 Y114.620 E9.16988
G1 X67.582 Y114.350 E9.17821
G1 X66.822 Y113.500 E9.20355
G1 X66.332 Y112.870 E9.22129
G1 X66.082 Y112.510 E9.23103
G1 X65.492 Y111.530 E9.25644
G1 X65.152 Y110.860 E9.27314
G1 X64.972 Y110.440 E9.28330
G1 X64.662 Y109.620 E9.30278
G1 X60.552 Y97.470 E9.58781
G1 X60.352 Y96.800 E9.60334
G1 X60.242 Y96.340 E9.61385
G1 X60.082 Y95.380 E9.63548
G1 X59.962 Y94.250 E9.66073
G1 X59.942 Y93.470 E9.67807
G1 X59.972 Y92.370 E9.70253
G1 X60.002 Y91.990 E9.71100
G1 X60.102 Y91.200 E9.72869
G1 X60.182 Y90.750 E9.73885
G1 X60.362 Y90.000 E9.75599
G1 X60.472 Y89.640 E9.76436
G1 X60.872 Y88.510 E9.79099
G1 X61.182 Y87.840 E9.80740
G1 X61.442 Y87.370 E9.81933
G1 X61.832 Y86.750 E9.83561
G1 X62.502 Y85.850 E9.86054
G1 X62.842 Y85.460 E9.87204
G1 X63.362 Y84.930 E9.88854
G1 X64.160 Y84.233 E9.91208
G1 X64.572 Y84.590 F3000.000
G1 X64.902 Y84.340 F900.000 E9.92128
G1 X65.532 Y83.920 E9.93811
G1 X65.892 Y83.720 E9.94726
G1 X66.872 Y83.230 E9.97161
G1 X67.592 Y82.940 E9.98886
G1 X67.902 Y82.830 E9.99617
G1 X69.012 Y82.510 E10.02184
G1 X70.112 Y82.310 E10.04668
G1 X71.272 Y82.190 E10.07260
G1 X72.292 Y82.150 E10.09528
G1 X94.902 Y82.070 E10.59773
G1 X123.502 Y82.030 E11.23329
G1 X125.512 Y82.140 E11.27802
G1 X127.362 Y82.410 E11.31957
G1 X128.892 Y82.770 E11.35450
G1 X130.722 Y83.350 E11.39716
G1 X131.012 Y83.460 E11.40405
G1 X132.562 Y84.110 E11.44140
G1 X134.562 Y85.120 E11.49119
G1 X136.322 Y86.170 E11.53673
G1 X138.082 Y87.370 E11.58407
G1 X138.542 Y87.790 E11.59791
G1 X138.932 Y88.290 E11.61200
G1 X139.222 Y88.840 E11.62582
G1 X139.362 Y89.230 E11.63503
G1 X139.412 Y89.430 E11.63961
G1 X139.482 Y89.840 E11.64885
G1 X139.512 Y90.260 E11.65821
G1 X139.512 Y93.730 E11.73532
G1 X139.482 Y94.180 E11.74534
G1 X139.332 Y94.850 E11.76060
G1 X139.062 Y95.480 E11.77583
G1 X133.842 Y103.740 E11.99297
G1 X133.612 Y104.070 E12.00191
G1 X133.132 Y104.670 E12.01898
G1 X132.722 Y105.060 E12.03156
G1 X131.842 Y105.700 E12.05574
G1 X131.562 Y105.850 E12.06280
G1 X130.842 Y106.170 E12.08031
G1 X130.422 Y106.320 E12.09022
G1 X92.312 Y117.740 E12.97431
G1 X91.892 Y117.840 E12.98391
G1 X91.602 Y117.890 E12.99044
G1 X91.112 Y117.940 E13.00139
G1 X90.712 Y117.960 E13.01029
G1 X77.412 Y117.920 E13.30585
G1 X75.942 Y117.840 E13.33856
G1 X74.662 Y117.650 E13.36732
G1 X73.752 Y117.440 E13.38807
G1 X73.372 Y117.330 E13.39686
G1 X72.182 Y116.900 E13.42498
G1 X71.362 Y116.520 E13.44506
G1 X70.232 Y115.860 E13.47415
G1 X69.922 Y115.650 E13.48247
G1 X69.182 Y115.090 E13.50309
G1 X68.902 Y114.860 E13.51114
G1 X67.982 Y113.990 E13.53928
G1 X67.422 Y113.370 E13.55784
G1 X66.762 Y112.530 E13.58158
G1 X66.542 Y112.220 E13.59003
G1 X65.982 Y111.290 E13.61416
G1 X65.642 Y110.620 E13.63085
G1 X65.222 Y109.560 E13.65619
G1 X61.082 Y97.310 E13.94354
G1 X60.782 Y96.250 E13.96802
G1 X60.622 Y95.320 E13.98899
G1 X60.502 Y94.230 E14.01336
G1 X60.482 Y93.450 E14.03070
G1 X60.522 Y92.390 E14.05427
G1 X60.542 Y92.060 E14.06161
G1 X60.642 Y91.270 E14.07931
G1 X60.712 Y90.880 E14.08812
G1 X60.892 Y90.130 E14.10526
G1 X61.372 Y88.740 E14.13793
G1 X61.682 Y88.070 E14.15434
G1 X61.902 Y87.660 E14.16468
G1 X62.292 Y87.040 E14.18096
G1 X62.932 Y86.180 E14.20478
G1 X63.222 Y85.840 E14.21471
G1 X63.742 Y85.310 E14.23121
G1 X64.510 Y84.643 E14.25381
G1 X64.932 Y85.010 F3000.000
G1 X65.212 Y84.800 F900.000 E14.26159
G1 X66.142 Y84.200 E14.28618
G1 X67.082 Y83.730 E14.30954
G1 X68.052 Y83.350 E14.33269
G1 X68.812 Y83.120 E14.35033
G1 X69.942 Y82.890 E14.37596
G1 X70.172 Y82.850 E14.38115
G1 X71.292 Y82.730 E14.40618
G1 X72.202 Y82.700 E14.42641
G1 X94.902 Y82.620 E14.93086
G1 X123.512 Y82.580 E15.56664
G1 X125.152 Y82.650 E15.60311
G1 X125.432 Y82.680 E15.60937
G1 X127.242 Y82.940 E15.65001
G1 X128.772 Y83.300 E15.68493
G1 X130.802 Y83.960 E15.73237
G1 X132.552 Y84.700 E15.77459
G1 X134.112 Y85.490 E15.81345
G1 X136.022 Y86.620 E15.86277
G1 X137.762 Y87.810 E15.90961
G1 X138.172 Y88.200 E15.92219
G1 X138.412 Y88.490 E15.93055
G1 X138.512 Y88.650 E15.93475
G1 X138.762 Y89.160 E15.94737
G1 X138.912 Y89.700 E15.95982
G1 X138.962 Y90.070 E15.96812
G1 X138.962 Y93.730 E16.04945
G1 X138.932 Y94.160 E16.05903
G1 X138.842 Y94.590 E16.06879
G1 X138.772 Y94.800 E16.07371
G1 X138.692 Y95.000 E16.07850
G1 X138.482 Y95.380 E16.08815
G1 X133.382 Y103.450 E16.30029
G1 X133.182 Y103.730 E16.30794
G1 X132.612 Y104.420 E16.32783
G1 X132.252 Y104.740 E16.33853
G1 X131.792 Y105.080 E16.35124
G1 X131.322 Y105.360 E16.36340
G1 X130.622 Y105.670 E16.38041
G1 X130.272 Y105.800 E16.38871
G1 X92.162 Y117.220 E17.27280
G1 X91.802 Y117.310 E17.28105
G1 X91.512 Y117.360 E17.28759
G1 X91.092 Y117.400 E17.29696
G1 X90.682 Y117.410 E17.30608
G1 X77.302 Y117.370 E17.60341
G1 X76.312 Y117.330 E17.62543
G1 X76.012 Y117.300 E17.63213
G1 X74.782 Y117.120 E17.65975
G1 X73.872 Y116.910 E17.68051
G1 X73.552 Y116.820 E17.68790
G1 X72.692 Y116.520 E17.70814
G1 X71.292 Y115.870 E17.74244
G1 X70.512 Y115.400 E17.76267
G1 X69.502 Y114.650 E17.79063
G1 X69.272 Y114.460 E17.79726
G1 X68.582 Y113.820 E17.81817
G1 X68.392 Y113.620 E17.82430
G1 X67.682 Y112.830 E17.84791
G1 X67.192 Y112.200 E17.86564
G1 X67.002 Y111.930 E17.87298
G1 X66.462 Y111.040 E17.89611
G1 X66.122 Y110.370 E17.91281
G1 X65.692 Y109.270 E17.93906
G1 X61.632 Y97.260 E18.22078
G1 X61.322 Y96.150 E18.24639
G1 X61.162 Y95.250 E18.26671
G1 X61.052 Y94.220 E18.28972
G1 X61.032 Y93.250 E18.31128
G1 X61.062 Y92.410 E18.32996
G1 X61.182 Y91.340 E18.35389
G1 X61.242 Y91.010 E18.36134
G1 X61.422 Y90.260 E18.37848
G1 X61.742 Y89.280 E18.40139
G1 X61.862 Y88.970 E18.40878
G1 X62.172 Y88.300 E18.42519
G1 X62.362 Y87.950 E18.43404
G1 X62.752 Y87.330 E18.45031
G1 X63.362 Y86.520 E18.47285
G1 X63.612 Y86.230 E18.48135
G1 X64.132 Y85.700 E18.49785
G1 X64.870 Y85.063 E18.51951
G1 X65.282 Y85.430 F3000.000
G1 X65.512 Y85.250 F900.000 E18.52600
G1 X66.142 Y84.830 E18.54283
G1 X66.392 Y84.690 E18.54920
G1 X67.282 Y84.240 E18.57136
G1 X68.212 Y83.870 E18.59360
G1 X68.972 Y83.640 E18.61125
G1 X70.042 Y83.420 E18.63552
G1 X71.102 Y83.290 E18.65925
G1 X72.292 Y83.240 E18.68572
G1 X94.902 Y83.160 E19.18817
G1 X123.512 Y83.120 E19.82395
G1 X125.362 Y83.220 E19.86512
G1 X127.112 Y83.470 E19.90440
G1 X128.642 Y83.830 E19.93933
G1 X130.392 Y84.390 E19.98016
G1 X132.132 Y85.110 E20.02201
G1 X134.012 Y86.060 E20.06882
G1 X135.582 Y86.990 E20.10937
G1 X137.302 Y88.150 E20.15547
G1 X137.582 Y88.370 E20.16338
G1 X137.932 Y88.770 E20.17519
G1 X138.122 Y89.070 E20.18309
G1 X138.202 Y89.230 E20.18706
G1 X138.322 Y89.560 E20.19486
G1 X138.392 Y89.910 E20.20280
G1 X138.422 Y90.260 E20.21060
G1 X138.412 Y93.930 E20.29216
G1 X138.342 Y94.340 E20.30140
G1 X138.282 Y94.540 E20.30604
G1 X138.212 Y94.730 E20.31054
G1 X138.022 Y95.090 E20.31959
G1 X132.762 Y103.390 E20.53795
G1 X132.402 Y103.840 E20.55076
G1 X132.132 Y104.130 E20.55956
G1 X131.462 Y104.640 E20.57827
G1 X131.082 Y104.870 E20.58814
G1 X130.112 Y105.280 E20.61155
G1 X92.002 Y116.700 E21.49564
G1 X91.702 Y116.770 E21.50249
G1 X91.412 Y116.820 E21.50903
G1 X90.682 Y116.870 E21.52529
G1 X77.412 Y116.830 E21.82018
G1 X76.082 Y116.760 E21.84977
G1 X74.912 Y116.590 E21.87605
G1 X74.002 Y116.380 E21.89680
G1 X73.732 Y116.300 E21.90306
G1 X72.642 Y115.910 E21.92878
G1 X71.822 Y115.530 E21.94887
G1 X71.582 Y115.400 E21.95493
G1 X70.572 Y114.780 E21.98127
G1 X69.832 Y114.220 E22.00189
G1 X68.792 Y113.260 E22.03334
G1 X68.232 Y112.640 E22.05191
G1 X67.622 Y111.860 E22.07391
G1 X66.952 Y110.790 E22.10197
G1 X66.502 Y109.870 E22.12473
G1 X66.212 Y109.100 E22.14301
G1 X62.122 Y97.000 E22.42685
G1 X61.922 Y96.330 E22.44238
G1 X61.862 Y96.050 E22.44875
G1 X61.702 Y95.190 E22.46819
G1 X61.612 Y94.450 E22.48475
G1 X61.582 Y93.430 E22.50743
G1 X61.612 Y92.430 E22.52966
G1 X61.622 Y92.200 E22.53478
G1 X61.722 Y91.410 E22.55247
G1 X61.952 Y90.390 E22.57571
G1 X62.262 Y89.450 E22.59770
G1 X62.362 Y89.200 E22.60369
G1 X62.672 Y88.530 E22.62009
G1 X62.832 Y88.240 E22.62745
G1 X63.222 Y87.620 E22.64373
G1 X63.802 Y86.850 E22.66515
G1 X64.002 Y86.610 E22.67210
G1 X64.522 Y86.080 E22.68860
G1 X65.220 Y85.483 E22.70900
G1 F1800.000 E21.70900
G92 E0
G1 X121.768 Y93.477 F3000.000
G1 F1800.000 E1.00000
G1 X123.872 Y94.293 F450.000 E1.05015
G1 X125.074 Y94.827 E1.07938
G1 X125.629 Y95.111 E1.09324
G1 X126.155 Y95.406 E1.10663
G1 X126.649 Y95.713 E1.11956
G1 X127.113 Y96.032 E1.13207
G1 X127.552 Y96.369 E1.14438
G1 X127.954 Y96.729 E1.15637
G1 X128.308 Y97.091 E1.16762
G1 X128.617 Y97.464 E1.17838
G1 X128.878 Y97.849 E1.18872
G1 X129.090 Y98.248 E1.19877
G1 X129.248 Y98.662 E1.20862
G1 X129.347 Y99.089 E1.21836
G1 X129.379 Y99.520 E1.22796
G1 X129.356 Y99.862 E1.23558
G1 X129.274 Y100.197 E1.24324
G1 X129.121 Y100.519 E1.25116
G1 X128.890 Y100.803 E1.25930
G1 X128.598 Y101.019 E1.26737
G1 X128.277 Y101.158 E1.27514
G1 X127.944 Y101.233 E1.28272
G1 X127.600 Y101.254 E1.29038
G1 X127.141 Y101.218 E1.30062
G1 X126.682 Y101.112 E1.31108
G1 X126.237 Y100.942 E1.32167
G1 X125.807 Y100.711 E1.33251
G1 X125.391 Y100.425 E1.34373
G1 X124.988 Y100.088 E1.35541
G1 X124.595 Y99.701 E1.36767
G1 X124.212 Y99.266 E1.38055
G1 X123.846 Y98.806 E1.39361
G1 X123.507 Y98.320 E1.40677
G1 X123.200 Y97.813 E1.41994
G1 X122.925 Y97.286 E1.43316
G1 X122.681 Y96.739 E1.44648
G1 X122.469 Y96.172 E1.45992
G1 X122.289 Y95.587 E1.47353
G1 X121.787 Y93.556 E1.52001
G1 X122.549 Y94.365 F3000.000
G1 X123.666 Y94.799 F450.000 E1.54666
G1 X124.267 Y95.053 E1.56115
G1 X125.371 Y95.591 E1.58845
G1 X125.877 Y95.875 E1.60134
G1 X126.350 Y96.169 E1.61372
G1 X126.792 Y96.473 E1.62564
G1 X127.204 Y96.789 E1.63718
G1 X127.577 Y97.123 E1.64829
G1 X127.902 Y97.456 E1.65864
G1 X128.180 Y97.792 E1.66833
G1 X128.410 Y98.131 E1.67744
G1 X128.593 Y98.474 E1.68607
G1 X128.725 Y98.821 E1.69433
G1 X128.806 Y99.172 E1.70232
G1 X128.832 Y99.523 E1.71014
G1 X128.815 Y99.779 E1.71585
G1 X128.758 Y100.014 E1.72122
G1 X128.657 Y100.226 E1.72643
G1 X128.510 Y100.405 E1.73159
G1 X128.323 Y100.544 E1.73675
G1 X128.108 Y100.637 E1.74198
G1 X127.868 Y100.691 E1.74745
G1 X127.605 Y100.707 E1.75330
G1 X127.224 Y100.678 E1.76179
G1 X126.842 Y100.590 E1.77050
G1 X126.464 Y100.445 E1.77948
G1 X126.091 Y100.245 E1.78889
G1 X125.721 Y99.991 E1.79887
G1 X125.355 Y99.684 E1.80947
G1 X124.992 Y99.325 E1.82083
G1 X124.630 Y98.916 E1.83297
G1 X124.283 Y98.480 E1.84534
G1 X123.964 Y98.023 E1.85773
G1 X123.676 Y97.545 E1.87013
G1 X123.416 Y97.049 E1.88259
G1 X123.186 Y96.532 E1.89515
G1 X122.986 Y95.996 E1.90787
