; generated by Slic3r 0.9.9 on 2013-06-05 at 09:42:22

; layer_height = 0.36
; perimeters = 2
; top_solid_layers = 3
; bottom_solid_layers = 3
; fill_density = 1
; perimeter_speed = 30
; infill_speed = 30
; travel_speed = 50
; nozzle_diameter = 0.5
; filament_diameter = 3
; extrusion_multiplier = 1
; perimeters extrusion width = 0.56mm
; infill extrusion width = 0.43mm
; solid infill extrusion width = 0.56mm
; top infill extrusion width = 0.56mm
; support material extrusion width = 0.56mm

G21 ; set units to millimeters
M107
M104 S220 ; set temperature
G28 ; home all axes
M92 X64.8592 ; calibrate X
M92 Y64.8592  ; calibrate Y
M92 Z2560   ; calibrate Z
M92 E569  ; calibrate E
M551 ; prime extruder 1
M109 S220 ; wait for temperature to be reached
G90 ; use absolute coordinates
G92 E0
M82 ; use absolute distances for extrusion
G1 F1800.000 E-1.00000
G92 E0
G1 Z0.360 F3000.000
G1 X64.930 Y79.977
G1 F1800.000 E1.00000
G1 X66.820 Y78.617 F900.000 E1.06468
G1 X67.240 Y78.387 E1.07798
G1 X67.670 Y78.207 E1.09093
G1 X68.130 Y78.077 E1.10421
G1 X68.600 Y77.997 E1.11745
G1 X69.070 Y77.967 E1.13053
G1 X130.920 Y77.967 E2.84859
G1 X131.390 Y77.997 E2.86167
G1 X131.860 Y78.077 E2.87491
G1 X132.540 Y78.287 E2.89468
G1 X132.960 Y78.497 E2.90773
G1 X133.170 Y78.617 E2.91445
G1 X135.050 Y79.977 E2.97890
G1 X135.410 Y80.297 E2.99228
G1 X135.720 Y80.657 E3.00548
G1 X136.110 Y81.267 E3.02559
G1 X136.310 Y81.697 E3.03876
G1 X137.050 Y83.947 E3.10455
G1 X137.150 Y84.467 E3.11926
G1 X137.180 Y84.997 E3.13401
G1 X137.180 Y114.997 E3.96734
G1 X137.150 Y115.527 E3.98209
G1 X137.050 Y116.047 E3.99680
G1 X136.310 Y118.287 E4.06233
G1 X136.220 Y118.507 E4.06893
G1 X136.000 Y118.927 E4.08210
G1 X135.870 Y119.127 E4.08873
G1 X135.580 Y119.497 E4.10178
G1 X135.420 Y119.677 E4.10847
G1 X135.070 Y119.997 E4.12165
G1 X133.180 Y121.367 E4.18649
G1 X132.980 Y121.487 E4.19297
G1 X132.550 Y121.697 E4.20626
G1 X132.100 Y121.857 E4.21953
G1 X131.630 Y121.967 E4.23294
G1 X130.920 Y122.027 E4.25273
G1 X69.070 Y122.027 E5.97078
G1 X68.360 Y121.967 E5.99058
G1 X67.890 Y121.857 E6.00398
G1 X67.440 Y121.697 E6.01725
G1 X67.010 Y121.487 E6.03054
G1 X66.610 Y121.227 E6.04380
G1 X64.920 Y119.997 E6.10186
G1 X64.410 Y119.497 E6.12170
G1 X64.120 Y119.117 E6.13498
G1 X63.990 Y118.917 E6.14160
G1 X63.760 Y118.487 E6.15515
G1 X63.590 Y118.047 E6.16825
G1 X62.950 Y116.037 E6.22685
G1 X62.850 Y115.517 E6.24155
G1 X62.830 Y115.257 E6.24880
G1 X62.830 Y84.737 E7.09658
G1 X62.890 Y84.217 E7.11112
G1 X63.020 Y83.717 E7.12547
G1 X63.590 Y81.947 E7.17712
G1 X63.760 Y81.497 E7.19048
G1 X63.990 Y81.067 E7.20403
G1 X64.260 Y80.667 E7.21743
G1 X64.580 Y80.307 E7.23081
G1 X64.869 Y80.031 E7.24190
G1 X65.280 Y80.407 F3000.000
G1 X67.130 Y79.067 F900.000 E7.30536
G1 X67.330 Y78.957 E7.31170
G1 X67.740 Y78.767 E7.32425
G1 X68.170 Y78.627 E7.33681
G1 X68.620 Y78.537 E7.34956
G1 X69.070 Y78.507 E7.36209
G1 X130.920 Y78.507 E9.08014
G1 X131.370 Y78.537 E9.09267
G1 X131.820 Y78.627 E9.10542
G1 X132.250 Y78.767 E9.11798
G1 X132.660 Y78.957 E9.13053
G1 X132.860 Y79.067 E9.13687
G1 X134.540 Y80.277 E9.19438
G1 X134.870 Y80.537 E9.20605
G1 X135.160 Y80.837 E9.21764
G1 X135.530 Y81.337 E9.23492
G1 X135.720 Y81.707 E9.24647
G1 X135.880 Y82.097 E9.25818
G1 X136.460 Y83.867 E9.30992
G1 X136.570 Y84.307 E9.32252
G1 X136.630 Y84.767 E9.33541
G1 X136.640 Y114.997 E10.17513
G1 X136.610 Y115.457 E10.18793
G1 X136.520 Y115.917 E10.20096
G1 X135.800 Y118.107 E10.26499
G1 X135.710 Y118.317 E10.27134
G1 X135.490 Y118.717 E10.28402
G1 X135.360 Y118.897 E10.29019
G1 X135.220 Y119.077 E10.29652
G1 X134.910 Y119.407 E10.30910
G1 X134.560 Y119.697 E10.32172
G1 X132.870 Y120.917 E10.37962
G1 X132.470 Y121.137 E10.39230
G1 X132.040 Y121.307 E10.40515
G1 X131.380 Y121.457 E10.42395
G1 X130.920 Y121.487 E10.43675
G1 X69.070 Y121.487 E12.15481
G1 X68.610 Y121.457 E12.16761
G1 X68.170 Y121.367 E12.18009
G1 X67.730 Y121.227 E12.19291
G1 X67.320 Y121.037 E12.20547
G1 X66.930 Y120.787 E12.21834
G1 X65.250 Y119.557 E12.27617
G1 X65.080 Y119.407 E12.28247
G1 X64.770 Y119.077 E12.29505
G1 X64.500 Y118.707 E12.30777
G1 X64.280 Y118.307 E12.32045
G1 X64.110 Y117.877 E12.33329
G1 X63.540 Y116.117 E12.38468
G1 X63.430 Y115.677 E12.39728
G1 X63.370 Y115.227 E12.40989
G1 X63.370 Y84.767 E13.25600
G1 X63.430 Y84.317 E13.26861
G1 X63.540 Y83.887 E13.28094
G1 X64.110 Y82.117 E13.33260
G1 X64.260 Y81.717 E13.34446
G1 X64.460 Y81.347 E13.35615
G1 X64.690 Y81.007 E13.36755
G1 X64.970 Y80.687 E13.37936
G1 X65.217 Y80.458 E13.38870
G1 X65.610 Y80.837 F3000.000
G1 X67.260 Y79.637 F900.000 E13.44537
G1 X67.440 Y79.517 E13.45138
G1 X67.820 Y79.317 E13.46331
G1 X68.020 Y79.237 E13.46929
G1 X68.430 Y79.127 E13.48108
G1 X68.640 Y79.087 E13.48702
G1 X69.070 Y79.057 E13.49899
G1 X130.920 Y79.057 E15.21705
G1 X131.350 Y79.087 E15.22902
G1 X131.770 Y79.177 E15.24095
G1 X132.170 Y79.317 E15.25273
G1 X132.550 Y79.517 E15.26465
G1 X134.230 Y80.717 E15.32200
G1 X134.530 Y80.967 E15.33285
G1 X134.910 Y81.397 E15.34879
G1 X135.120 Y81.727 E15.35966
G1 X135.290 Y82.077 E15.37046
G1 X135.360 Y82.267 E15.37609
G1 X135.940 Y84.037 E15.42783
G1 X136.040 Y84.417 E15.43874
G1 X136.070 Y84.607 E15.44409
G1 X136.090 Y84.997 E15.45493
G1 X136.090 Y114.997 E16.28827
G1 X136.070 Y115.387 E16.29911
G1 X135.940 Y115.967 E16.31562
G1 X135.360 Y117.727 E16.36710
G1 X135.090 Y118.307 E16.38487
G1 X134.850 Y118.667 E16.39689
G1 X134.570 Y118.987 E16.40870
G1 X134.410 Y119.127 E16.41461
G1 X132.580 Y120.457 E16.47745
G1 X132.240 Y120.647 E16.48827
G1 X131.880 Y120.787 E16.49900
G1 X131.500 Y120.887 E16.50991
G1 X131.310 Y120.917 E16.51525
G1 X130.920 Y120.937 E16.52610
G1 X69.070 Y120.937 E18.24416
G1 X68.680 Y120.917 E18.25500
G1 X68.490 Y120.887 E18.26035
G1 X68.110 Y120.787 E18.27126
G1 X67.750 Y120.647 E18.28199
G1 X67.580 Y120.557 E18.28734
G1 X67.250 Y120.347 E18.29820
G1 X65.750 Y119.257 E18.34971
G1 X65.450 Y119.007 E18.36055
G1 X65.070 Y118.577 E18.37649
G1 X64.860 Y118.247 E18.38736
G1 X64.630 Y117.707 E18.40366
G1 X64.010 Y115.767 E18.46024
G1 X63.930 Y115.387 E18.47102
G1 X63.910 Y114.997 E18.48187
G1 X63.910 Y84.997 E19.31521
G1 X63.930 Y84.617 E19.32578
G1 X64.000 Y84.237 E19.33651
G1 X64.690 Y82.097 E19.39897
G1 X64.860 Y81.737 E19.41003
G1 X65.070 Y81.407 E19.42089
G1 X65.320 Y81.107 E19.43174
G1 X65.548 Y80.890 E19.44047
G1 X65.940 Y81.267 F3000.000
G1 X67.750 Y79.967 F900.000 E19.50238
G1 X68.100 Y79.797 E19.51318
G1 X68.480 Y79.667 E19.52434
G1 X68.870 Y79.607 E19.53530
G1 X69.070 Y79.597 E19.54086
G1 X130.920 Y79.597 E21.25892
G1 X131.120 Y79.607 E21.26448
G1 X131.510 Y79.667 E21.27544
G1 X131.890 Y79.797 E21.28660
G1 X132.240 Y79.967 E21.29741
G1 X134.050 Y81.267 E21.35931
G1 X134.310 Y81.517 E21.36933
G1 X134.530 Y81.797 E21.37922
G1 X134.780 Y82.267 E21.39401
G1 X135.420 Y84.207 E21.45075
G1 X135.530 Y84.677 E21.46416
G1 X135.550 Y84.997 E21.47307
G1 X135.550 Y114.997 E22.30640
G1 X135.500 Y115.477 E22.31981
G1 X135.420 Y115.797 E22.32897
G1 X134.840 Y117.557 E22.38044
G1 X134.590 Y118.097 E22.39697
G1 X134.350 Y118.417 E22.40809
G1 X134.070 Y118.697 E22.41908
G1 X132.270 Y120.007 E22.48092
G1 X131.960 Y120.177 E22.49075
G1 X131.620 Y120.297 E22.50076
G1 X131.270 Y120.367 E22.51068
G1 X130.920 Y120.397 E22.52043
G1 X69.070 Y120.397 E24.23849
G1 X68.720 Y120.367 E24.24825
G1 X68.370 Y120.297 E24.25816
G1 X68.030 Y120.177 E24.26818
G1 X67.870 Y120.097 E24.27315
G1 X67.570 Y119.907 E24.28301
G1 X66.070 Y118.817 E24.33452
G1 X65.800 Y118.587 E24.34437
G1 X65.560 Y118.327 E24.35420
G1 X65.360 Y118.027 E24.36421
G1 X65.150 Y117.537 E24.37902
G1 X64.530 Y115.627 E24.43480
G1 X64.470 Y115.317 E24.44357
G1 X64.450 Y114.997 E24.45248
G1 X64.450 Y84.997 E25.28581
G1 X64.470 Y84.677 E25.29472
G1 X64.530 Y84.367 E25.30349
G1 X65.210 Y82.277 E25.36454
G1 X65.280 Y82.117 E25.36939
G1 X65.460 Y81.807 E25.37935
G1 X65.680 Y81.517 E25.38946
G1 X65.880 Y81.322 E25.39721
G1 F1800.000 E24.39721
G92 E0
G1 X74.940 Y91.307 F3000.000
G1 F1800.000 E1.00000
G1 X75.879 Y90.503 F900.000 E1.03435
G1 X76.982 Y89.883 E1.06950
G1 X78.215 Y89.478 E1.10556
G1 X78.996 Y89.350 E1.12752
G1 X79.812 Y89.307 E1.15024
G1 X80.669 Y89.340 E1.17404
G1 X81.557 Y89.445 E1.19890
G1 X82.473 Y89.620 E1.22479
G1 X83.407 Y89.862 E1.25160
G1 X84.352 Y90.170 E1.27920
G1 X85.975 Y90.830 E1.32786
G1 X86.733 Y90.133 E1.35648
G1 X87.132 Y89.833 E1.37035
G1 X87.553 Y89.590 E1.38384
G1 X88.004 Y89.416 E1.39726
G1 X88.478 Y89.319 E1.41070
G1 X88.969 Y89.293 E1.42435
G1 X89.480 Y89.324 E1.43860
G1 X90.033 Y89.398 E1.45407
G1 X91.054 Y89.611 E1.48306
G1 X92.063 Y89.917 E1.51235
G1 X92.556 Y90.102 E1.52698
G1 X93.504 Y90.530 E1.55586
G1 X94.056 Y90.828 E1.57329
G1 X94.304 Y90.294 E1.58965
G1 X94.738 Y89.769 E1.60856
G1 X95.334 Y89.415 E1.62781
G1 X96.018 Y89.280 E1.64718
G1 X96.734 Y89.329 E1.66712
G1 X97.495 Y89.516 E1.68889
G1 X98.335 Y89.821 E1.71371
G1 X99.736 Y90.455 E1.75644
G1 X99.833 Y90.174 E1.76469
G1 X99.982 Y89.925 E1.77274
G1 X100.204 Y89.713 E1.78126
G1 X100.448 Y89.582 E1.78898
G1 X100.662 Y89.513 E1.79523
G1 X101.161 Y89.432 E1.80926
G1 X101.674 Y89.408 E1.82352
G1 X102.199 Y89.420 E1.83811
G1 X103.664 Y89.512 E1.87887
G1 X103.747 Y95.191 E2.03664
G1 X105.547 Y96.879 E2.10520
G1 X106.297 Y97.538 E2.13291
G1 X106.969 Y98.090 E2.15708
G1 X107.983 Y98.857 E2.19240
G1 X107.187 Y95.568 E2.28638
G1 X107.000 Y94.706 E2.31090
G1 X106.867 Y93.941 E2.33247
G1 X106.786 Y93.256 E2.35163
G1 X106.761 Y92.635 E2.36890
G1 X106.795 Y92.063 E2.38481
G1 X106.891 Y91.531 E2.39982
G1 X107.059 Y91.009 E2.41505
G1 X107.467 Y90.293 E2.43793
G1 X108.075 Y89.737 E2.46084
G1 X108.827 Y89.411 E2.48359
G1 X109.651 Y89.317 E2.50663
G1 X110.511 Y89.422 E2.53070
G1 X111.401 Y89.700 E2.55659
G1 X112.324 Y90.135 E2.58494
G1 X113.461 Y90.847 E2.62221
G1 X114.812 Y89.392 E2.67735
G1 X116.857 Y89.395 E2.73415
G1 X117.861 Y89.422 E2.76204
G1 X118.817 Y89.507 E2.78871
G1 X119.739 Y89.660 E2.81467
G1 X120.647 Y89.887 E2.84068
G1 X121.560 Y90.197 E2.86746
G1 X122.501 Y90.592 E2.89579
G1 X123.494 Y91.077 E2.92650
G1 X124.561 Y91.658 E2.96026
G1 X126.504 Y92.755 E3.02224
G1 X126.678 Y95.500 E3.09862
G1 X126.755 Y97.612 E3.15734
G1 X125.146 Y96.445 E3.21254
G1 X123.449 Y95.155 E3.27176
G1 X122.839 Y94.746 E3.29217
G1 X122.197 Y94.354 E3.31306
G1 X121.544 Y93.990 E3.33381
G1 X120.901 Y93.666 E3.35382
G1 X120.289 Y93.393 E3.37245
G1 X119.730 Y93.180 E3.38906
G1 X119.245 Y93.034 E3.40313
G1 X118.823 Y92.945 E3.41510
G1 X118.421 Y92.892 E3.42636
G1 X118.054 Y92.873 E3.43658
G1 X117.732 Y92.887 E3.44551
G1 X117.470 Y92.926 E3.45289
G1 X117.283 Y92.981 E3.45831
G1 X117.169 Y93.039 E3.46186
G1 X117.052 Y93.223 E3.46791
G1 X116.931 Y93.553 E3.47767
G1 X116.834 Y94.009 E3.49062
G1 X116.743 Y94.868 E3.51462
G1 X117.250 Y94.788 E3.52888
G1 X117.593 Y94.819 E3.53844
G1 X117.911 Y94.896 E3.54753
G1 X118.241 Y95.010 E3.55724
G1 X118.939 Y95.314 E3.57839
G1 X119.622 Y95.682 E3.59995
G1 X120.274 Y96.102 E3.62147
G1 X120.883 Y96.562 E3.64269
G1 X121.440 Y97.055 E3.66334
G1 X121.933 Y97.574 E3.68323
G1 X122.349 Y98.117 E3.70222
G1 X122.667 Y98.674 E3.72004
G1 X122.849 Y99.141 E3.73396
G1 X122.976 Y99.623 E3.74781
G1 X123.054 Y100.113 E3.76161
G1 X123.087 Y100.605 E3.77530
G1 X123.074 Y101.090 E3.78878
G1 X123.011 Y101.562 E3.80199
G1 X122.890 Y102.016 E3.81505
G1 X122.684 Y102.459 E3.82863
G1 X122.250 Y102.967 E3.84717
G1 X121.685 Y103.337 E3.86595
G1 X121.052 Y103.572 E3.88470
G1 X120.373 Y103.692 E3.90385
G1 X119.662 Y103.707 E3.92361
G1 X118.929 Y103.623 E3.94409
G1 X118.191 Y103.439 E3.96523
G1 X117.451 Y103.149 E3.98729
G1 X116.491 Y102.584 E4.01825
G1 X115.599 Y101.837 E4.05058
G1 X114.795 Y100.947 E4.08389
G1 X114.087 Y99.939 E4.11811
G1 X113.486 Y98.835 E4.15301
G1 X113.004 Y97.658 E4.18833
G1 X112.657 Y96.429 E4.22382
G1 X112.467 Y95.201 E4.25834
G1 X112.408 Y94.673 E4.27309
G1 X112.355 Y94.462 E4.27914
G1 X112.235 Y94.314 E4.28443
G1 X111.900 Y94.009 E4.29700
G1 X111.440 Y93.680 E4.31272
G1 X110.870 Y93.318 E4.33149
G1 X110.962 Y93.977 E4.34998
G1 X111.080 Y94.561 E4.36654
G1 X111.250 Y95.253 E4.38633
G1 X111.648 Y96.654 E4.42678
G1 X111.903 Y97.632 E4.45484
G1 X112.051 Y98.446 E4.47783
G1 X112.116 Y99.231 E4.49972
G1 X112.120 Y100.229 E4.52745
G1 X112.084 Y100.741 E4.54170
G1 X112.008 Y101.209 E4.55488
G1 X111.875 Y101.645 E4.56752
G1 X111.669 Y102.045 E4.58004
G1 X111.387 Y102.390 E4.59241
G1 X111.048 Y102.663 E4.60449
G1 X110.663 Y102.878 E4.61674
G1 X110.073 Y103.095 E4.63422
G1 X109.435 Y103.183 E4.65211
G1 X108.775 Y103.125 E4.67049
G1 X108.109 Y102.930 E4.68977
G1 X107.427 Y102.614 E4.71066
G1 X106.704 Y102.179 E4.73410
G1 X105.914 Y101.625 E4.76090
G1 X105.354 Y101.190 E4.78058
G1 X105.241 Y101.265 E4.78435
G1 X105.414 Y101.947 E4.80392
G1 X105.508 Y102.559 E4.82111
G1 X104.949 Y102.991 E4.84073
G1 X104.667 Y103.086 E4.84900
G1 X104.210 Y103.139 E4.86177
G1 X103.657 Y103.143 E4.87714
G1 X101.441 Y103.076 E4.93874
G1 X100.789 Y100.980 E4.99969
G1 X100.226 Y98.933 E5.05867
G1 X99.913 Y97.588 E5.09702
G1 X99.416 Y95.097 E5.16760
G1 X99.320 Y94.771 E5.17703
G1 X99.232 Y94.575 E5.18299
G1 X99.137 Y94.441 E5.18755
G1 X98.984 Y94.295 E5.19343
G1 X98.341 Y93.844 E5.21525
G1 X97.826 Y93.535 E5.23194
G1 X97.856 Y94.530 E5.25958
G1 X97.906 Y95.121 E5.27607
G1 X97.993 Y95.787 E5.29471
G1 X98.266 Y97.272 E5.33666
G1 X98.651 Y98.853 E5.38186
G1 X98.877 Y99.638 E5.40456
G1 X99.535 Y101.686 E5.46432
G1 X99.844 Y102.835 E5.49736
G1 X98.892 Y103.086 E5.52472
G1 X98.505 Y103.127 E5.53552
G1 X97.787 Y103.140 E5.55548
G1 X95.631 Y103.076 E5.61539
G1 X94.740 Y100.233 E5.69815
G1 X94.315 Y98.708 E5.74214
G1 X93.991 Y97.328 E5.78150
G1 X93.777 Y96.121 E5.81554
G1 X93.664 Y95.172 E5.84211
G1 X93.603 Y94.881 E5.85036
G1 X93.534 Y94.702 E5.85569
G1 X93.452 Y94.575 E5.85988
G1 X93.310 Y94.437 E5.86539
G1 X93.056 Y94.260 E5.87398
G1 X92.661 Y94.040 E5.88654
G1 X92.128 Y93.777 E5.90307
G1 X91.427 Y93.474 E5.92428
G1 X90.823 Y93.271 E5.94196
G1 X90.323 Y93.162 E5.95617
G1 X89.943 Y93.137 E5.96676
G1 X89.697 Y93.171 E5.97368
G1 X89.528 Y93.246 E5.97880
G1 X89.443 Y93.414 E5.98404
G1 X89.375 Y93.747 E5.99346
G1 X89.340 Y94.334 E6.00981
G1 X89.355 Y95.114 E6.03147
G1 X89.426 Y96.043 E6.05736
G1 X89.557 Y97.169 E6.08884
G1 X90.696 Y97.794 E6.12493
G1 X90.991 Y98.075 E6.13625
G1 X91.616 Y98.805 E6.16294
G1 X91.985 Y99.280 E6.17964
G1 X92.796 Y100.393 E6.21790
G1 X93.221 Y101.011 E6.23873
G1 X93.925 Y102.096 E6.27466
G1 X94.537 Y103.130 E6.30805
G1 X95.059 Y104.116 E6.33902
G1 X95.489 Y105.057 E6.36777
G1 X95.827 Y105.958 E6.39451
G1 X96.073 Y106.825 E6.41954
G1 X96.226 Y107.660 E6.44311
G1 X96.282 Y108.455 E6.46525
G1 X96.266 Y109.041 E6.48154
G1 X96.204 Y109.574 E6.49645
G1 X96.088 Y110.075 E6.51072
G1 X95.907 Y110.541 E6.52461
G1 X95.654 Y110.966 E6.53834
G1 X95.334 Y111.337 E6.55197
G1 X94.955 Y111.649 E6.56559
G1 X94.484 Y111.934 E6.58088
G1 X93.623 Y112.191 E6.60584
G1 X92.690 Y112.106 E6.63187
G1 X91.812 Y111.725 E6.65846
G1 X90.997 Y111.113 E6.68678
G1 X90.227 Y110.300 E6.71787
G1 X89.495 Y109.298 E6.75235
G1 X88.756 Y108.044 E6.79278
G1 X88.624 Y108.071 E6.79653
G1 X88.498 Y109.017 E6.82304
G1 X88.030 Y110.064 E6.85491
G1 X87.270 Y110.960 E6.88755
G1 X86.248 Y111.646 E6.92174
G1 X85.014 Y112.068 E6.95797
G1 X84.161 Y112.173 E6.98184
G1 X83.297 Y112.152 E7.00585
G1 X82.423 Y112.019 E7.03038
G1 X81.557 Y111.784 E7.05533
G1 X80.710 Y111.455 E7.08057
G1 X79.899 Y111.035 E7.10592
G1 X79.143 Y110.529 E7.13118
G1 X78.460 Y109.941 E7.15625
G1 X77.671 Y109.046 E7.18936
G1 X77.057 Y108.090 E7.22093
G1 X76.623 Y107.089 E7.25125
G1 X76.379 Y106.059 E7.28065
G1 X76.334 Y105.022 E7.30949
G1 X76.495 Y104.001 E7.33820
G1 X76.866 Y103.025 E7.36720
G1 X77.409 Y102.177 E7.39516
G1 X76.268 Y101.505 E7.43196
G1 X75.624 Y101.027 E7.45424
G1 X75.051 Y100.502 E7.47582
G1 X74.552 Y99.928 E7.49695
G1 X74.130 Y99.305 E7.51785
G1 X73.786 Y98.636 E7.53876
G1 X73.521 Y97.923 E7.55990
G1 X73.327 Y97.151 E7.58200
G1 X73.190 Y95.843 E7.61852
G1 X73.295 Y94.568 E7.65407
G1 X73.631 Y93.368 E7.68867
G1 X74.184 Y92.272 E7.72279
G1 X74.889 Y91.371 E7.75455
