; generated by Slic3r 0.9.9 on 2013-06-04 at 10:38:53

; layer_height = 0.36
; perimeters = 2
; top_solid_layers = 3
; bottom_solid_layers = 3
; fill_density = 0.6
; perimeter_speed = 60
; infill_speed = 70
; travel_speed = 100
; nozzle_diameter = 0.5
; filament_diameter = 3
; extrusion_multiplier = 0.8
; perimeters extrusion width = 0.56mm
; infill extrusion width = 0.43mm
; solid infill extrusion width = 0.43mm
; top infill extrusion width = 0.43mm

G21 ; set units to millimeters
M107
M104 S220 ; set temperature
G28 ; home all axes
M92 X64.8592 ; calibrate X
M92 Y64.8592  ; calibrate Y
M92 Z2560   ; calibrate Z
M92 E569  ; calibrate E
M551 ; prime extruder 1
M109 S220 ; wait for temperature to be reached
G90 ; use absolute coordinates
G92 E0
M82 ; use absolute distances for extrusion
G1 F1800.000 E-1.00000
G92 E0
G1 Z0.360 F6000.000
G1 X64.610 Y79.547
G1 F1800.000 E1.00000
G1 X66.310 Y78.307 F1800.000 E1.04676
G1 X66.940 Y77.927 E1.06311
G1 X67.390 Y77.727 E1.07405
G1 X68.090 Y77.517 E1.09029
G1 X68.580 Y77.447 E1.10129
G1 X69.070 Y77.417 E1.11220
G1 X130.920 Y77.417 E2.48665
G1 X131.650 Y77.477 E2.50292
G1 X132.140 Y77.577 E2.51404
G1 X132.600 Y77.727 E2.52479
G1 X133.050 Y77.927 E2.53573
G1 X133.270 Y78.047 E2.54130
G1 X133.680 Y78.307 E2.55209
G1 X135.380 Y79.537 E2.59872
G1 X135.570 Y79.697 E2.60424
G1 X135.920 Y80.047 E2.61524
G1 X136.380 Y80.637 E2.63186
G1 X136.630 Y81.067 E2.64292
G1 X136.830 Y81.517 E2.65386
G1 X136.910 Y81.757 E2.65948
G1 X137.580 Y83.817 E2.70762
G1 X137.690 Y84.397 E2.72074
G1 X137.720 Y84.697 E2.72744
G1 X137.730 Y114.997 E3.40077
G1 X137.690 Y115.597 E3.41413
G1 X137.640 Y115.897 E3.42089
G1 X137.490 Y116.477 E3.43421
G1 X136.830 Y118.467 E3.48080
G1 X136.630 Y118.917 E3.49174
G1 X136.240 Y119.547 E3.50820
G1 X135.760 Y120.107 E3.52460
G1 X135.200 Y120.577 E3.54084
G1 X133.700 Y121.667 E3.58205
G1 X133.070 Y122.057 E3.59851
G1 X132.380 Y122.347 E3.61514
G1 X132.140 Y122.417 E3.62070
G1 X131.660 Y122.517 E3.63160
G1 X131.170 Y122.567 E3.64254
G1 X69.070 Y122.577 E5.02254
G1 X68.330 Y122.517 E5.03904
G1 X67.850 Y122.417 E5.04994
G1 X67.610 Y122.347 E5.05549
G1 X66.920 Y122.057 E5.07212
G1 X66.290 Y121.667 E5.08859
G1 X64.590 Y120.427 E5.13535
G1 X64.230 Y120.097 E5.14620
G1 X63.740 Y119.537 E5.16274
G1 X63.470 Y119.117 E5.17383
G1 X63.250 Y118.677 E5.18476
G1 X63.070 Y118.217 E5.19574
G1 X62.420 Y116.167 E5.24353
G1 X62.310 Y115.587 E5.25665
G1 X62.280 Y115.297 E5.26313
G1 X62.280 Y84.707 E5.94291
G1 X62.310 Y84.407 E5.94961
G1 X62.420 Y83.827 E5.96273
G1 X63.070 Y81.777 E6.01052
G1 X63.250 Y81.307 E6.02170
G1 X63.610 Y80.647 E6.03841
G1 X63.900 Y80.247 E6.04939
G1 X64.240 Y79.877 E6.06055
G1 X64.547 Y79.600 E6.06975
G1 X64.930 Y79.977 F6000.000
G1 X66.820 Y78.617 F1800.000 E6.12150
G1 X67.240 Y78.387 E6.13214
G1 X67.670 Y78.207 E6.14250
G1 X68.130 Y78.077 E6.15312
G1 X68.600 Y77.997 E6.16371
G1 X69.070 Y77.967 E6.17418
G1 X130.920 Y77.967 E7.54862
G1 X131.390 Y77.997 E7.55909
G1 X131.860 Y78.077 E7.56968
G1 X132.540 Y78.287 E7.58550
G1 X132.960 Y78.497 E7.59594
G1 X133.170 Y78.617 E7.60131
G1 X135.050 Y79.977 E7.65287
G1 X135.410 Y80.297 E7.66358
G1 X135.720 Y80.657 E7.67413
G1 X136.110 Y81.267 E7.69022
G1 X136.310 Y81.697 E7.70076
G1 X137.050 Y83.947 E7.75340
G1 X137.150 Y84.467 E7.76516
G1 X137.180 Y84.997 E7.77696
G1 X137.180 Y114.997 E8.44363
G1 X137.150 Y115.527 E8.45542
G1 X137.050 Y116.047 E8.46719
G1 X136.310 Y118.287 E8.51961
G1 X136.220 Y118.507 E8.52490
G1 X136.000 Y118.927 E8.53543
G1 X135.870 Y119.127 E8.54073
G1 X135.580 Y119.497 E8.55118
G1 X135.420 Y119.677 E8.55653
G1 X135.070 Y119.997 E8.56707
G1 X133.180 Y121.367 E8.61894
G1 X132.980 Y121.487 E8.62413
G1 X132.550 Y121.697 E8.63476
G1 X132.100 Y121.857 E8.64538
G1 X131.630 Y121.967 E8.65610
G1 X130.920 Y122.027 E8.67194
G1 X69.070 Y122.027 E10.04638
G1 X68.360 Y121.967 E10.06221
G1 X67.890 Y121.857 E10.07294
G1 X67.440 Y121.697 E10.08355
G1 X67.010 Y121.487 E10.09419
G1 X66.610 Y121.227 E10.10479
G1 X64.920 Y119.997 E10.15124
G1 X64.410 Y119.497 E10.16711
G1 X64.120 Y119.117 E10.17773
G1 X63.990 Y118.917 E10.18303
G1 X63.760 Y118.487 E10.19387
G1 X63.590 Y118.047 E10.20435
G1 X62.950 Y116.037 E10.25123
G1 X62.850 Y115.517 E10.26300
G1 X62.830 Y115.257 E10.26879
G1 X62.830 Y84.737 E10.94701
G1 X62.890 Y84.217 E10.95865
G1 X63.020 Y83.717 E10.97013
G1 X63.590 Y81.947 E11.01145
G1 X63.760 Y81.497 E11.02214
G1 X63.990 Y81.067 E11.03298
G1 X64.260 Y80.667 E11.04370
G1 X64.580 Y80.307 E11.05440
G1 X64.869 Y80.031 E11.06328
G1 X65.280 Y80.407 F6000.000
G1 X67.130 Y79.067 F1800.000 E11.11404
G1 X67.330 Y78.957 E11.11911
G1 X67.740 Y78.767 E11.12915
G1 X68.170 Y78.627 E11.13920
G1 X68.620 Y78.537 E11.14940
G1 X69.070 Y78.507 E11.15942
G1 X130.920 Y78.507 E12.53387
G1 X131.370 Y78.537 E12.54389
G1 X131.820 Y78.627 E12.55409
G1 X132.250 Y78.767 E12.56414
G1 X132.660 Y78.957 E12.57418
G1 X132.860 Y79.067 E12.57925
G1 X134.540 Y80.277 E12.62526
G1 X134.870 Y80.537 E12.63460
G1 X135.160 Y80.837 E12.64387
G1 X135.530 Y81.337 E12.65769
G1 X135.720 Y81.707 E12.66693
G1 X135.880 Y82.097 E12.67630
G1 X136.460 Y83.867 E12.71769
G1 X136.570 Y84.307 E12.72777
G1 X136.630 Y84.767 E12.73808
G1 X136.640 Y114.997 E13.40986
G1 X136.610 Y115.457 E13.42010
G1 X136.520 Y115.917 E13.43052
G1 X135.800 Y118.107 E13.48175
G1 X135.710 Y118.317 E13.48682
G1 X135.490 Y118.717 E13.49697
G1 X135.360 Y118.897 E13.50190
G1 X135.220 Y119.077 E13.50697
G1 X134.910 Y119.407 E13.51703
G1 X134.560 Y119.697 E13.52713
G1 X132.870 Y120.917 E13.57345
G1 X132.470 Y121.137 E13.58360
G1 X132.040 Y121.307 E13.59387
G1 X131.380 Y121.457 E13.60891
G1 X130.920 Y121.487 E13.61916
G1 X69.070 Y121.487 E14.99360
G1 X68.610 Y121.457 E15.00384
G1 X68.170 Y121.367 E15.01382
G1 X67.730 Y121.227 E15.02409
G1 X67.320 Y121.037 E15.03413
G1 X66.930 Y120.787 E15.04442
G1 X65.250 Y119.557 E15.09069
G1 X65.080 Y119.407 E15.09573
G1 X64.770 Y119.077 E15.10579
G1 X64.500 Y118.707 E15.11597
G1 X64.280 Y118.307 E15.12611
G1 X64.110 Y117.877 E15.13639
G1 X63.540 Y116.117 E15.17750
G1 X63.430 Y115.677 E15.18758
G1 X63.370 Y115.227 E15.19767
G1 X63.370 Y84.767 E15.87456
G1 X63.430 Y84.317 E15.88465
G1 X63.540 Y83.887 E15.89451
G1 X64.110 Y82.117 E15.93583
G1 X64.260 Y81.717 E15.94532
G1 X64.460 Y81.347 E15.95467
G1 X64.690 Y81.007 E15.96379
G1 X64.970 Y80.687 E15.97324
G1 X65.217 Y80.458 E15.98071
G1 X65.610 Y80.837 F6000.000
G1 X67.260 Y79.637 F1800.000 E16.02605
G1 X67.440 Y79.517 E16.03086
G1 X67.820 Y79.317 E16.04040
G1 X68.020 Y79.237 E16.04518
G1 X68.430 Y79.127 E16.05462
G1 X68.640 Y79.087 E16.05937
G1 X69.070 Y79.057 E16.06895
G1 X130.920 Y79.057 E17.44339
G1 X131.350 Y79.087 E17.45297
G1 X131.770 Y79.177 E17.46252
G1 X132.170 Y79.317 E17.47193
G1 X132.550 Y79.517 E17.48148
G1 X134.230 Y80.717 E17.52736
G1 X134.530 Y80.967 E17.53603
G1 X134.910 Y81.397 E17.54879
G1 X135.120 Y81.727 E17.55748
G1 X135.290 Y82.077 E17.56612
G1 X135.360 Y82.267 E17.57062
G1 X135.940 Y84.037 E17.61202
G1 X136.040 Y84.417 E17.62075
G1 X136.070 Y84.607 E17.62502
G1 X136.090 Y84.997 E17.63370
G1 X136.090 Y114.997 E18.30037
G1 X136.070 Y115.387 E18.30904
G1 X135.940 Y115.967 E18.32225
G1 X135.360 Y117.727 E18.36343
G1 X135.090 Y118.307 E18.37765
G1 X134.850 Y118.667 E18.38727
G1 X134.570 Y118.987 E18.39671
G1 X134.410 Y119.127 E18.40144
G1 X132.580 Y120.457 E18.45171
G1 X132.240 Y120.647 E18.46037
G1 X131.880 Y120.787 E18.46895
G1 X131.500 Y120.887 E18.47768
G1 X131.310 Y120.917 E18.48196
G1 X130.920 Y120.937 E18.49063
G1 X69.070 Y120.937 E19.86508
G1 X68.680 Y120.917 E19.87376
G1 X68.490 Y120.887 E19.87803
G1 X68.110 Y120.787 E19.88676
G1 X67.750 Y120.647 E19.89535
G1 X67.580 Y120.557 E19.89962
G1 X67.250 Y120.347 E19.90831
G1 X65.750 Y119.257 E19.94952
G1 X65.450 Y119.007 E19.95820
G1 X65.070 Y118.577 E19.97095
G1 X64.860 Y118.247 E19.97964
G1 X64.630 Y117.707 E19.99268
G1 X64.010 Y115.767 E20.03794
G1 X63.930 Y115.387 E20.04657
G1 X63.910 Y114.997 E20.05525
G1 X63.910 Y84.997 E20.72192
G1 X63.930 Y84.617 E20.73037
G1 X64.000 Y84.237 E20.73896
G1 X64.690 Y82.097 E20.78893
G1 X64.860 Y81.737 E20.79777
G1 X65.070 Y81.407 E20.80647
G1 X65.320 Y81.107 E20.81514
G1 X65.548 Y80.890 E20.82213
G1 X65.940 Y81.267 F6000.000
G1 X67.750 Y79.967 F1800.000 E20.87165
G1 X68.100 Y79.797 E20.88030
G1 X68.480 Y79.667 E20.88923
G1 X68.870 Y79.607 E20.89799
G1 X69.070 Y79.597 E20.90244
G1 X130.920 Y79.597 E22.27689
G1 X131.120 Y79.607 E22.28134
G1 X131.510 Y79.667 E22.29011
G1 X131.890 Y79.797 E22.29903
G1 X132.240 Y79.967 E22.30768
G1 X134.050 Y81.267 E22.35720
G1 X134.310 Y81.517 E22.36522
G1 X134.530 Y81.797 E22.37313
G1 X134.780 Y82.267 E22.38496
G1 X135.420 Y84.207 E22.43036
G1 X135.530 Y84.677 E22.44108
G1 X135.550 Y84.997 E22.44821
G1 X135.550 Y114.997 E23.11487
G1 X135.500 Y115.477 E23.12560
G1 X135.420 Y115.797 E23.13293
G1 X134.840 Y117.557 E23.17411
G1 X134.590 Y118.097 E23.18733
G1 X134.350 Y118.417 E23.19622
G1 X134.070 Y118.697 E23.20502
G1 X132.270 Y120.007 E23.25449
G1 X131.960 Y120.177 E23.26235
G1 X131.620 Y120.297 E23.27036
G1 X131.270 Y120.367 E23.27829
G1 X130.920 Y120.397 E23.28610
G1 X69.070 Y120.397 E24.66054
G1 X68.720 Y120.367 E24.66835
G1 X68.370 Y120.297 E24.67628
G1 X68.030 Y120.177 E24.68429
G1 X67.870 Y120.097 E24.68827
G1 X67.570 Y119.907 E24.69616
G1 X66.070 Y118.817 E24.73737
G1 X65.800 Y118.587 E24.74525
G1 X65.560 Y118.327 E24.75311
G1 X65.360 Y118.027 E24.76112
G1 X65.150 Y117.537 E24.77297
G1 X64.530 Y115.627 E24.81759
G1 X64.470 Y115.317 E24.82461
G1 X64.450 Y114.997 E24.83174
G1 X64.450 Y84.997 E25.49840
G1 X64.470 Y84.677 E25.50553
G1 X64.530 Y84.367 E25.51254
G1 X65.210 Y82.277 E25.56139
G1 X65.280 Y82.117 E25.56527
G1 X65.460 Y81.807 E25.57323
G1 X65.680 Y81.517 E25.58132
G1 X65.880 Y81.322 E25.58752
G1 F1800.000 E24.58752
G92 E0
G1 X74.940 Y91.307 F6000.000
G1 F1800.000 E1.00000
G1 X75.879 Y90.503 F1800.000 E1.02748
G1 X76.982 Y89.883 E1.05560
G1 X78.215 Y89.478 E1.08444
G1 X78.996 Y89.350 E1.10202
G1 X79.812 Y89.307 E1.12019
G1 X80.669 Y89.340 E1.13923
G1 X81.557 Y89.445 E1.15912
G1 X82.473 Y89.620 E1.17983
G1 X83.407 Y89.862 E1.20128
G1 X84.352 Y90.170 E1.22336
G1 X85.975 Y90.830 E1.26229
G1 X86.733 Y90.133 E1.28518
G1 X87.132 Y89.833 E1.29628
G1 X87.553 Y89.590 E1.30707
G1 X88.004 Y89.416 E1.31781
G1 X88.478 Y89.319 E1.32856
G1 X88.969 Y89.293 E1.33948
G1 X89.480 Y89.324 E1.35088
G1 X90.033 Y89.398 E1.36326
G1 X91.054 Y89.611 E1.38645
G1 X92.063 Y89.917 E1.40988
G1 X92.556 Y90.102 E1.42159
G1 X93.504 Y90.530 E1.44469
G1 X94.056 Y90.828 E1.45863
G1 X94.304 Y90.294 E1.47172
G1 X94.738 Y89.769 E1.48685
G1 X95.334 Y89.415 E1.50225
G1 X96.018 Y89.280 E1.51774
G1 X96.734 Y89.329 E1.53370
G1 X97.495 Y89.516 E1.55112
G1 X98.335 Y89.821 E1.57097
G1 X99.736 Y90.455 E1.60515
G1 X99.833 Y90.174 E1.61175
G1 X99.982 Y89.925 E1.61819
G1 X100.204 Y89.713 E1.62501
G1 X100.448 Y89.582 E1.63118
G1 X100.662 Y89.513 E1.63618
G1 X101.161 Y89.432 E1.64741
G1 X101.674 Y89.408 E1.65882
G1 X102.199 Y89.420 E1.67049
G1 X103.664 Y89.512 E1.70310
G1 X103.747 Y95.191 E1.82931
G1 X105.547 Y96.879 E1.88416
G1 X106.297 Y97.538 E1.90633
G1 X106.969 Y98.090 E1.92566
G1 X107.983 Y98.857 E1.95392
G1 X107.187 Y95.568 E2.02911
G1 X107.000 Y94.706 E2.04872
G1 X106.867 Y93.941 E2.06597
G1 X106.786 Y93.256 E2.08131
G1 X106.761 Y92.635 E2.09512
G1 X106.795 Y92.063 E2.10785
G1 X106.891 Y91.531 E2.11986
G1 X107.059 Y91.009 E2.13204
G1 X107.467 Y90.293 E2.15035
G1 X108.075 Y89.737 E2.16867
G1 X108.827 Y89.411 E2.18687
G1 X109.651 Y89.317 E2.20531
G1 X110.511 Y89.422 E2.22456
G1 X111.401 Y89.700 E2.24527
G1 X112.324 Y90.135 E2.26795
G1 X113.461 Y90.847 E2.29777
G1 X114.812 Y89.392 E2.34188
G1 X116.857 Y89.395 E2.38732
G1 X117.861 Y89.422 E2.40963
G1 X118.817 Y89.507 E2.43097
G1 X119.739 Y89.660 E2.45174
G1 X120.647 Y89.887 E2.47254
G1 X121.560 Y90.197 E2.49397
G1 X122.501 Y90.592 E2.51664
G1 X123.494 Y91.077 E2.54120
G1 X124.561 Y91.658 E2.56821
G1 X126.504 Y92.755 E2.61779
G1 X126.678 Y95.500 E2.67890
G1 X126.755 Y97.612 E2.72587
G1 X125.146 Y96.445 E2.77003
G1 X123.449 Y95.155 E2.81741
G1 X122.839 Y94.746 E2.83374
G1 X122.197 Y94.354 E2.85045
G1 X121.544 Y93.990 E2.86705
G1 X120.901 Y93.666 E2.88305
G1 X120.289 Y93.393 E2.89796
G1 X119.730 Y93.180 E2.91125
G1 X119.245 Y93.034 E2.92251
G1 X118.823 Y92.945 E2.93208
G1 X118.421 Y92.892 E2.94109
G1 X118.054 Y92.873 E2.94926
G1 X117.732 Y92.887 E2.95641
G1 X117.470 Y92.926 E2.96231
G1 X117.283 Y92.981 E2.96665
G1 X117.169 Y93.039 E2.96948
G1 X117.052 Y93.223 E2.97433
G1 X116.931 Y93.553 E2.98213
G1 X116.834 Y94.009 E2.99249
G1 X116.743 Y94.868 E3.01170
G1 X117.250 Y94.788 E3.02311
G1 X117.593 Y94.819 E3.03076
G1 X117.911 Y94.896 E3.03802
G1 X118.241 Y95.010 E3.04579
G1 X118.939 Y95.314 E3.06271
G1 X119.622 Y95.682 E3.07996
G1 X120.274 Y96.102 E3.09718
G1 X120.883 Y96.562 E3.11415
G1 X121.440 Y97.055 E3.13067
G1 X121.933 Y97.574 E3.14658
G1 X122.349 Y98.117 E3.16178
G1 X122.667 Y98.674 E3.17603
G1 X122.849 Y99.141 E3.18717
G1 X122.976 Y99.623 E3.19825
G1 X123.054 Y100.113 E3.20929
G1 X123.087 Y100.605 E3.22024
G1 X123.074 Y101.090 E3.23102
G1 X123.011 Y101.562 E3.24160
G1 X122.890 Y102.016 E3.25204
G1 X122.684 Y102.459 E3.26291
G1 X122.250 Y102.967 E3.27774
G1 X121.685 Y103.337 E3.29276
G1 X121.052 Y103.572 E3.30776
G1 X120.373 Y103.692 E3.32308
G1 X119.662 Y103.707 E3.33889
G1 X118.929 Y103.623 E3.35527
G1 X118.191 Y103.439 E3.37219
G1 X117.451 Y103.149 E3.38983
G1 X116.491 Y102.584 E3.41460
G1 X115.599 Y101.837 E3.44046
G1 X114.795 Y100.947 E3.46711
G1 X114.087 Y99.939 E3.49449
G1 X113.486 Y98.835 E3.52241
G1 X113.004 Y97.658 E3.55066
G1 X112.657 Y96.429 E3.57905
G1 X112.467 Y95.201 E3.60667
G1 X112.408 Y94.673 E3.61847
G1 X112.355 Y94.462 E3.62332
G1 X112.235 Y94.314 E3.62754
G1 X111.900 Y94.009 E3.63760
G1 X111.440 Y93.680 E3.65018
G1 X110.870 Y93.318 E3.66519
G1 X110.962 Y93.977 E3.67998
G1 X111.080 Y94.561 E3.69323
G1 X111.250 Y95.253 E3.70906
G1 X111.648 Y96.654 E3.74142
G1 X111.903 Y97.632 E3.76387
G1 X112.051 Y98.446 E3.78226
G1 X112.116 Y99.231 E3.79978
G1 X112.120 Y100.229 E3.82196
G1 X112.084 Y100.741 E3.83336
G1 X112.008 Y101.209 E3.84390
G1 X111.875 Y101.645 E3.85402
G1 X111.669 Y102.045 E3.86403
G1 X111.387 Y102.390 E3.87393
G1 X111.048 Y102.663 E3.88359
G1 X110.663 Y102.878 E3.89339
G1 X110.073 Y103.095 E3.90738
G1 X109.435 Y103.183 E3.92169
G1 X108.775 Y103.125 E3.93639
G1 X108.109 Y102.930 E3.95182
G1 X107.427 Y102.614 E3.96853
G1 X106.704 Y102.179 E3.98728
G1 X105.914 Y101.625 E4.00872
G1 X105.354 Y101.190 E4.02446
G1 X105.241 Y101.265 E4.02748
G1 X105.414 Y101.947 E4.04313
G1 X105.508 Y102.559 E4.05689
G1 X104.949 Y102.991 E4.07258
G1 X104.667 Y103.086 E4.07920
G1 X104.210 Y103.139 E4.08942
G1 X103.657 Y103.143 E4.10171
G1 X101.441 Y103.076 E4.15099
G1 X100.789 Y100.980 E4.19975
G1 X100.226 Y98.933 E4.24693
G1 X99.913 Y97.588 E4.27762
G1 X99.416 Y95.097 E4.33408
G1 X99.320 Y94.771 E4.34162
G1 X99.232 Y94.575 E4.34639
G1 X99.137 Y94.441 E4.35004
G1 X98.984 Y94.295 E4.35475
G1 X98.341 Y93.844 E4.37220
G1 X97.826 Y93.535 E4.38555
G1 X97.856 Y94.530 E4.40766
G1 X97.906 Y95.121 E4.42086
G1 X97.993 Y95.787 E4.43577
G1 X98.266 Y97.272 E4.46933
G1 X98.651 Y98.853 E4.50549
G1 X98.877 Y99.638 E4.52365
G1 X99.535 Y101.686 E4.57146
G1 X99.844 Y102.835 E4.59789
G1 X98.892 Y103.086 E4.61978
G1 X98.505 Y103.127 E4.62841
G1 X97.787 Y103.140 E4.64439
G1 X95.631 Y103.076 E4.69231
G1 X94.740 Y100.233 E4.75852
G1 X94.315 Y98.708 E4.79371
G1 X93.991 Y97.328 E4.82520
G1 X93.777 Y96.121 E4.85243
G1 X93.664 Y95.172 E4.87369
G1 X93.603 Y94.881 E4.88029
G1 X93.534 Y94.702 E4.88455
G1 X93.452 Y94.575 E4.88791
G1 X93.310 Y94.437 E4.89231
G1 X93.056 Y94.260 E4.89918
G1 X92.661 Y94.040 E4.90924
G1 X92.128 Y93.777 E4.92245
G1 X91.427 Y93.474 E4.93942
G1 X90.823 Y93.271 E4.95357
G1 X90.323 Y93.162 E4.96494
G1 X89.943 Y93.137 E4.97341
G1 X89.697 Y93.171 E4.97894
G1 X89.528 Y93.246 E4.98304
G1 X89.443 Y93.414 E4.98723
G1 X89.375 Y93.747 E4.99477
G1 X89.340 Y94.334 E5.00785
G1 X89.355 Y95.114 E5.02518
G1 X89.426 Y96.043 E5.04589
G1 X89.557 Y97.169 E5.07107
