; generated by Slic3r 0.9.10-dev on 2013-06-07 at 15:36:03

; layer_height = 0.36
; perimeters = 2
; top_solid_layers = 3
; bottom_solid_layers = 3
; fill_density = 0.6
; perimeter_speed = 60
; infill_speed = 70
; travel_speed = 100
; nozzle_diameter = 0.5
; filament_diameter = 3
; extrusion_multiplier = 0.8
; perimeters extrusion width = 0.56mm
; infill extrusion width = 0.43mm
; solid infill extrusion width = 0.56mm
; top infill extrusion width = 0.56mm

G21 ; set units to millimeters
M107
M104 S220 ; set temperature
G28 ; home all axes
M92 X64.8592 ; calibrate X
M92 Y64.8592  ; calibrate Y
M92 Z2560   ; calibrate Z
M92 E569  ; calibrate E
M551 ; prime extruder 1
M109 S220 ; wait for temperature to be reached
G90 ; use absolute coordinates
G92 E0
M82 ; use absolute distances for extrusion
G1 F1800.000 E-1.00000
G92 E0
G1 Z0.360 F6000.000
G1 X69.160 Y83.660
G1 F1800.000 E1.00000
G1 X69.870 Y83.070 F1800.000 E1.02051
G1 X70.690 Y82.630 E1.04119
G1 X71.580 Y82.360 E1.06186
G1 X72.500 Y82.270 E1.08240
G1 X127.500 Y82.270 E2.30463
G1 X128.420 Y82.360 E2.32517
G1 X129.310 Y82.630 E2.34584
G1 X130.130 Y83.070 E2.36652
G1 X130.840 Y83.660 E2.38703
G1 X131.430 Y84.370 E2.40754
G1 X131.870 Y85.190 E2.42822
G1 X132.140 Y86.080 E2.44889
G1 X132.230 Y87.000 E2.46943
G1 X132.230 Y113.000 E3.04721
G1 X132.140 Y113.920 E3.06775
G1 X131.870 Y114.810 E3.08842
G1 X131.430 Y115.630 E3.10910
G1 X130.840 Y116.340 E3.12962
G1 X130.130 Y116.930 E3.15013
G1 X129.310 Y117.370 E3.17081
G1 X128.420 Y117.640 E3.19148
G1 X127.500 Y117.730 E3.21202
G1 X72.500 Y117.730 E4.43424
G1 X71.580 Y117.640 E4.45478
G1 X70.690 Y117.370 E4.47545
G1 X69.870 Y116.930 E4.49613
G1 X69.160 Y116.340 E4.51665
G1 X68.570 Y115.630 E4.53716
G1 X68.130 Y114.810 E4.55784
G1 X67.860 Y113.920 E4.57851
G1 X67.770 Y113.000 E4.59905
G1 X67.770 Y87.000 E5.17683
G1 X67.860 Y86.080 E5.19737
G1 X68.130 Y85.190 E5.21804
G1 X68.570 Y84.370 E5.23872
G1 X69.108 Y83.723 E5.25741
G1 X69.540 Y84.040 F6000.000
G1 X70.180 Y83.520 F1800.000 E5.27574
G1 X70.900 Y83.140 E5.29383
G1 X71.680 Y82.900 E5.31197
G1 X72.500 Y82.820 E5.33028
G1 X127.500 Y82.820 E6.55250
G1 X128.320 Y82.900 E6.57081
G1 X129.100 Y83.140 E6.58894
G1 X129.820 Y83.520 E6.60703
G1 X130.460 Y84.040 E6.62536
G1 X130.980 Y84.680 E6.64368
G1 X131.360 Y85.400 E6.66177
G1 X131.600 Y86.180 E6.67991
G1 X131.680 Y87.000 E6.69822
G1 X131.680 Y113.000 E7.27600
G1 X131.600 Y113.820 E7.29431
G1 X131.360 Y114.600 E7.31244
G1 X130.980 Y115.320 E7.33053
G1 X130.460 Y115.960 E7.34886
G1 X129.820 Y116.480 E7.36718
G1 X129.100 Y116.860 E7.38527
G1 X128.320 Y117.100 E7.40341
G1 X127.500 Y117.180 E7.42172
G1 X72.500 Y117.180 E8.64394
G1 X71.680 Y117.100 E8.66225
G1 X70.900 Y116.860 E8.68038
G1 X70.180 Y116.480 E8.69848
G1 X69.540 Y115.960 E8.71680
G1 X69.020 Y115.320 E8.73513
G1 X68.640 Y114.600 E8.75322
G1 X68.400 Y113.820 E8.77135
G1 X68.320 Y113.000 E8.78966
G1 X68.320 Y87.000 E9.36744
G1 X68.400 Y86.180 E9.38575
G1 X68.640 Y85.400 E9.40388
G1 X69.020 Y84.680 E9.42197
G1 X69.488 Y84.103 E9.43848
G1 X69.660 Y84.730 F6000.000
G1 X70.230 Y84.160 F1800.000 E9.45639
G1 X70.920 Y83.720 E9.47458
G1 X71.690 Y83.450 E9.49271
G1 X72.500 Y83.360 E9.51082
G1 X127.500 Y83.360 E10.73305
G1 X128.310 Y83.450 E10.75116
G1 X129.080 Y83.720 E10.76929
G1 X129.770 Y84.160 E10.78748
G1 X130.340 Y84.730 E10.80539
G1 X130.780 Y85.420 E10.82357
G1 X131.050 Y86.190 E10.84171
G1 X131.140 Y87.000 E10.85982
G1 X131.140 Y113.000 E11.43760
G1 X131.050 Y113.810 E11.45571
G1 X130.780 Y114.580 E11.47384
G1 X130.340 Y115.270 E11.49202
G1 X129.770 Y115.840 E11.50994
G1 X129.080 Y116.280 E11.52812
G1 X128.310 Y116.550 E11.54626
G1 X127.500 Y116.640 E11.56437
G1 X72.500 Y116.640 E12.78659
G1 X71.690 Y116.550 E12.80470
G1 X70.920 Y116.280 E12.82283
G1 X70.230 Y115.840 E12.84102
G1 X69.660 Y115.270 E12.85893
G1 X69.220 Y114.580 E12.87712
G1 X68.950 Y113.810 E12.89525
G1 X68.860 Y113.000 E12.91336
G1 X68.860 Y87.000 E13.49114
G1 X68.950 Y86.190 E13.50925
G1 X69.220 Y85.420 E13.52738
G1 X69.616 Y84.799 E13.54375
G1 X69.820 Y85.450 F6000.000
G1 X70.310 Y84.810 F1800.000 E13.56166
G1 X70.950 Y84.320 E13.57957
G1 X71.700 Y84.010 E13.59761
G1 X72.500 Y83.910 E13.61552
G1 X127.500 Y83.910 E14.83775
G1 X128.300 Y84.010 E14.85566
G1 X129.050 Y84.320 E14.87370
G1 X129.690 Y84.810 E14.89161
G1 X130.180 Y85.450 E14.90952
G1 X130.490 Y86.200 E14.92755
G1 X130.590 Y87.000 E14.94547
G1 X130.590 Y113.000 E15.52325
G1 X130.490 Y113.800 E15.54116
G1 X130.180 Y114.550 E15.55920
G1 X129.690 Y115.190 E15.57711
G1 X129.050 Y115.680 E15.59502
G1 X128.300 Y115.990 E15.61306
G1 X127.500 Y116.090 E15.63097
G1 X72.500 Y116.090 E16.85319
G1 X71.700 Y115.990 E16.87111
G1 X70.950 Y115.680 E16.88915
G1 X70.310 Y115.190 E16.90706
G1 X69.820 Y114.550 E16.92497
G1 X69.510 Y113.800 E16.94300
G1 X69.410 Y113.000 E16.96092
G1 X69.410 Y87.000 E17.53870
G1 X69.510 Y86.200 E17.55661
G1 X69.789 Y85.526 E17.57283
G1 X70.300 Y85.730 F6000.000
G1 X70.700 Y85.200 F1800.000 E17.58759
G1 X71.230 Y84.800 E17.60234
G1 X71.840 Y84.540 E17.61708
G1 X72.500 Y84.450 E17.63188
G1 X127.500 Y84.450 E18.85410
G1 X128.160 Y84.540 E18.86890
G1 X128.770 Y84.800 E18.88364
G1 X129.300 Y85.200 E18.89839
G1 X129.700 Y85.730 E18.91315
G1 X129.960 Y86.340 E18.92789
G1 X130.050 Y87.000 E18.94269
G1 X130.050 Y113.000 E19.52047
G1 X129.960 Y113.660 E19.53527
G1 X129.700 Y114.270 E19.55000
G1 X129.300 Y114.800 E19.56476
G1 X128.770 Y115.200 E19.57952
G1 X128.160 Y115.460 E19.59425
G1 X127.500 Y115.550 E19.60905
G1 X72.500 Y115.550 E20.83128
G1 X71.840 Y115.460 E20.84608
G1 X71.230 Y115.200 E20.86081
G1 X70.700 Y114.800 E20.87557
G1 X70.300 Y114.270 E20.89032
G1 X70.040 Y113.660 E20.90506
G1 X69.950 Y113.000 E20.91986
G1 X69.950 Y87.000 E21.49764
G1 X70.040 Y86.340 E21.51244
G1 X70.268 Y85.805 E21.52536
G1 F1800.000 E20.52536
G92 E0
G1 Z0.720 F6000.000
M106 S255
G1 Z1.080
G1 Z1.440
G1 Z1.800
G1 Z2.160
G1 Z2.520
G1 Z2.880
M107
M104 S0 ; turn off temperature
M140 S0 ; turn off heatbed
G28 X0  ; home X axis
M84     ; disable motors
; filament used = 19.5mm (0.1cm3)
