; generated by Slic3r 0.9.9 on 2013-06-07 at 15:06:26

; layer_height = 0.36
; perimeters = 2
; top_solid_layers = 3
; bottom_solid_layers = 3
; fill_density = 1
; perimeter_speed = 30
; infill_speed = 30
; travel_speed = 50
; nozzle_diameter = 0.5
; filament_diameter = 3
; extrusion_multiplier = 0.8
; perimeters extrusion width = 0.56mm
; infill extrusion width = 0.43mm
; solid infill extrusion width = 0.56mm
; top infill extrusion width = 0.56mm
; support material extrusion width = 0.56mm

G21 ; set units to millimeters
M107
M104 S220 ; set temperature
G28 ; home all axes
M92 X64.8592 ; calibrate X
M92 Y64.8592  ; calibrate Y
M92 Z2560   ; calibrate Z
M92 E569  ; calibrate E
M551 ; prime extruder 1
M109 S220 ; wait for temperature to be reached
G90 ; use absolute coordinates
G92 E0
M82 ; use absolute distances for extrusion
G1 F1800.000 E-1.00000
G92 E0
G1 Z0.360 F3000.000
G1 X69.400 Y83.430
G1 F1800.000 E2.00000
G1 X69.940 Y83.020 F900.000 E2.01507
G1 X70.330 Y82.800 E2.02502
G1 X70.950 Y82.530 E2.04004
G1 X71.170 Y82.460 E2.04518
G1 X71.830 Y82.320 E2.06017
G1 X72.050 Y82.290 E2.06510
G1 X72.500 Y82.270 E2.07511
G1 X127.500 Y82.270 E3.29733
G1 X127.950 Y82.290 E3.30734
G1 X128.170 Y82.320 E3.31228
G1 X128.830 Y82.460 E3.32727
G1 X129.260 Y82.610 E3.33739
G1 X129.670 Y82.800 E3.34743
G1 X130.060 Y83.020 E3.35738
G1 X130.600 Y83.430 E3.37245
G1 X131.070 Y83.900 E3.38722
G1 X131.480 Y84.440 E3.40229
G1 X131.700 Y84.830 E3.41224
G1 X131.970 Y85.450 E3.42727
G1 X132.040 Y85.670 E3.43240
G1 X132.140 Y86.110 E3.44242
G1 X132.210 Y86.550 E3.45233
G1 X132.230 Y87.000 E3.46233
G1 X132.230 Y113.000 E4.04011
G1 X132.210 Y113.450 E4.05012
G1 X132.180 Y113.670 E4.05506
G1 X132.040 Y114.330 E4.07005
G1 X131.890 Y114.760 E4.08017
G1 X131.700 Y115.170 E4.09021
G1 X131.480 Y115.560 E4.10016
G1 X131.070 Y116.100 E4.11523
G1 X130.600 Y116.570 E4.13000
G1 X130.060 Y116.980 E4.14507
G1 X129.460 Y117.300 E4.16018
G1 X129.260 Y117.390 E4.16505
G1 X128.830 Y117.540 E4.17517
G1 X128.170 Y117.680 E4.19017
G1 X127.950 Y117.710 E4.19510
G1 X127.500 Y117.730 E4.20511
G1 X72.500 Y117.730 E5.42733
G1 X72.050 Y117.710 E5.43734
G1 X71.830 Y117.680 E5.44228
G1 X71.170 Y117.540 E5.45727
G1 X70.740 Y117.390 E5.46739
G1 X70.330 Y117.200 E5.47743
G1 X69.940 Y116.980 E5.48738
G1 X69.400 Y116.570 E5.50245
G1 X68.930 Y116.100 E5.51722
G1 X68.520 Y115.560 E5.53229
G1 X68.200 Y114.960 E5.54740
G1 X68.110 Y114.760 E5.55227
G1 X67.960 Y114.330 E5.56239
G1 X67.820 Y113.670 E5.57738
G1 X67.790 Y113.450 E5.58232
G1 X67.770 Y113.000 E5.59233
G1 X67.770 Y87.000 E6.17011
G1 X67.790 Y86.550 E6.18012
G1 X67.860 Y86.110 E6.19002
G1 X67.960 Y85.670 E6.20004
G1 X68.110 Y85.240 E6.21016
G1 X68.300 Y84.830 E6.22021
G1 X68.520 Y84.440 E6.23016
G1 X68.780 Y84.080 E6.24002
G1 X69.080 Y83.740 E6.25010
G1 X69.340 Y83.486 E6.25818
G1 X69.620 Y83.970 F3000.000
G1 X69.940 Y83.690 F900.000 E6.26763
G1 X70.290 Y83.450 E6.27706
G1 X70.470 Y83.340 E6.28175
G1 X70.850 Y83.160 E6.29109
G1 X71.250 Y83.010 E6.30059
G1 X71.660 Y82.900 E6.31002
G1 X72.290 Y82.820 E6.32413
G1 X127.710 Y82.820 E7.55569
G1 X128.340 Y82.900 E7.56980
G1 X128.550 Y82.950 E7.57460
G1 X128.950 Y83.080 E7.58395
G1 X129.530 Y83.340 E7.59807
G1 X130.060 Y83.690 E7.61218
G1 X130.380 Y83.970 E7.62163
G1 X130.810 Y84.440 E7.63579
G1 X131.050 Y84.790 E7.64522
G1 X131.160 Y84.970 E7.64991
G1 X131.340 Y85.350 E7.65925
G1 X131.490 Y85.750 E7.66875
G1 X131.600 Y86.160 E7.67818
G1 X131.680 Y86.790 E7.69229
G1 X131.680 Y113.210 E8.27940
G1 X131.600 Y113.840 E8.29351
G1 X131.550 Y114.050 E8.29831
G1 X131.420 Y114.450 E8.30766
G1 X131.160 Y115.030 E8.32178
G1 X130.810 Y115.560 E8.33590
G1 X130.530 Y115.880 E8.34535
G1 X130.060 Y116.310 E8.35950
G1 X129.710 Y116.550 E8.36893
G1 X129.530 Y116.660 E8.37362
G1 X129.150 Y116.840 E8.38296
G1 X128.750 Y116.990 E8.39246
G1 X128.340 Y117.100 E8.40189
G1 X127.710 Y117.180 E8.41600
G1 X72.290 Y117.180 E9.64756
G1 X71.660 Y117.100 E9.66167
G1 X71.450 Y117.050 E9.66647
G1 X71.050 Y116.920 E9.67582
G1 X70.470 Y116.660 E9.68994
G1 X69.940 Y116.310 E9.70405
G1 X69.620 Y116.030 E9.71350
G1 X69.190 Y115.560 E9.72766
G1 X68.950 Y115.210 E9.73709
G1 X68.840 Y115.030 E9.74178
G1 X68.660 Y114.650 E9.75112
G1 X68.510 Y114.250 E9.76061
G1 X68.400 Y113.840 E9.77005
G1 X68.320 Y113.210 E9.78416
G1 X68.320 Y86.790 E10.37127
G1 X68.400 Y86.160 E10.38538
G1 X68.510 Y85.750 E10.39482
G1 X68.660 Y85.350 E10.40431
G1 X68.840 Y84.970 E10.41365
G1 X69.070 Y84.610 E10.42315
G1 X69.190 Y84.440 E10.42777
G1 X69.562 Y84.028 E10.44011
G1 X69.930 Y84.430 F3000.000
G1 X70.400 Y84.030 F900.000 E10.45383
G1 X70.920 Y83.720 E10.46728
G1 X71.110 Y83.640 E10.47186
G1 X71.690 Y83.450 E10.48542
G1 X72.090 Y83.390 E10.49441
G1 X72.500 Y83.360 E10.50355
G1 X127.500 Y83.360 E11.72577
G1 X127.910 Y83.390 E11.73491
G1 X128.310 Y83.450 E11.74389
G1 X128.700 Y83.570 E11.75296
G1 X129.080 Y83.720 E11.76204
G1 X129.430 Y83.920 E11.77100
G1 X129.770 Y84.160 E11.78025
G1 X130.070 Y84.430 E11.78922
G1 X130.470 Y84.900 E11.80293
G1 X130.780 Y85.420 E11.81638
G1 X130.930 Y85.800 E11.82546
G1 X131.050 Y86.190 E11.83453
G1 X131.130 Y86.800 E11.84820
G1 X131.140 Y113.000 E12.43042
G1 X131.110 Y113.410 E12.43956
G1 X131.050 Y113.810 E12.44855
G1 X130.930 Y114.200 E12.45762
G1 X130.780 Y114.580 E12.46669
G1 X130.470 Y115.100 E12.48015
G1 X130.210 Y115.420 E12.48931
G1 X129.770 Y115.840 E12.50283
G1 X129.430 Y116.080 E12.51208
G1 X129.080 Y116.280 E12.52103
G1 X128.890 Y116.360 E12.52561
G1 X128.310 Y116.550 E12.53918
G1 X127.910 Y116.610 E12.54817
G1 X127.500 Y116.640 E12.55730
G1 X72.500 Y116.640 E13.77952
G1 X72.090 Y116.610 E13.78866
G1 X71.690 Y116.550 E13.79765
G1 X71.300 Y116.430 E13.80671
G1 X70.920 Y116.280 E13.81579
G1 X70.400 Y115.970 E13.82925
G1 X70.080 Y115.710 E13.83841
G1 X69.660 Y115.270 E13.85193
G1 X69.420 Y114.930 E13.86117
G1 X69.220 Y114.580 E13.87013
G1 X69.140 Y114.390 E13.87471
G1 X68.950 Y113.810 E13.88828
G1 X68.890 Y113.410 E13.89727
G1 X68.860 Y113.000 E13.90640
G1 X68.860 Y87.000 E14.48418
G1 X68.890 Y86.590 E14.49331
G1 X68.950 Y86.190 E14.50230
G1 X69.140 Y85.610 E14.51586
G1 X69.220 Y85.420 E14.52045
G1 X69.530 Y84.900 E14.53390
G1 X69.874 Y84.490 E14.54580
G1 X70.310 Y84.810 F3000.000
G1 X70.590 Y84.570 F900.000 E14.55399
G1 X70.900 Y84.350 E14.56244
G1 X71.230 Y84.180 E14.57069
G1 X71.760 Y84.000 E14.58313
G1 X72.310 Y83.910 E14.59551
G1 X127.690 Y83.910 E15.82618
G1 X128.060 Y83.960 E15.83448
G1 X128.420 Y84.050 E15.84272
G1 X128.940 Y84.260 E15.85519
G1 X129.260 Y84.460 E15.86357
G1 X129.690 Y84.810 E15.87589
G1 X129.930 Y85.090 E15.88409
G1 X130.150 Y85.400 E15.89253
G1 X130.320 Y85.730 E15.90078
G1 X130.450 Y86.080 E15.90908
G1 X130.540 Y86.440 E15.91733
G1 X130.590 Y86.810 E15.92562
G1 X130.590 Y113.190 E16.51185
G1 X130.540 Y113.560 E16.52014
G1 X130.450 Y113.920 E16.52839
G1 X130.240 Y114.440 E16.54085
G1 X130.040 Y114.760 E16.54924
G1 X129.690 Y115.190 E16.56156
G1 X129.410 Y115.430 E16.56975
G1 X129.100 Y115.650 E16.57820
G1 X128.770 Y115.820 E16.58645
G1 X128.420 Y115.950 E16.59475
G1 X128.060 Y116.040 E16.60299
G1 X127.690 Y116.090 E16.61129
G1 X72.310 Y116.090 E17.84196
G1 X71.940 Y116.040 E17.85025
G1 X71.580 Y115.950 E17.85850
G1 X71.060 Y115.740 E17.87096
G1 X70.740 Y115.540 E17.87935
G1 X70.310 Y115.190 E17.89167
G1 X70.070 Y114.910 E17.89986
G1 X69.850 Y114.600 E17.90831
G1 X69.680 Y114.270 E17.91656
G1 X69.550 Y113.920 E17.92486
G1 X69.460 Y113.560 E17.93310
G1 X69.410 Y113.190 E17.94140
G1 X69.410 Y86.810 E18.52762
G1 X69.500 Y86.260 E18.54001
G1 X69.680 Y85.730 E18.55245
G1 X69.850 Y85.400 E18.56070
G1 X70.070 Y85.090 E18.56914
G1 X70.257 Y84.872 E18.57552
G1 X70.700 Y85.200 F3000.000
G1 X71.090 Y84.880 F900.000 E18.58673
G1 X71.530 Y84.650 E18.59776
G1 X72.000 Y84.500 E18.60873
G1 X72.500 Y84.450 E18.61989
G1 X127.500 Y84.450 E19.84212
G1 X128.000 Y84.500 E19.85328
G1 X128.320 Y84.590 E19.86067
G1 X128.630 Y84.720 E19.86814
G1 X128.910 Y84.880 E19.87531
G1 X129.180 Y85.090 E19.88291
G1 X129.410 Y85.320 E19.89014
G1 X129.620 Y85.590 E19.89774
G1 X129.780 Y85.870 E19.90490
G1 X129.960 Y86.340 E19.91609
G1 X130.000 Y86.500 E19.91975
G1 X130.050 Y87.000 E19.93092
G1 X130.050 Y113.000 E20.50870
G1 X130.000 Y113.500 E20.51986
G1 X129.910 Y113.820 E20.52725
G1 X129.780 Y114.130 E20.53472
G1 X129.620 Y114.410 E20.54189
G1 X129.410 Y114.680 E20.54949
G1 X129.180 Y114.910 E20.55672
G1 X128.910 Y115.120 E20.56432
G1 X128.630 Y115.280 E20.57148
G1 X128.160 Y115.460 E20.58267
G1 X128.000 Y115.500 E20.58633
G1 X127.500 Y115.550 E20.59750
G1 X72.500 Y115.550 E21.81972
G1 X72.000 Y115.500 E21.83089
G1 X71.680 Y115.410 E21.83828
G1 X71.370 Y115.280 E21.84575
G1 X71.090 Y115.120 E21.85291
G1 X70.820 Y114.910 E21.86051
G1 X70.590 Y114.680 E21.86774
G1 X70.380 Y114.410 E21.87534
G1 X70.220 Y114.130 E21.88251
G1 X70.040 Y113.660 E21.89369
G1 X70.000 Y113.500 E21.89736
G1 X69.950 Y113.000 E21.90852
G1 X69.950 Y87.000 E22.48630
G1 X70.000 Y86.500 E22.49747
G1 X70.090 Y86.180 E22.50486
G1 X70.220 Y85.870 E22.51233
G1 X70.380 Y85.590 E22.51949
G1 X70.645 Y85.260 E22.52889
G1 F1800.000 E21.52889
G92 E0
G1 X116.682 Y91.182 F3000.000
G1 F1800.000 E2.00000
G1 X123.318 Y91.182 F450.000 E2.14747
G1 X123.318 Y97.818 E2.29494
G1 X116.682 Y97.818 E2.44242
G1 X116.682 Y91.264 E2.58807
G1 X117.227 Y91.727 F3000.000
G1 X122.773 Y91.727 F450.000 E2.71130
G1 X122.773 Y97.273 E2.83453
G1 X117.227 Y97.273 E2.95776
G1 X117.227 Y91.809 E3.07918
G1 X117.227 Y91.182 F3000.000
G1 X113.318 Y91.182
G1 X113.318 Y97.818 F450.000 E3.22665
G1 X106.682 Y97.818 E3.37412
G1 X106.682 Y91.182 E3.52159
G1 X113.236 Y91.182 E3.66725
G1 X112.773 Y91.727 F3000.000
G1 X112.773 Y97.273 F450.000 E3.79048
G1 X107.227 Y97.273 E3.91371
G1 X107.227 Y91.727 E4.03694
G1 X112.691 Y91.727 E4.15836
G1 X113.318 Y91.727 F3000.000
G1 X104.318 Y91.182
G1 X104.318 Y97.818 F450.000 E4.30583
G1 X97.682 Y97.818 E4.45330
G1 X97.682 Y91.182 E4.60077
G1 X104.236 Y91.182 E4.74643
G1 X103.773 Y91.727 F3000.000
G1 X103.773 Y97.273 F450.000 E4.86966
G1 X98.227 Y97.273 E4.99289
G1 X98.227 Y91.727 E5.11612
G1 X103.691 Y91.727 E5.23753
G1 X104.318 Y91.727 F3000.000
G1 X96.318 Y91.182
G1 X96.318 Y97.818 F900.000 E5.38501
G1 X89.318 Y97.818 E5.54056
G1 X89.318 Y99.182 E5.57087
G1 X96.318 Y99.182 E5.72642
G1 X96.318 Y105.818 E5.87390
G1 X89.682 Y105.818 E6.02137
G1 X89.682 Y104.818 E6.04359
G1 X82.682 Y104.818 E6.19915
G1 X82.682 Y103.818 E6.22137
G1 X76.682 Y103.818 E6.35470
G1 X76.682 Y91.182 E6.63551
G1 X96.236 Y91.182 E7.07005
G1 X95.773 Y91.727 F3000.000
G1 X95.773 Y97.273 F450.000 E7.19328
G1 X90.227 Y97.273 E7.31651
G1 X90.227 Y91.727 E7.43974
G1 X95.691 Y91.727 E7.56116
G1 X96.318 Y91.727 F3000.000
G1 X88.773 Y91.727
G1 X88.773 Y97.273 F450.000 E7.68439
G1 X83.227 Y97.273 E7.80762
G1 X83.227 Y91.727 E7.93085
G1 X88.691 Y91.727 E8.05227
G1 X89.318 Y91.727 F3000.000
G1 X82.773 Y91.727
G1 X82.773 Y97.273 F450.000 E8.17550
G1 X77.227 Y97.273 E8.29873
G1 X77.227 Y91.727 E8.42196
G1 X82.691 Y91.727 E8.54337
G1 X83.318 Y91.727 F3000.000
G1 X82.773 Y97.727
G1 X82.773 Y103.273 F450.000 E8.66660
G1 X77.227 Y103.273 E8.78984
G1 X77.227 Y97.727 E8.91307
G1 X82.691 Y97.727 E9.03448
G1 X83.318 Y97.727 F3000.000
G1 X83.227 Y98.727
G1 X88.773 Y98.727 F450.000 E9.15771
G1 X88.773 Y104.273 E9.28094
G1 X83.227 Y104.273 E9.40417
G1 X83.227 Y98.809 E9.52559
G1 X83.227 Y98.182 F3000.000
G1 F1800.000 E8.52559
G92 E0
G1 X90.227 Y99.727 F3000.000
G1 F1800.000 E2.00000
G1 X95.773 Y99.727 F450.000 E2.12323
G1 X95.773 Y105.273 E2.24646
G1 X90.227 Y105.273 E2.36969
G1 X90.227 Y99.809 E2.49111
G1 X90.227 Y99.182 F3000.000
G1 X97.682 Y100.182
G1 X104.318 Y100.182 F450.000 E2.63858
G1 X104.318 Y106.818 E2.78605
G1 X97.682 Y106.818 E2.93352
G1 X97.682 Y100.264 E3.07918
G1 X98.227 Y100.727 F3000.000
G1 X103.773 Y100.727 F450.000 E3.20241
G1 X103.773 Y106.273 E3.32564
G1 X98.227 Y106.273 E3.44887
G1 X98.227 Y100.809 E3.57029
G1 X98.227 Y100.182 F3000.000
G1 X106.682 Y101.182
G1 X113.318 Y101.182 F450.000 E3.71776
G1 X113.318 Y107.818 E3.86523
G1 X106.682 Y107.818 E4.01270
G1 X106.682 Y101.264 E4.15836
G1 X107.227 Y101.727 F3000.000
G1 X112.773 Y101.727 F450.000 E4.28159
G1 X112.773 Y107.273 E4.40482
G1 X107.227 Y107.273 E4.52805
G1 X107.227 Y101.809 E4.64946
G1 X107.227 Y101.182 F3000.000
G1 X116.682 Y102.182
G1 X123.318 Y102.182 F450.000 E4.79694
G1 X123.318 Y108.818 E4.94441
G1 X116.682 Y108.818 E5.09188
G1 X116.682 Y102.264 E5.23753
G1 X117.227 Y102.727 F3000.000
G1 X122.773 Y102.727 F450.000 E5.36077
G1 X122.773 Y108.273 E5.48400
G1 X117.227 Y108.273 E5.60723
G1 X117.227 Y102.809 E5.72864
G1 X117.227 Y102.182 F3000.000
G1 F1800.000 E4.72864
G92 E0
G1 X73.318 Y112.182 F3000.000
G1 F1800.000 E2.00000
G1 X73.318 Y87.818 F900.000 E2.54142
G1 X126.682 Y87.818 E3.72728
G1 X126.682 Y112.182 E4.26869
G1 X73.400 Y112.182 E5.45274
G1 X72.773 Y112.727 F3000.000
G1 X72.773 Y87.273 F450.000 E6.01840
G1 X127.227 Y87.273 E7.22850
G1 X127.227 Y112.727 E7.79415
G1 X72.855 Y112.727 E9.00244
G1 X73.045 Y112.255 F3000.000
G1 F1800.000 E8.00244
G92 E0
G1 X83.000 Y100.467 F3000.000
G1 F1800.000 E2.00000
G1 X83.000 Y99.501 F450.000 E2.02146
G1 X82.875 Y99.368 E2.02552
G1 X83.000 Y99.501 F3000.000
G1 X83.108 Y99.400 F450.000 E2.02880
G1 X83.108 Y99.400 F3000.000
G1 X83.125 Y99.368 F450.000 E2.02962
G1 X83.000 Y100.467 F3000.000
G1 X83.000 Y101.800 F450.000 E2.05925
G1 X83.000 Y101.800 F3000.000
G1 X83.000 Y102.067 F450.000 E2.06517
G1 X83.000 Y102.067 F3000.000
G1 X83.000 Y102.333 F450.000 E2.07110
G1 X83.000 Y102.333 F3000.000
G1 X83.125 Y102.632 F450.000 E2.07830
G1 X83.000 Y102.499 F3000.000
G1 X82.875 Y102.632 F450.000 E2.08236
G1 F1800.000 E1.08236
G92 E0
G1 X82.136 Y97.625 F3000.000
G1 F1800.000 E2.00000
G1 X81.997 Y97.500 F450.000 E2.00415
G1 X82.136 Y97.375 F3000.000
G1 X81.997 Y97.500 F450.000 E2.00830
G1 X81.250 Y97.500 E2.02491
G1 X81.250 Y97.500 F3000.000
G1 X78.750 Y97.500 F450.000 E2.08046
G1 X78.750 Y97.500 F3000.000
G1 X78.194 Y97.500 F450.000 E2.09281
G1 X78.194 Y97.500 F3000.000
G1 X78.003 Y97.500 F450.000 E2.09707
G1 X77.864 Y97.625 F3000.000
G1 X78.003 Y97.500 F450.000 E2.10122
G1 X77.864 Y97.375 E2.10537
G1 F1800.000 E1.10537
G92 E0
G1 X82.875 Y96.636 F3000.000
G1 F1800.000 E2.00000
G1 X82.904 Y96.583 F450.000 E2.00134
G1 X82.904 Y96.583 F3000.000
G1 X83.000 Y96.497 F450.000 E2.00420
G1 X83.000 Y92.503 E2.09297
G1 X82.875 Y92.364 E2.09712
G1 X83.000 Y92.503 F3000.000
G1 X83.096 Y92.417 F450.000 E2.09998
G1 X83.096 Y92.417 F3000.000
G1 X83.125 Y92.364 F450.000 E2.10132
G1 X83.000 Y96.497 F3000.000
G1 X83.096 Y96.583 F450.000 E2.10418
G1 X83.096 Y96.583 F3000.000
G1 X83.125 Y96.636 F450.000 E2.10552
G1 F1800.000 E1.10552
G92 E0
G1 X81.680 Y104.213 F3000.000
G1 F1800.000 E2.00000
G1 X82.287 Y104.820 F900.000 E2.01919
G1 X82.680 Y105.213 F3000.000
G1 X89.254 Y111.787 F900.000 E2.22728
G1 X88.477 Y111.787 E2.24467
G1 X80.903 Y104.213 E2.48442
G1 X80.126 Y104.213 E2.50181
G1 X87.700 Y111.787 E2.74156
G1 X86.923 Y111.787 E2.75896
G1 X79.349 Y104.213 E2.99871
G1 X78.572 Y104.213 E3.01610
G1 X86.146 Y111.787 E3.25585
G1 X85.369 Y111.787 E3.27324
G1 X77.795 Y104.213 E3.51299
G1 X77.018 Y104.213 E3.53038
G1 X84.592 Y111.787 E3.77013
G1 X83.815 Y111.787 E3.78753
G1 X73.713 Y101.685 E4.10731
G1 X73.713 Y102.462 E4.12470
G1 X83.038 Y111.787 E4.41989
G1 X82.261 Y111.787 E4.43728
G1 X73.713 Y103.239 E4.70786
G1 X73.713 Y104.016 E4.72526
G1 X81.484 Y111.787 E4.97125
G1 X80.707 Y111.787 E4.98864
G1 X73.713 Y104.793 E5.21003
G1 X73.713 Y105.570 E5.22742
G1 X79.930 Y111.787 E5.42421
G1 X79.153 Y111.787 E5.44161
G1 X73.713 Y106.347 E5.61380
G1 X73.713 Y107.124 E5.63119
G1 X78.376 Y111.787 E5.77879
G1 X77.599 Y111.787 E5.79618
G1 X73.713 Y107.901 E5.91918
G1 X73.713 Y108.678 E5.93657
G1 X76.822 Y111.787 E6.03497
G1 X76.045 Y111.787 E6.05236
G1 X73.713 Y109.455 E6.12616
G1 X73.713 Y110.232 E6.14356
G1 X75.268 Y111.787 E6.19276
G1 X74.491 Y111.787 E6.21015
G1 X73.713 Y111.009 E6.23476
G1 X73.714 Y111.787 E6.25216
G1 X76.287 Y103.482 F3000.000
G1 X73.713 Y100.908 F900.000 E6.33362
